;Generated with Cura_SteamEngine 13.07
M109 S210     ;Heatup to 210C
G21           ;metric values
G90           ;absolute positioning
G28           ;Home
G1 Z15.0 F300 ;move the platform down 15mm
G92 E0        ;zero the extruded length
G1 F200 E5    ;extrude 5mm of feed stock
G92 E0        ;zero the extruded length again

;total_layers=286
;LAYER:0
M107
;LAYER:1
;LAYER:2
M106 S255
G0 F12000 X98.16 Y101.28 Z0.50
;TYPE:WALL-OUTER
G1 F2700 E0.00000
G1 F600 X98.27 Y101.41 E0.00104
G1 X98.11 Y101.40 E0.00199
G1 X98.16 Y101.28 E0.00276
;Small layer, adding delay of 4.249507
G1 F2700 E-4.49724
G0 F12000 X98.16 Y101.28 Z3.50
G0 X118.16 Y101.28
G4 P4249
;LAYER:3
G0 X98.45 Y101.48 Z0.60
;TYPE:WALL-OUTER
G1 F2700 E0.00276
G1 F600 X98.04 Y101.45 E0.00528
G1 X98.16 Y101.13 E0.00735
G1 X98.45 Y101.48 E0.01010
;Small layer, adding delay of 4.781127
G0 F12000 X98.45 Y101.48 Z3.60
G0 X118.45 Y101.48
G4 P4781
;LAYER:4
G0 X98.63 Y101.55 Z0.70
;TYPE:WALL-OUTER
G1 F600 X97.96 Y101.50 E0.01418
G1 X98.16 Y100.99 E0.01753
G1 X98.63 Y101.55 E0.02199
;Small layer, adding delay of 4.705865
G0 F12000 X98.63 Y101.55 Z3.70
G0 X118.63 Y101.55
G4 P4705
;LAYER:5
G0 X98.81 Y101.62 Z0.80
;TYPE:WALL-OUTER
G1 F600 X97.89 Y101.55 E0.02764
G1 X98.16 Y100.84 E0.03228
G1 X98.81 Y101.62 E0.03846
G0 F12000 X98.35 Y101.28
;Small layer, adding delay of 4.627933
G0 X98.35 Y101.28 Z3.80
G0 X118.35 Y101.28
G4 P4627
;LAYER:6
G0 X103.60 Y107.18 Z0.90
;TYPE:WALL-OUTER
G1 F600 X103.37 Y107.02 E0.04018
G1 X102.16 Y105.55 E0.05176
G1 X102.08 Y105.36 E0.05300
G1 X103.60 Y107.18 E0.06742
G0 F12000 X99.00 Y101.69
G1 F600 X97.82 Y101.60 E0.07464
G1 X98.16 Y100.69 E0.08056
G1 X99.00 Y101.69 E0.08846
G0 F12000 X98.58 Y101.41
;TYPE:FILL
G1 F600 X98.20 Y101.03 E0.09174
G0 F12000 X98.32 Y101.13
;Small layer, adding delay of 4.007702
G0 X98.32 Y101.13 Z3.90
G0 X118.32 Y101.13
G4 P4007
;LAYER:7
G0 X104.13 Y107.66 Z1.00
;TYPE:WALL-OUTER
G1 F600 X103.29 Y107.08 E0.09798
G1 X102.08 Y105.62 E0.10956
G1 X101.72 Y104.79 E0.11505
G1 X104.13 Y107.66 E0.13789
G1 F2700 E-4.36211
G0 F12000 X99.18 Y101.75
G1 F2700 E0.13789
G1 F600 X97.74 Y101.65 E0.14666
G1 X98.16 Y100.55 E0.15387
G1 X99.18 Y101.75 E0.16348
G0 F12000 X98.75 Y101.58
;TYPE:FILL
G1 F600 X98.15 Y100.98 E0.16871
G0 F12000 X98.30 Y101.03
;Small layer, adding delay of 3.618118
G0 X98.30 Y101.03 Z4.00
G0 X118.30 Y101.03
G4 P3618
;LAYER:8
G0 X104.66 Y108.15 Z1.10
;TYPE:WALL-OUTER
G1 F600 X103.21 Y107.15 E0.17945
G1 X102.00 Y105.69 E0.19103
G1 X101.37 Y104.22 E0.20078
G1 X104.66 Y108.15 E0.23204
G0 F12000 X103.62 Y107.08
G0 X98.44 Y101.36
;TYPE:WALL-INNER
G1 F600 X98.23 Y101.34 E0.23334
G1 X98.29 Y101.18 E0.23441
G1 X98.44 Y101.36 E0.23582
G0 F12000 X97.67 Y101.70
;TYPE:WALL-OUTER
G1 F600 X98.16 Y100.40 E0.24431
G1 X99.36 Y101.82 E0.25565
G1 X97.67 Y101.70 E0.26599
G0 F12000 X98.04 Y101.55
;Small layer, adding delay of 3.275423
G1 F2700 E-4.23401
G0 F12000 X98.04 Y101.55 Z4.10
G0 X118.04 Y101.55
G4 P3275
;LAYER:9
G0 X105.01 Y108.42 Z1.20
;TYPE:WALL-OUTER
G1 F2700 E0.26599
G1 F600 X104.73 Y108.32 E0.26780
G1 X103.12 Y107.22 E0.27967
G1 X101.92 Y105.75 E0.29125
G1 X101.14 Y103.96 E0.30316
G1 X101.12 Y103.78 E0.30430
G1 X105.01 Y108.42 E0.34124
G0 F12000 X103.93 Y107.35
;TYPE:FILL
G1 F600 X103.61 Y107.39 E0.34254
G1 X103.55 Y106.89 E0.34450
G1 X103.01 Y106.86 E0.34691
G1 X103.03 Y106.27 E0.34930
G1 X102.50 Y106.24 E0.35166
G1 X102.51 Y105.66 E0.35399
G1 X102.02 Y105.59 E0.35631
G1 X102.00 Y105.04 E0.35809
G1 X101.75 Y105.01 E0.35962
G0 F12000 X101.89 Y104.95
G0 X98.62 Y101.43
;TYPE:WALL-INNER
G1 F600 X98.16 Y101.39 E0.36248
G1 X98.29 Y101.03 E0.36483
G1 X98.62 Y101.43 E0.36796
G0 F12000 X99.54 Y101.89
;TYPE:WALL-OUTER
G1 F600 X97.59 Y101.75 E0.37987
G1 X98.16 Y100.26 E0.38965
G1 X99.54 Y101.89 E0.40269
G0 F12000 X99.08 Y101.56
;Small layer, adding delay of 2.635486
G1 F2700 E-4.09731
G0 F12000 X99.08 Y101.56 Z4.20
G0 X119.08 Y101.56
G4 P2635
;LAYER:10
G0 X103.55 Y107.15 Z1.30
;TYPE:WALL-INNER
G1 F2700 E0.40269
G1 F600 X103.32 Y106.99 E0.40443
G1 X102.18 Y105.61 E0.41532
G1 X102.10 Y105.42 E0.41659
G1 X103.55 Y107.15 E0.43036
G0 F12000 X103.04 Y107.29
;TYPE:WALL-OUTER
G1 F600 X101.84 Y105.82 E0.44194
G1 X101.06 Y104.03 E0.45385
G1 X100.98 Y103.46 E0.45733
G1 X105.30 Y108.62 E0.49833
G1 X104.65 Y108.39 E0.50254
G1 X103.04 Y107.29 E0.51441
G0 F12000 X103.25 Y107.07
G1 F2700 E-3.98559
G0 F12000 X98.81 Y101.50
;TYPE:WALL-INNER
G1 F2700 E0.51441
G1 F600 X98.08 Y101.44 E0.51884
G1 X98.29 Y100.89 E0.52248
G1 X98.81 Y101.50 E0.52733
G0 F12000 X99.72 Y101.96
;TYPE:WALL-OUTER
G1 F600 X97.52 Y101.81 E0.54080
G1 X98.17 Y100.11 E0.55187
G1 X99.72 Y101.96 E0.56663
G0 F12000 X99.26 Y101.63
;Small layer, adding delay of 2.181314
G0 X99.26 Y101.63 Z4.30
G0 X119.26 Y101.63
G4 P2181
;LAYER:11
G0 X104.08 Y107.64 Z1.40
;TYPE:WALL-INNER
G1 F600 X103.24 Y107.06 E0.57288
G1 X102.10 Y105.68 E0.58380
G1 X101.74 Y104.85 E0.58933
G1 X104.08 Y107.64 E0.61156
G0 F12000 X104.57 Y108.46
;TYPE:WALL-OUTER
G1 F600 X102.96 Y107.36 E0.62343
G1 X101.75 Y105.89 E0.63501
G1 X100.98 Y104.10 E0.64692
G1 X100.84 Y103.15 E0.65273
G1 X105.59 Y108.82 E0.69779
G1 X104.57 Y108.46 E0.70441
G0 F12000 X104.71 Y108.19
G1 F2700 E-3.79559
G0 F12000 X98.99 Y101.57
;TYPE:WALL-INNER
G1 F2700 E0.70441
G1 F600 X98.01 Y101.50 E0.71040
G1 X98.30 Y100.74 E0.71533
G1 X98.99 Y101.57 E0.72189
G0 F12000 X99.90 Y102.03
;TYPE:WALL-OUTER
G1 F600 X97.44 Y101.86 E0.73693
G1 X98.17 Y99.96 E0.74928
G1 X99.90 Y102.03 E0.76575
G0 F12000 X98.57 Y101.39
;TYPE:FILL
G1 F600 X98.30 Y101.13 E0.76806
;Small layer, adding delay of 1.552430
G0 F12000 X98.30 Y101.13 Z4.40
G0 X118.30 Y101.13
G4 P1552
;LAYER:12
G0 X104.62 Y108.13 Z1.50
;TYPE:WALL-INNER
G1 F600 X103.16 Y107.13 E0.77887
G1 X102.02 Y105.75 E0.78979
G1 X101.38 Y104.27 E0.79957
G1 X104.62 Y108.13 E0.83027
G1 F2700 E-3.66973
G0 F12000 X99.17 Y101.64
G1 F2700 E0.83027
G1 F600 X97.93 Y101.55 E0.83784
G1 X98.30 Y100.60 E0.84405
G1 X99.17 Y101.64 E0.85234
G0 F12000 X100.08 Y102.10
;TYPE:WALL-OUTER
G1 F600 X97.37 Y101.91 E0.86895
G1 X98.17 Y99.82 E0.88259
G1 X100.08 Y102.10 E0.90079
G0 F12000 X100.70 Y102.84
G1 F600 X105.88 Y109.01 E0.94991
G1 X104.49 Y108.52 E0.95893
G1 X102.88 Y107.43 E0.97079
G1 X101.67 Y105.96 E0.98237
G1 X100.90 Y104.17 E0.99429
G1 X100.70 Y102.84 E1.00245
G1 F2700 E-3.49755
G0 F12000 X98.63 Y101.45
;TYPE:FILL
G1 F2700 E1.00245
G1 F600 X98.26 Y101.08 E1.00563
;Small layer, adding delay of 0.962377
G0 F12000 X98.26 Y101.08 Z4.50
G0 X118.26 Y101.08
G4 P962
;LAYER:13
G0 X104.93 Y108.35 Z1.60
;TYPE:WALL-INNER
G1 F600 X104.59 Y108.23 E1.00781
G1 X103.07 Y107.20 E1.01902
G1 X101.94 Y105.82 E1.02992
G1 X101.21 Y104.13 E1.04114
G1 X101.17 Y103.88 E1.04267
G1 X104.93 Y108.35 E1.07829
G0 F12000 X99.35 Y101.70
G1 F600 X97.86 Y101.59 E1.08738
G1 X98.30 Y100.45 E1.09483
G1 X99.35 Y101.70 E1.10480
G0 F12000 X100.26 Y102.17
;TYPE:WALL-OUTER
G1 F600 X97.30 Y101.95 E1.12295
G1 X98.17 Y99.67 E1.13783
G1 X100.26 Y102.17 E1.15773
G0 F12000 X100.57 Y102.54
G1 F600 X106.17 Y109.21 E1.21087
G1 X104.40 Y108.59 E1.22227
G1 X102.80 Y107.49 E1.23414
G1 X101.59 Y106.03 E1.24571
G1 X100.82 Y104.23 E1.25763
G1 X100.57 Y102.54 E1.26810
G1 F2700 E-3.23190
G0 F12000 X98.68 Y101.51
;TYPE:FILL
G1 F2700 E1.26810
G1 F600 X98.22 Y101.05 E1.27211
;Small layer, adding delay of 0.492452
G0 F12000 X98.22 Y101.05 Z4.60
G0 X118.22 Y101.05
G4 P492
;LAYER:14
G0 X105.22 Y108.55 Z1.70
;TYPE:WALL-INNER
G1 F600 X104.51 Y108.30 E1.27669
G1 X102.99 Y107.26 E1.28789
G1 X101.86 Y105.88 E1.29879
G1 X101.13 Y104.19 E1.31001
G1 X101.03 Y103.56 E1.31389
G1 X105.22 Y108.55 E1.35358
G0 F12000 X99.53 Y101.77
G1 F600 X97.78 Y101.65 E1.36427
G1 X98.30 Y100.30 E1.37305
G1 X99.53 Y101.77 E1.38476
G0 F12000 X100.34 Y102.24
;TYPE:WALL-OUTER
G1 F600 X97.22 Y102.00 E1.40385
G1 X98.17 Y99.53 E1.42001
G1 X106.42 Y109.36 E1.49828
G1 X106.27 Y109.34 E1.49918
G1 X104.32 Y108.66 E1.51176
G1 X102.72 Y107.56 E1.52362
G1 X101.51 Y106.10 E1.53520
G1 X100.74 Y104.30 E1.54712
G1 X100.45 Y102.33 E1.55927
G1 X100.34 Y102.24 E1.56012
G0 F12000 X99.05 Y101.60
;TYPE:FILL
G1 F600 X98.26 Y100.80 E1.56699
G0 F12000 X98.18 Y101.00
G1 F600 X98.75 Y101.57 E1.57191
G0 F12000 X98.44 Y101.55
G1 F600 X98.10 Y101.21 E1.57486
G1 F2700 E-2.92514
G0 F12000 X101.40 Y104.23
G1 F2700 E1.57486
G1 F600 X101.62 Y104.48 E1.57535
G1 X101.58 Y104.89 E1.57785
G0 F12000 X104.37 Y107.76
G1 F600 X104.21 Y107.93 E1.57928
;LAYER:15
G0 F12000 X104.43 Y108.37 Z1.80
;TYPE:WALL-INNER
G1 F660 X102.91 Y107.33 E1.59049
G1 X101.77 Y105.95 E1.60139
G1 X101.05 Y104.26 E1.61260
G1 X100.90 Y103.26 E1.61881
G1 X105.50 Y108.75 E1.66252
G1 X104.43 Y108.37 E1.66949
G0 F12000 X99.71 Y101.84
G1 F660 X97.71 Y101.70 E1.68173
G1 X98.30 Y100.16 E1.69178
G1 X99.71 Y101.84 E1.70520
G0 F12000 X100.26 Y102.29
;TYPE:WALL-OUTER
G1 F660 X97.45 Y102.08 E1.72238
G1 X97.16 Y102.02 E1.72420
G1 X98.17 Y99.38 E1.74147
G1 X100.50 Y102.16 E1.76358
G1 X106.62 Y109.46 E1.82168
G1 X106.19 Y109.41 E1.82435
G1 X104.24 Y108.73 E1.83692
G1 X102.64 Y107.63 E1.84879
G1 X101.43 Y106.16 E1.86037
G1 X100.66 Y104.37 E1.87228
G1 X100.36 Y102.38 E1.88455
G1 X100.26 Y102.29 E1.88540
G0 F12000 X99.28 Y101.54
;TYPE:FILL
G1 F660 X99.02 Y101.65 E1.88644
G1 X99.02 Y101.23 E1.88864
G1 X98.37 Y101.60 E1.89322
G0 F12000 X97.95 Y101.45
G1 F660 X98.63 Y100.77 E1.89908
G0 F12000 X98.14 Y100.97
G1 F660 X98.81 Y101.63 E1.90483
G1 F2700 E-2.59517
G0 F12000 X101.14 Y103.97
G1 F2700 E1.90483
G1 F660 X102.21 Y105.04 E1.91402
G0 F12000 X101.86 Y104.62
G1 F660 X101.50 Y104.97 E1.91706
G0 F12000 X104.44 Y107.69
G1 F660 X104.13 Y108.00 E1.91969
;LAYER:16
G0 F12000 X104.35 Y108.44 Z1.90
;TYPE:WALL-INNER
G1 F840 X102.83 Y107.40 E1.93090
G1 X101.69 Y106.02 E1.94180
G1 X100.96 Y104.33 E1.95301
G1 X100.76 Y102.95 E1.96155
G1 X105.79 Y108.94 E2.00930
G1 X104.35 Y108.44 E2.01866
G1 F2700 E-2.48134
G0 F12000 X99.89 Y101.91
G1 F2700 E2.01866
G1 F840 X97.64 Y101.74 E2.03246
G1 X98.30 Y100.01 E2.04376
G1 X99.89 Y101.91 E2.05889
G0 F12000 X100.18 Y102.33
;TYPE:WALL-OUTER
G1 F840 X97.61 Y102.14 E2.07455
G1 X97.09 Y102.05 E2.07778
G1 X98.17 Y99.23 E2.09616
G1 X100.54 Y102.06 E2.11868
G1 X106.83 Y109.56 E2.17834
G1 X106.11 Y109.48 E2.18277
G1 X104.16 Y108.80 E2.19535
G1 X102.56 Y107.70 E2.20721
G1 X101.35 Y106.23 E2.21879
G1 X100.58 Y104.44 E2.23070
G1 X100.28 Y102.43 E2.24308
G1 X100.18 Y102.33 E2.24393
G0 F12000 X99.17 Y101.71
;TYPE:FILL
G1 F840 X98.18 Y100.72 E2.25250
G0 F12000 X98.10 Y100.93
G1 F840 X98.86 Y101.69 E2.25910
G0 F12000 X99.11 Y101.71
G1 F840 X99.34 Y101.47 E2.26115
G0 F12000 X98.56 Y101.67
G1 F840 X97.94 Y101.34 E2.26578
G1 X97.95 Y101.62 E2.26753
G0 F12000 X98.56 Y100.54
G1 F840 X98.36 Y100.34 E2.26931
G1 F2700 E-2.23069
G0 F12000 X101.02 Y103.57
G1 F2700 E2.26931
G1 F840 X101.50 Y104.04 E2.27342
G0 F12000 X101.09 Y104.20
G1 F840 X104.46 Y107.57 E2.30248
G0 F12000 X104.50 Y107.63
G1 F840 X104.06 Y108.07 E2.30632
G0 F12000 X104.75 Y108.43
G1 F840 X101.47 Y105.14 E2.33467
G0 F12000 X101.43 Y105.05
G1 F840 X101.92 Y104.55 E2.33895
G0 F12000 X101.04 Y103.87
G1 F840 X102.98 Y105.81 E2.35568
G0 F12000 X102.32 Y106.57
G1 F840 X103.33 Y107.57 E2.36434
;LAYER:17
G0 F12000 X102.75 Y107.47 Z2.00
;TYPE:WALL-INNER
G1 F960 X101.61 Y106.09 E2.37524
G1 X100.88 Y104.40 E2.38646
G1 X100.62 Y102.63 E2.39735
G1 X106.08 Y109.14 E2.44917
G1 X104.26 Y108.51 E2.46093
G1 X102.75 Y107.47 E2.47213
G0 F12000 X100.56 Y102.29
G0 X100.08 Y101.98
G1 F960 X97.90 Y101.83 E2.48547
G1 X97.57 Y101.77 E2.48748
G1 X98.30 Y99.86 E2.49989
G1 X100.08 Y101.98 E2.51675
G0 F12000 X100.09 Y102.39
;TYPE:WALL-OUTER
G1 F960 X97.85 Y102.22 E2.53047
G1 X97.03 Y102.07 E2.53555
G1 X98.17 Y99.09 E2.55503
G1 X107.04 Y109.66 E2.63916
G1 X106.03 Y109.55 E2.64536
G1 X104.08 Y108.86 E2.65794
G1 X102.47 Y107.77 E2.66980
G1 X101.27 Y106.30 E2.68138
G1 X100.50 Y104.51 E2.69329
G1 X100.19 Y102.48 E2.70577
G1 X100.09 Y102.39 E2.70663
G0 F12000 X99.31 Y101.79
;TYPE:FILL
G1 F960 X99.47 Y101.48 E2.70859
G1 X99.05 Y101.77 E2.71171
G0 F12000 X98.93 Y101.76
G1 F960 X98.06 Y100.89 E2.71924
G0 F12000 X98.12 Y100.71
G1 F960 X98.64 Y100.48 E2.72254
G1 X98.29 Y101.11 E2.72551
G1 X98.02 Y101.67 E2.72885
G1 X98.59 Y101.38 E2.73093
G1 X99.15 Y101.10 E2.73389
G1 X98.79 Y101.75 E2.73845
G0 F12000 X100.56 Y102.29
G0 X100.91 Y103.59
G1 F960 X101.09 Y103.41 E2.74002
G0 F12000 X100.93 Y103.76
G1 F960 X103.75 Y106.58 E2.76436
G0 F12000 X103.67 Y106.48
G1 F960 X103.27 Y106.88 E2.76734
G1 X102.69 Y107.18 E2.77073
G1 X103.01 Y106.57 E2.77412
G1 X103.28 Y106.02 E2.77709
G1 X102.75 Y106.26 E2.78007
G1 X102.18 Y106.56 E2.78347
G1 X102.50 Y105.96 E2.78687
G1 X102.77 Y105.40 E2.78986
G1 X102.24 Y105.65 E2.79283
G1 X101.70 Y105.90 E2.79621
G1 X102.02 Y105.30 E2.79967
G1 X102.38 Y104.94 E2.80277
G0 F12000 X102.12 Y104.64
G1 F960 X101.43 Y105.32 E2.80869
G0 F12000 X101.35 Y105.12
G1 F960 X101.99 Y104.48 E2.81423
G0 F12000 X101.86 Y104.33
G1 F960 X101.26 Y104.93 E2.81939
G0 F12000 X101.09 Y104.53
G1 F960 X101.47 Y103.87 E2.82378
G1 X100.98 Y104.08 E2.82708
G0 F12000 X103.93 Y106.79
G1 F960 X103.56 Y107.16 E2.83005
G1 X103.15 Y107.57 E2.83357
G0 F12000 X103.48 Y107.80
G1 F960 X104.18 Y107.10 E2.83964
G0 F12000 X104.44 Y107.40
G1 F960 X103.82 Y108.03 E2.84503
G0 F12000 X103.99 Y108.14
G1 F960 X104.57 Y107.56 E2.85009
G0 F12000 X104.70 Y107.71
G1 F960 X104.34 Y108.36 E2.85480
G1 X105.09 Y108.17 E2.85851
G1 X105.16 Y108.67 E2.86083
G1 X105.48 Y108.64 E2.86278
;LAYER:18
G0 F12000 X106.04 Y109.22 Z2.10
;TYPE:WALL-INNER
G1 F1080 X104.18 Y108.57 E2.87475
G1 X102.67 Y107.54 E2.88595
G1 X101.53 Y106.16 E2.89686
G1 X100.80 Y104.46 E2.90810
G1 X100.49 Y102.33 E2.92123
G1 X100.18 Y102.05 E2.92379
G1 X98.08 Y101.90 E2.93663
G1 X97.51 Y101.79 E2.94015
G1 X98.30 Y99.72 E2.95366
G1 X106.30 Y109.25 E3.02953
G1 X106.04 Y109.22 E3.03114
G0 F12000 X105.95 Y109.61
;TYPE:WALL-OUTER
G1 F1080 X104.00 Y108.93 E3.04372
G1 X102.39 Y107.83 E3.05558
G1 X101.19 Y106.37 E3.06716
G1 X100.41 Y104.57 E3.07907
G1 X100.11 Y102.53 E3.09166
G1 X100.01 Y102.44 E3.09252
G1 X98.03 Y102.29 E3.10461
G1 X96.96 Y102.10 E3.11121
G1 X98.17 Y98.94 E3.13180
G1 X107.24 Y109.76 E3.21788
G1 X105.95 Y109.61 E3.22584
G0 F12000 X105.81 Y108.92
;TYPE:FILL
G1 F1080 X102.05 Y105.16 E3.25830
G0 F12000 X101.66 Y104.78
G1 F1080 X100.87 Y103.98 E3.26515
G0 F12000 X100.82 Y103.65
G1 F1080 X104.52 Y107.35 E3.29704
G0 F12000 X104.64 Y107.49
G1 F1080 X103.91 Y108.22 E3.30331
G0 F12000 X104.11 Y108.35
G1 F1080 X101.51 Y105.75 E3.32577
G0 F12000 X101.27 Y105.20
G1 F1080 X102.06 Y104.42 E3.33254
G0 F12000 X101.08 Y104.76
G1 F1080 X102.22 Y105.89 E3.34235
G0 F12000 X103.04 Y105.59
G1 F1080 X100.77 Y103.32 E3.36195
G0 F12000 X100.47 Y102.34
G0 X99.86 Y101.84
G1 F1080 X98.25 Y100.23 E3.37580
G0 F12000 X98.10 Y100.64
G1 F1080 X98.27 Y100.82 E3.37733
G0 F12000 X98.02 Y100.85
G1 F1080 X98.99 Y101.82 E3.38572
G0 F12000 X99.00 Y101.82
G1 F1080 X99.25 Y101.45 E3.38987
G1 X98.99 Y101.82 E3.39225
G1 X98.24 Y101.64 E3.39463
G1 X97.95 Y101.34 E3.39714
G1 X97.94 Y101.05 E3.39893
G0 F12000 X100.47 Y102.34
G0 X103.85 Y107.53
G1 F1080 X105.05 Y108.73 E3.40925
;LAYER:19
G0 F12000 X104.10 Y108.64 Z2.20
;TYPE:WALL-INNER
G1 F1200 X102.58 Y107.60 E3.42045
G1 X101.45 Y106.22 E3.43134
G1 X100.72 Y104.53 E3.44259
G1 X100.40 Y102.38 E3.45583
G1 X100.09 Y102.10 E3.45838
G1 X98.16 Y101.95 E3.47023
G1 X97.44 Y101.81 E3.47465
G1 X98.30 Y99.57 E3.48927
G1 X106.50 Y109.35 E3.56709
G1 X105.96 Y109.29 E3.57046
G1 X104.10 Y108.64 E3.58245
G0 F12000 X103.92 Y109.00
;TYPE:WALL-OUTER
G1 F1200 X102.31 Y107.90 E3.59432
G1 X101.11 Y106.44 E3.60589
G1 X100.33 Y104.64 E3.61780
G1 X100.03 Y102.58 E3.63051
G1 X99.92 Y102.49 E3.63136
G1 X98.11 Y102.34 E3.64246
G1 X96.90 Y102.12 E3.64996
G1 X98.17 Y98.80 E3.67166
G1 X107.45 Y109.86 E3.75970
G1 X105.86 Y109.68 E3.76942
G1 X103.92 Y109.00 E3.78200
G0 F12000 X104.01 Y108.41
;TYPE:FILL
G1 F1200 X104.44 Y107.97 E3.78531
G1 X104.83 Y107.58 E3.78871
G0 F12000 X104.71 Y107.43
G1 F1200 X103.84 Y108.29 E3.79619
G0 F12000 X103.67 Y108.18
G1 F1200 X104.14 Y107.71 E3.79950
G1 X104.45 Y107.12 E3.80247
G1 X103.85 Y107.44 E3.80543
G1 X103.17 Y107.83 E3.80874
