;Generated with Cura_SteamEngine 13.07
M109 S210     ;Heatup to 210C
G21           ;metric values
G90           ;absolute positioning
G28           ;Home
G1 Z15.0 F300 ;move the platform down 15mm
G92 E0        ;zero the extruded length
G1 F200 E5    ;extrude 5mm of feed stock
G92 E0        ;zero the extruded length again

;total_layers=399
;LAYER:0
M107
G0 F12000 X82.31 Y77.93 Z0.30
;TYPE:SKIRT
G1 F2700 E0.00000
G1 F1200 X85.94 Y74.30 E0.09396
G1 X131.06 Y74.30 E0.91929
G1 X134.69 Y77.93 E1.01324
G1 X134.69 Y123.07 E1.83903
G1 X131.06 Y126.70 E1.93298
G1 X110.34 Y126.70 E2.31203
G1 X106.81 Y128.59 E2.38526
G1 X106.25 Y128.82 E2.39640
G1 X101.91 Y130.14 E2.47926
G1 X101.32 Y130.26 E2.49039
G1 X96.81 Y130.70 E2.57330
G1 X96.19 Y130.70 E2.58451
G1 X91.67 Y130.25 E2.66768
G1 X91.07 Y130.13 E2.67880
G1 X86.74 Y128.82 E2.76161
G1 X86.18 Y128.58 E2.77273
G1 X82.20 Y126.45 E2.85533
G1 X81.69 Y126.11 E2.86650
G1 X78.19 Y123.24 E2.94938
G1 X77.76 Y122.81 E2.96054
G1 X74.88 Y119.30 E3.04363
G1 X74.54 Y118.79 E3.05475
G1 X72.41 Y114.81 E3.13735
G1 X72.18 Y114.25 E3.14850
G1 X70.86 Y109.91 E3.23135
G1 X70.74 Y109.31 E3.24249
G1 X70.30 Y104.80 E3.32539
G1 X70.30 Y104.19 E3.33661
G1 X70.75 Y99.67 E3.41976
G1 X70.87 Y99.07 E3.43085
G1 X72.18 Y94.75 E3.51342
G1 X72.41 Y94.19 E3.52455
G1 X74.55 Y90.19 E3.60744
G1 X74.89 Y89.69 E3.61861
G1 X77.76 Y86.19 E3.70146
G1 X78.19 Y85.76 E3.71257
G1 X81.69 Y82.88 E3.79542
G1 X82.20 Y82.54 E3.80659
G1 X82.31 Y82.48 E3.80902
G1 X82.31 Y77.93 E3.89229
G1 F2700 E-0.60771
G0 F12000 X89.11 Y81.10
;TYPE:WALL-INNER
G1 F2700 E3.89229
G1 F1200 X127.89 Y81.10 E4.60169
G1 X127.89 Y119.90 E5.31155
G1 X108.27 Y119.90 E5.67043
G1 X108.08 Y119.97 E5.67422
G1 X107.27 Y120.63 E5.69339
G1 X103.92 Y122.42 E5.76274
G1 X100.29 Y123.53 E5.83229
G1 X96.50 Y123.90 E5.90187
G1 X92.70 Y123.52 E5.97167
G1 X89.07 Y122.42 E6.04125
G1 X85.73 Y120.63 E6.11051
G1 X82.78 Y118.21 E6.18016
G1 X80.37 Y115.27 E6.24989
G1 X78.58 Y111.92 E6.31923
G1 X77.48 Y108.29 E6.38878
G1 X77.10 Y104.50 E6.45836
G1 X77.48 Y100.70 E6.52820
G1 X78.58 Y97.08 E6.59748
G1 X80.37 Y93.72 E6.66702
G1 X82.79 Y90.79 E6.73661
G1 X85.73 Y88.37 E6.80621
G1 X88.94 Y86.65 E6.87297
G1 X89.11 Y86.36 E6.87903
G1 X89.11 Y81.10 E6.97538
G0 F12000 X88.71 Y80.70
;TYPE:WALL-OUTER
G1 F1200 X128.29 Y80.70 E7.69942
G1 X128.29 Y120.30 E8.42391
G1 X108.34 Y120.30 E8.78885
G1 X108.28 Y120.32 E8.79011
G1 X107.49 Y120.97 E8.80875
G1 X104.08 Y122.79 E8.87949
G1 X100.37 Y123.92 E8.95047
G1 X96.50 Y124.30 E9.02152
G1 X92.62 Y123.92 E9.09283
G1 X88.91 Y122.79 E9.16378
G1 X85.50 Y120.96 E9.23446
G1 X82.50 Y118.50 E9.30553
G1 X80.03 Y115.49 E9.37684
G1 X78.21 Y112.08 E9.44752
G1 X77.08 Y108.36 E9.51850
G1 X76.70 Y104.50 E9.58955
G1 X77.09 Y100.62 E9.66086
G1 X78.21 Y96.92 E9.73157
G1 X80.04 Y93.50 E9.80251
G1 X82.50 Y90.50 E9.87357
G1 X85.50 Y88.04 E9.94464
G1 X88.66 Y86.35 E10.01006
G1 X88.71 Y86.25 E10.01208
G1 X88.71 Y80.70 E10.11372
G0 F12000 X89.44 Y81.24
;TYPE:FILL
G1 F1200 X127.75 Y119.55 E11.10483
G0 F12000 X127.40 Y119.76
G1 F1200 X89.25 Y81.61 E12.09170
G0 F12000 X89.25 Y82.18
G1 F1200 X126.83 Y119.76 E13.06393
G0 F12000 X126.27 Y119.76
G1 F1200 X89.25 Y82.75 E14.02151
G0 F12000 X89.25 Y83.31
G1 F1200 X125.70 Y119.76 E14.96444
G0 F12000 X125.14 Y119.76
G1 F1200 X89.25 Y83.88 E15.89274
G0 F12000 X89.25 Y84.44
G1 F1200 X124.57 Y119.76 E16.80640
G0 F12000 X124.00 Y119.76
G1 F1200 X89.25 Y85.01 E17.70542
G0 F12000 X89.25 Y85.58
G1 F1200 X123.44 Y119.76 E18.58981
G0 F12000 X122.87 Y119.76
G1 F1200 X89.25 Y86.14 E19.45956
G0 F12000 X89.14 Y86.59
G1 F1200 X122.31 Y119.76 E20.31763
G0 F12000 X121.74 Y119.76
G1 F1200 X88.84 Y86.86 E21.16881
G0 F12000 X88.47 Y87.06
G1 F1200 X121.18 Y119.76 E22.01487
G0 F12000 X120.61 Y119.76
G1 F1200 X88.10 Y87.25 E22.85581
G0 F12000 X87.74 Y87.45
G1 F1200 X120.04 Y119.76 E23.69167
G0 F12000 X119.48 Y119.76
G1 F1200 X87.37 Y87.65 E24.52244
G0 F12000 X87.00 Y87.85
G1 F1200 X118.91 Y119.76 E25.34809
G0 F12000 X118.35 Y119.76
G1 F1200 X86.63 Y88.04 E26.16866
G0 F12000 X86.26 Y88.24
G1 F1200 X117.78 Y119.76 E26.98411
G0 F12000 X117.21 Y119.76
G1 F1200 X85.89 Y88.44 E27.79446
G0 F12000 X85.57 Y88.68
G1 F1200 X116.65 Y119.76 E28.59853
G0 F12000 X116.08 Y119.76
G1 F1200 X85.26 Y88.93 E29.39603
G0 F12000 X84.95 Y89.19
G1 F1200 X115.52 Y119.76 E30.18691
G0 F12000 X114.95 Y119.76
G1 F1200 X84.64 Y89.44 E30.97120
G0 F12000 X84.33 Y89.70
G1 F1200 X114.39 Y119.76 E31.74890
G0 F12000 X113.82 Y119.76
G1 F1200 X84.02 Y89.96 E32.51998
G0 F12000 X83.71 Y90.21
G1 F1200 X113.25 Y119.76 E33.28448
G0 F12000 X112.69 Y119.76
G1 F1200 X83.39 Y90.46 E34.04239
G0 F12000 X83.08 Y90.72
G1 F1200 X112.12 Y119.76 E34.79371
G0 F12000 X111.56 Y119.76
G1 F1200 X82.79 Y90.99 E35.53792
G0 F12000 X82.54 Y91.31
G1 F1200 X110.99 Y119.76 E36.27410
G0 F12000 X110.43 Y119.76
G1 F1200 X82.28 Y91.62 E37.00224
G0 F12000 X82.03 Y91.93
G1 F1200 X109.86 Y119.76 E37.72234
G0 F12000 X109.30 Y119.76
G1 F1200 X81.77 Y92.24 E38.43441
G0 F12000 X81.52 Y92.55
G1 F1200 X108.73 Y119.76 E39.13843
G0 F12000 X108.18 Y119.78
G1 F1200 X81.26 Y92.86 E39.83496
G0 F12000 X81.01 Y93.17
G1 F1200 X107.83 Y119.99 E40.52889
G0 F12000 X107.52 Y120.25
G1 F1200 X80.75 Y93.48 E41.22134
G0 F12000 X80.50 Y93.79
G1 F1200 X107.21 Y120.50 E41.91234
G0 F12000 X106.84 Y120.70
G1 F1200 X80.30 Y94.16 E42.59910
G0 F12000 X80.10 Y94.53
G1 F1200 X106.47 Y120.90 E43.28139
G0 F12000 X106.10 Y121.10
G1 F1200 X79.90 Y94.89 E43.95924
G0 F12000 X79.71 Y95.26
G1 F1200 X105.74 Y121.29 E44.63267
G0 F12000 X105.37 Y121.49
G1 F1200 X79.51 Y95.63 E45.30164
G0 F12000 X79.31 Y96.00
G1 F1200 X105.00 Y121.69 E45.96619
G0 F12000 X104.63 Y121.88
G1 F1200 X79.11 Y96.37 E46.62630
G0 F12000 X78.92 Y96.74
G1 F1200 X104.26 Y122.08 E47.28194
G0 F12000 X103.89 Y122.28
G1 F1200 X78.72 Y97.11 E47.93317
G0 F12000 X78.58 Y97.54
G1 F1200 X103.46 Y122.41 E48.57679
G0 F12000 X103.03 Y122.54
G1 F1200 X78.45 Y97.97 E49.21258
G0 F12000 X78.32 Y98.40
G1 F1200 X102.59 Y122.68 E49.84054
G0 F12000 X102.16 Y122.81
G1 F1200 X78.19 Y98.84 E50.46068
G0 F12000 X78.06 Y99.27
G1 F1200 X101.73 Y122.94 E51.07302
G0 F12000 X101.29 Y123.07
G1 F1200 X77.93 Y99.71 E51.67753
G0 F12000 X77.79 Y100.14
G1 F1200 X100.86 Y123.20 E52.27420
G0 F12000 X100.42 Y123.33
G1 F1200 X77.66 Y100.57 E52.86305
G0 F12000 X77.58 Y101.06
G1 F1200 X99.94 Y123.42 E53.44147
G0 F12000 X99.43 Y123.47
G1 F1200 X77.53 Y101.57 E54.00788
G0 F12000 X77.48 Y102.09
G1 F1200 X98.91 Y123.52 E54.56229
G0 F12000 X98.40 Y123.57
G1 F1200 X77.43 Y102.60 E55.10470
G0 F12000 X77.38 Y103.12
G1 F1200 X97.88 Y123.62 E55.63513
G0 F12000 X97.37 Y123.67
G1 F1200 X77.33 Y103.63 E56.15357
G0 F12000 X77.28 Y104.15
G1 F1200 X96.85 Y123.72 E56.66002
G0 F12000 X96.30 Y123.74
G1 F1200 X77.26 Y104.70 E57.15260
G0 F12000 X77.32 Y105.32
G1 F1200 X95.67 Y123.68 E57.62734
G0 F12000 X95.04 Y123.61
G1 F1200 X77.39 Y105.95 E58.08422
G0 F12000 X77.45 Y106.58
G1 F1200 X94.42 Y123.55 E58.52324
G0 F12000 X93.79 Y123.49
G1 F1200 X77.51 Y107.21 E58.94440
G0 F12000 X77.57 Y107.83
G1 F1200 X93.16 Y123.42 E59.34770
G0 F12000 X92.47 Y123.30
G1 F1200 X77.69 Y108.52 E59.73005
G0 F12000 X77.94 Y109.34
G1 F1200 X91.66 Y123.06 E60.08502
G0 F12000 X90.85 Y122.81
G1 F1200 X78.19 Y110.15 E60.41261
G0 F12000 X78.43 Y110.96
G1 F1200 X90.04 Y122.56 E60.71282
G0 F12000 X89.22 Y122.32
G1 F1200 X78.68 Y111.77 E60.98563
G0 F12000 X79.28 Y112.94
G1 F1200 X88.06 Y121.72 E61.21280
G0 F12000 X86.84 Y121.07
G1 F1200 X79.93 Y114.15 E61.39164
G0 F12000 X80.88 Y115.67
G1 F1200 X85.34 Y120.13 E61.50704
G0 F12000 X90.01 Y81.24
G1 F1200 X127.75 Y118.98 E62.48351
G0 F12000 X127.75 Y118.42
G1 F1200 X90.57 Y81.24 E63.44536
G0 F12000 X91.14 Y81.24
G1 F1200 X127.75 Y117.85 E64.39257
G0 F12000 X127.75 Y117.29
G1 F1200 X91.70 Y81.24 E65.32514
G0 F12000 X92.27 Y81.24
G1 F1200 X127.75 Y116.72 E66.24307
G0 F12000 X127.75 Y116.15
G1 F1200 X92.83 Y81.24 E67.14638
G0 F12000 X93.40 Y81.24
G1 F1200 X127.75 Y115.59 E68.03504
G0 F12000 X127.75 Y115.02
G1 F1200 X93.97 Y81.24 E68.90906
G0 F12000 X94.53 Y81.24
G1 F1200 X127.75 Y114.46 E69.76847
G0 F12000 X127.75 Y113.89
G1 F1200 X95.10 Y81.24 E70.61323
G0 F12000 X95.66 Y81.24
G1 F1200 X127.75 Y113.32 E71.44335
G0 F12000 X127.75 Y112.76
G1 F1200 X96.23 Y81.24 E72.25885
G0 F12000 X96.79 Y81.24
G1 F1200 X127.75 Y112.19 E73.05971
G0 F12000 X127.75 Y111.63
G1 F1200 X97.36 Y81.24 E73.84592
G0 F12000 X97.93 Y81.24
G1 F1200 X127.75 Y111.06 E74.61752
G0 F12000 X127.75 Y110.50
G1 F1200 X98.49 Y81.24 E75.37447
G0 F12000 X99.06 Y81.24
G1 F1200 X127.75 Y109.93 E76.11679
G0 F12000 X127.75 Y109.37
G1 F1200 X99.62 Y81.24 E76.84448
G0 F12000 X100.19 Y81.24
G1 F1200 X127.75 Y108.80 E77.55753
G0 F12000 X127.75 Y108.23
G1 F1200 X100.75 Y81.24 E78.25594
G0 F12000 X101.32 Y81.24
G1 F1200 X127.75 Y107.67 E78.93974
G0 F12000 X127.75 Y107.10
G1 F1200 X101.89 Y81.24 E79.60889
G0 F12000 X102.45 Y81.24
G1 F1200 X127.75 Y106.54 E80.26342
G0 F12000 X127.75 Y105.97
G1 F1200 X103.02 Y81.24 E80.90332
G0 F12000 X103.58 Y81.24
G1 F1200 X127.75 Y105.41 E81.52858
G0 F12000 X127.75 Y104.84
G1 F1200 X104.15 Y81.24 E82.13921
G0 F12000 X104.71 Y81.24
G1 F1200 X127.75 Y104.28 E82.73520
G0 F12000 X127.75 Y103.71
G1 F1200 X105.28 Y81.24 E83.31655
G0 F12000 X105.85 Y81.24
G1 F1200 X127.75 Y103.14 E83.88328
G0 F12000 X127.75 Y102.58
G1 F1200 X106.41 Y81.24 E84.43536
G0 F12000 X106.98 Y81.24
G1 F1200 X127.75 Y102.01 E84.97282
G0 F12000 X127.75 Y101.45
G1 F1200 X107.54 Y81.24 E85.49564
G0 F12000 X108.11 Y81.24
G1 F1200 X127.75 Y100.88 E86.00382
G0 F12000 X127.75 Y100.32
G1 F1200 X108.67 Y81.24 E86.49737
G0 F12000 X109.24 Y81.24
G1 F1200 X127.75 Y99.75 E86.97629
G0 F12000 X127.75 Y99.18
G1 F1200 X109.81 Y81.24 E87.44057
G0 F12000 X110.37 Y81.24
G1 F1200 X127.75 Y98.62 E87.89022
G0 F12000 X127.75 Y98.05
G1 F1200 X110.94 Y81.24 E88.32524
G0 F12000 X111.50 Y81.24
G1 F1200 X127.75 Y97.49 E88.74562
G0 F12000 X127.75 Y96.92
G1 F1200 X112.07 Y81.24 E89.15136
G0 F12000 X112.63 Y81.24
G1 F1200 X127.75 Y96.36 E89.54248
G0 F12000 X127.75 Y95.79
G1 F1200 X113.20 Y81.24 E89.91895
G0 F12000 X113.76 Y81.24
G1 F1200 X127.75 Y95.22 E90.28079
G0 F12000 X127.75 Y94.66
G1 F1200 X114.33 Y81.24 E90.62799
G0 F12000 X114.90 Y81.24
G1 F1200 X127.75 Y94.09 E90.96056
G0 F12000 X127.75 Y93.53
G1 F1200 X115.46 Y81.24 E91.27851
G0 F12000 X116.03 Y81.24
G1 F1200 X127.75 Y92.96 E91.58184
G0 F12000 X127.75 Y92.40
G1 F1200 X116.59 Y81.24 E91.87052
G0 F12000 X117.16 Y81.24
G1 F1200 X127.75 Y91.83 E92.14457
G0 F12000 X127.75 Y91.26
G1 F1200 X117.72 Y81.24 E92.40399
G0 F12000 X118.29 Y81.24
G1 F1200 X127.75 Y90.70 E92.64876
G0 F12000 X127.75 Y90.13
G1 F1200 X118.86 Y81.24 E92.87891
G0 F12000 X119.42 Y81.24
G1 F1200 X127.75 Y89.57 E93.09443
G0 F12000 X127.75 Y89.00
G1 F1200 X119.99 Y81.24 E93.29530
G0 F12000 X120.55 Y81.24
G1 F1200 X127.75 Y88.44 E93.48155
G0 F12000 X127.75 Y87.87
G1 F1200 X121.12 Y81.24 E93.65316
G0 F12000 X121.68 Y81.24
G1 F1200 X127.75 Y87.31 E93.81013
G0 F12000 X127.75 Y86.74
G1 F1200 X122.25 Y81.24 E93.95247
G0 F12000 X122.82 Y81.24
G1 F1200 X127.75 Y86.17 E94.08018
G0 F12000 X127.75 Y85.61
G1 F1200 X123.38 Y81.24 E94.19325
G0 F12000 X123.95 Y81.24
G1 F1200 X127.75 Y85.04 E94.29169
G0 F12000 X127.75 Y84.48
G1 F1200 X124.51 Y81.24 E94.37549
G0 F12000 X125.08 Y81.24
G1 F1200 X127.75 Y83.91 E94.44465
G0 F12000 X127.75 Y83.35
G1 F1200 X125.64 Y81.24 E94.49918
G0 F12000 X126.21 Y81.24
G1 F1200 X127.75 Y82.78 E94.53907
G0 F12000 X127.75 Y82.21
G1 F1200 X126.78 Y81.24 E94.56433
G0 F12000 X127.34 Y81.24
G1 F1200 X127.75 Y81.65 E94.57495
;LAYER:1
G0 F12000 X127.89 Y81.10 Z0.40
;TYPE:WALL-INNER
G1 F1620 X127.89 Y119.90 E94.81157
G1 X108.27 Y119.90 E94.93116
G1 X108.08 Y119.97 E94.93241
G1 X107.26 Y120.64 E94.93888
G1 X103.92 Y122.42 E94.96193
G1 X100.29 Y123.53 E94.98511
G1 X96.50 Y123.90 E95.00830
G1 X92.72 Y123.53 E95.03149
G1 X89.06 Y122.41 E95.05483
G1 X85.73 Y120.63 E95.07785
G1 X82.78 Y118.21 E95.10107
G1 X80.36 Y115.26 E95.12437
G1 X78.58 Y111.92 E95.14743
G1 X77.48 Y108.29 E95.17061
G1 X77.10 Y104.50 E95.19380
G1 X77.48 Y100.71 E95.21699
G1 X78.58 Y97.08 E95.24018
G1 X80.37 Y93.72 E95.26336
G1 X82.79 Y90.79 E95.28655
G1 X85.73 Y88.37 E95.30975
G1 X88.96 Y86.64 E95.33208
G1 X89.13 Y86.36 E95.33410
G1 X89.12 Y81.10 E95.36618
G1 X127.89 Y81.10 E95.60255
G0 F12000 X128.29 Y80.70
;TYPE:WALL-OUTER
G1 F1620 X128.29 Y120.30 E95.84405
G1 X108.34 Y120.30 E95.96566
G1 X108.28 Y120.32 E95.96608
G1 X107.48 Y120.97 E95.97235
G1 X104.08 Y122.79 E95.99587
G1 X100.37 Y123.92 E96.01953
G1 X96.50 Y124.30 E96.04321
G1 X92.64 Y123.92 E96.06689
G1 X88.90 Y122.78 E96.09069
G1 X85.50 Y120.96 E96.11419
G1 X82.50 Y118.50 E96.13788
G1 X80.03 Y115.48 E96.16171
G1 X78.21 Y112.08 E96.18521
G1 X77.08 Y108.36 E96.20887
G1 X76.70 Y104.50 E96.23255
G1 X77.08 Y100.64 E96.25624
G1 X78.21 Y96.92 E96.27990
G1 X80.04 Y93.50 E96.30354
G1 X82.50 Y90.50 E96.32723
G1 X85.50 Y88.04 E96.35092
G1 X88.67 Y86.34 E96.37280
G1 X88.73 Y86.25 E96.37347
G1 X88.72 Y80.70 E96.40732
G1 X128.29 Y80.70 E96.64856
G0 F12000 X127.75 Y81.27
;TYPE:FILL
G1 F1620 X87.57 Y121.45 E96.99506
G0 F12000 X87.20 Y121.26
G1 F1620 X127.22 Y81.24 E97.34016
G0 F12000 X126.65 Y81.24
G1 F1620 X86.83 Y121.06 E97.68357
G0 F12000 X86.46 Y120.86
G1 F1620 X126.08 Y81.24 E98.02528
G0 F12000 X125.52 Y81.24
G1 F1620 X86.09 Y120.67 E98.36530
G0 F12000 X85.74 Y120.46
G1 F1620 X124.95 Y81.24 E98.70349
G0 F12000 X124.39 Y81.24
G1 F1620 X85.43 Y120.20 E99.03950
G0 F12000 X85.11 Y119.94
G1 F1620 X123.82 Y81.24 E99.37329
G0 F12000 X123.26 Y81.24
G1 F1620 X84.80 Y119.69 E99.70489
G0 F12000 X84.49 Y119.43
G1 F1620 X122.69 Y81.24 E100.03429
G0 F12000 X122.12 Y81.24
G1 F1620 X84.18 Y119.18 E100.36150
G0 F12000 X83.87 Y118.93
G1 F1620 X121.56 Y81.24 E100.68651
G0 F12000 X120.99 Y81.24
G1 F1620 X83.56 Y118.67 E101.00931
G0 F12000 X83.25 Y118.42
G1 F1620 X120.43 Y81.24 E101.32992
G0 F12000 X119.86 Y81.24
G1 F1620 X82.94 Y118.16 E101.64833
G0 F12000 X82.68 Y117.86
G1 F1620 X119.30 Y81.24 E101.96414
G0 F12000 X118.73 Y81.24
G1 F1620 X82.42 Y117.55 E102.27726
G0 F12000 X82.17 Y117.24
G1 F1620 X118.17 Y81.24 E102.58771
G0 F12000 X117.60 Y81.24
G1 F1620 X81.91 Y116.93 E102.89547
G0 F12000 X81.66 Y116.61
G1 F1620 X117.03 Y81.24 E103.20055
G0 F12000 X116.47 Y81.24
G1 F1620 X81.40 Y116.30 E103.50295
G0 F12000 X81.15 Y115.99
G1 F1620 X115.90 Y81.24 E103.80266
G0 F12000 X115.34 Y81.24
G1 F1620 X80.89 Y115.68 E104.09970
G0 F12000 X80.64 Y115.37
G1 F1620 X114.77 Y81.24 E104.39405
G0 F12000 X114.21 Y81.24
G1 F1620 X80.40 Y115.04 E104.68553
G0 F12000 X80.21 Y114.67
G1 F1620 X113.64 Y81.24 E104.97384
G0 F12000 X113.07 Y81.24
G1 F1620 X80.01 Y114.30 E105.25897
G0 F12000 X79.81 Y113.93
G1 F1620 X112.51 Y81.24 E105.54093
G0 F12000 X111.94 Y81.24
G1 F1620 X79.61 Y113.57 E105.81971
G0 F12000 X79.42 Y113.20
G1 F1620 X111.38 Y81.24 E106.09530
G0 F12000 X110.81 Y81.24
G1 F1620 X79.22 Y112.83 E106.36772
G0 F12000 X79.02 Y112.46
G1 F1620 X110.25 Y81.24 E106.63696
G0 F12000 X109.68 Y81.24
G1 F1620 X78.83 Y112.09 E106.90303
G0 F12000 X78.66 Y111.70
G1 F1620 X109.11 Y81.24 E107.16568
G0 F12000 X108.55 Y81.24
G1 F1620 X78.53 Y111.26 E107.42460
G0 F12000 X78.39 Y110.83
G1 F1620 X107.98 Y81.24 E107.67976
G0 F12000 X107.42 Y81.24
G1 F1620 X78.26 Y110.39 E107.93119
G0 F12000 X78.13 Y109.96
G1 F1620 X106.85 Y81.24 E108.17888
G0 F12000 X106.29 Y81.24
G1 F1620 X78.00 Y109.53 E108.42282
G0 F12000 X77.87 Y109.09
G1 F1620 X105.72 Y81.24 E108.66302
G0 F12000 X105.15 Y81.24
G1 F1620 X77.74 Y108.66 E108.89947
G0 F12000 X77.61 Y108.22
G1 F1620 X104.59 Y81.24 E109.13213
G0 F12000 X104.02 Y81.24
G1 F1620 X77.56 Y107.70 E109.36035
G0 F12000 X77.51 Y107.19
G1 F1620 X103.46 Y81.24 E109.58413
G0 F12000 X102.89 Y81.24
G1 F1620 X77.46 Y106.67 E109.80347
G0 F12000 X77.41 Y106.16
G1 F1620 X102.33 Y81.24 E110.01837
G0 F12000 X101.76 Y81.24
G1 F1620 X77.36 Y105.64 E110.22884
G0 F12000 X77.30 Y105.13
G1 F1620 X101.19 Y81.24 E110.43486
G0 F12000 X100.63 Y81.24
G1 F1620 X77.25 Y104.61 E110.63645
G0 F12000 X77.29 Y104.01
G1 F1620 X100.06 Y81.24 E110.83284
G0 F12000 X99.50 Y81.24
G1 F1620 X77.35 Y103.38 E111.02381
G0 F12000 X77.41 Y102.76
