;Generated with Cura_SteamEngine 13.07
M109 S210     ;Heatup to 210C
G21           ;metric values
G90           ;absolute positioning
G28           ;Home
G1 Z15.0 F300 ;move the platform down 15mm
G92 E0        ;zero the extruded length
G1 F200 E5    ;extrude 5mm of feed stock
G92 E0        ;zero the extruded length again

;total_layers=199
;LAYER:0
M107
G0 F12000 X89.31 Y88.93 Z0.30
;TYPE:SKIRT
G1 F2700 E0.00000
G1 F1200 X92.95 Y85.30 E0.09398
G1 X118.06 Y85.30 E0.55342
G1 X121.69 Y88.93 E0.64737
G1 X121.69 Y114.07 E1.10723
G1 X118.06 Y117.70 E1.20118
G1 X107.20 Y117.70 E1.39992
G1 X105.98 Y118.35 E1.42512
G1 X105.42 Y118.58 E1.43627
G1 X102.96 Y119.33 E1.48326
G1 X102.36 Y119.45 E1.49442
G1 X99.80 Y119.70 E1.54147
G1 X99.19 Y119.70 E1.55268
G1 X96.62 Y119.44 E1.59999
G1 X96.02 Y119.32 E1.61114
G1 X93.56 Y118.58 E1.65807
G1 X93.00 Y118.34 E1.66915
G1 X90.75 Y117.14 E1.71588
G1 X90.24 Y116.80 E1.72707
G1 X88.26 Y115.17 E1.77411
G1 X87.82 Y114.73 E1.78529
G1 X86.19 Y112.74 E1.83252
G1 X85.85 Y112.23 E1.84359
G1 X84.65 Y109.98 E1.89030
G1 X84.42 Y109.42 E1.90145
G1 X83.67 Y106.96 E1.94842
G1 X83.55 Y106.36 E1.95956
G1 X83.30 Y103.80 E2.00662
G1 X83.30 Y103.19 E2.01787
G1 X83.56 Y100.62 E2.06517
G1 X83.68 Y100.02 E2.07622
G1 X84.42 Y97.58 E2.12292
G1 X84.65 Y97.02 E2.13405
G1 X85.86 Y94.75 E2.18107
G1 X86.20 Y94.24 E2.19224
G1 X87.83 Y92.26 E2.23922
G1 X88.26 Y91.83 E2.25035
G1 X89.32 Y90.96 E2.27532
G1 X89.31 Y88.93 E2.31245
G1 F2700 E-2.18755
G0 F12000 X96.11 Y92.10
;TYPE:WALL-INNER
G1 F2700 E2.31245
G1 F1200 X114.89 Y92.10 E2.65597
G1 X114.89 Y110.90 E2.99990
G1 X105.33 Y110.90 E3.17473
G1 X105.14 Y110.97 E3.17849
G1 X104.71 Y111.32 E3.18866
G1 X103.10 Y112.18 E3.22214
G1 X101.33 Y112.72 E3.25581
G1 X99.50 Y112.90 E3.28952
G1 X97.65 Y112.71 E3.32348
G1 X95.89 Y112.18 E3.35718
G1 X94.28 Y111.32 E3.39058
G1 X92.86 Y110.14 E3.42437
G1 X91.68 Y108.71 E3.45824
G1 X90.82 Y107.10 E3.49173
G1 X90.28 Y105.33 E3.52539
G1 X90.10 Y103.50 E3.55911
G1 X90.29 Y101.65 E3.59310
G1 X90.82 Y99.90 E3.62652
G1 X91.69 Y98.28 E3.66018
G1 X92.86 Y96.86 E3.69392
G1 X94.28 Y95.68 E3.72766
G1 X95.94 Y94.79 E3.76217
G1 X96.12 Y94.51 E3.76823
G1 X96.11 Y92.10 E3.81234
G0 F12000 X95.71 Y91.70
;TYPE:WALL-OUTER
G1 F1200 X115.29 Y91.70 E4.17049
G1 X115.29 Y111.30 E4.52906
G1 X105.40 Y111.30 E4.70994
G1 X105.34 Y111.32 E4.71120
G1 X104.93 Y111.66 E4.72081
G1 X103.25 Y112.56 E4.75569
G1 X101.42 Y113.11 E4.79078
G1 X99.50 Y113.30 E4.82598
G1 X97.57 Y113.11 E4.86143
G1 X95.74 Y112.55 E4.89650
G1 X94.06 Y111.65 E4.93132
G1 X92.57 Y110.43 E4.96653
G1 X91.35 Y108.93 E5.00199
G1 X90.45 Y107.25 E5.03681
G1 X89.89 Y105.42 E5.07190
G1 X89.70 Y103.50 E5.10709
G1 X89.89 Y101.57 E5.14255
G1 X90.45 Y99.75 E5.17740
G1 X91.35 Y98.06 E5.21246
G1 X92.57 Y96.57 E5.24767
G1 X94.06 Y95.35 E5.28289
G1 X95.66 Y94.49 E5.31605
G1 X95.72 Y94.40 E5.31807
G1 X95.71 Y91.70 E5.36746
G0 F12000 X96.48 Y92.24
;TYPE:FILL
G1 F1200 X114.75 Y110.51 E5.84008
G0 F12000 X114.44 Y110.76
G1 F1200 X96.25 Y92.58 E6.31052
G0 F12000 X96.25 Y93.14
G1 F1200 X113.87 Y110.76 E6.76631
G0 F12000 X113.31 Y110.76
G1 F1200 X96.25 Y93.71 E7.20746
G0 F12000 X96.25 Y94.27
G1 F1200 X112.74 Y110.76 E7.63397
G0 F12000 X112.17 Y110.76
G1 F1200 X96.14 Y94.73 E8.04865
G0 F12000 X95.85 Y95.00
G1 F1200 X111.61 Y110.76 E8.45633
G0 F12000 X111.04 Y110.76
G1 F1200 X95.48 Y95.20 E8.85890
G0 F12000 X95.11 Y95.40
G1 F1200 X110.48 Y110.76 E9.25636
G0 F12000 X109.91 Y110.76
G1 F1200 X94.75 Y95.59 E9.64871
G0 F12000 X94.38 Y95.79
G1 F1200 X109.35 Y110.76 E10.03597
G0 F12000 X108.78 Y110.76
G1 F1200 X94.07 Y96.04 E10.41668
G0 F12000 X93.75 Y96.30
G1 F1200 X108.21 Y110.76 E10.79079
G0 F12000 X107.65 Y110.76
G1 F1200 X93.44 Y96.55 E11.15832
G0 F12000 X93.13 Y96.81
G1 F1200 X107.08 Y110.76 E11.51923
G0 F12000 X106.52 Y110.76
G1 F1200 X92.85 Y97.09 E11.87295
G0 F12000 X92.59 Y97.40
G1 F1200 X105.95 Y110.76 E12.21862
G0 F12000 X105.39 Y110.76
G1 F1200 X92.33 Y97.71 E12.55626
G0 F12000 X92.08 Y98.02
G1 F1200 X104.98 Y110.92 E12.88996
G0 F12000 X104.67 Y111.17
G1 F1200 X91.82 Y98.33 E13.22218
G0 F12000 X91.62 Y98.69
G1 F1200 X104.31 Y111.38 E13.55030
G0 F12000 X103.94 Y111.57
G1 F1200 X91.43 Y99.06 E13.87395
G0 F12000 X91.23 Y99.43
G1 F1200 X103.57 Y111.77 E14.19319
G0 F12000 X103.20 Y111.97
G1 F1200 X91.03 Y99.80 E14.50801
G0 F12000 X90.87 Y100.21
G1 F1200 X102.79 Y112.13 E14.81644
G0 F12000 X102.36 Y112.26
G1 F1200 X90.74 Y100.64 E15.11703
G0 F12000 X90.61 Y101.07
G1 F1200 X101.93 Y112.39 E15.40984
G0 F12000 X101.49 Y112.52
G1 F1200 X90.48 Y101.51 E15.69481
G0 F12000 X90.39 Y101.99
G1 F1200 X101.01 Y112.61 E15.96953
G0 F12000 X100.50 Y112.66
G1 F1200 X90.34 Y102.50 E16.23222
G0 F12000 X90.29 Y103.02
G1 F1200 X99.98 Y112.71 E16.48294
G0 F12000 X99.46 Y112.75
G1 F1200 X90.25 Y103.54 E16.72126
G0 F12000 X90.31 Y104.17
G1 F1200 X98.83 Y112.69 E16.94173
G0 F12000 X98.20 Y112.63
G1 F1200 X90.37 Y104.79 E17.14433
G0 F12000 X90.47 Y105.46
G1 F1200 X97.54 Y112.53 E17.32736
G0 F12000 X96.73 Y112.29
G1 F1200 X90.71 Y106.27 E17.48296
G0 F12000 X90.98 Y107.10
G1 F1200 X95.90 Y112.02 E17.61030
G0 F12000 X94.68 Y111.37
G1 F1200 X91.63 Y108.32 E17.68924
G0 F12000 X97.05 Y92.24
G1 F1200 X114.75 Y109.94 E18.14722
G0 F12000 X114.75 Y109.38
G1 F1200 X97.61 Y92.24 E18.59057
G0 F12000 X98.18 Y92.24
G1 F1200 X114.75 Y108.81 E19.01929
G0 F12000 X114.75 Y108.25
G1 F1200 X98.75 Y92.24 E19.43337
G0 F12000 X99.31 Y92.24
G1 F1200 X114.75 Y107.68 E19.83280
G0 F12000 X114.75 Y107.11
G1 F1200 X99.88 Y92.24 E20.21760
G0 F12000 X100.44 Y92.24
G1 F1200 X114.75 Y106.55 E20.58777
G0 F12000 X114.75 Y105.98
G1 F1200 X101.01 Y92.24 E20.94330
G0 F12000 X101.57 Y92.24
G1 F1200 X114.75 Y105.42 E21.28420
G0 F12000 X114.75 Y104.85
G1 F1200 X102.14 Y92.24 E21.61047
G0 F12000 X102.71 Y92.24
G1 F1200 X114.75 Y104.29 E21.92213
G0 F12000 X114.75 Y103.72
G1 F1200 X103.27 Y92.24 E22.21915
G0 F12000 X103.84 Y92.24
G1 F1200 X114.75 Y103.15 E22.50153
G0 F12000 X114.75 Y102.59
G1 F1200 X104.40 Y92.24 E22.76928
G0 F12000 X104.97 Y92.24
G1 F1200 X114.75 Y102.02 E23.02240
G0 F12000 X114.75 Y101.46
G1 F1200 X105.53 Y92.24 E23.26088
G0 F12000 X106.10 Y92.24
G1 F1200 X114.75 Y100.89 E23.48473
G0 F12000 X114.75 Y100.33
G1 F1200 X106.66 Y92.24 E23.69394
G0 F12000 X107.23 Y92.24
G1 F1200 X114.75 Y99.76 E23.88852
G0 F12000 X114.75 Y99.19
G1 F1200 X107.80 Y92.24 E24.06846
G0 F12000 X108.36 Y92.24
G1 F1200 X114.75 Y98.63 E24.23378
G0 F12000 X114.75 Y98.06
G1 F1200 X108.93 Y92.24 E24.38448
G0 F12000 X109.49 Y92.24
G1 F1200 X114.75 Y97.50 E24.52053
G0 F12000 X114.75 Y96.93
G1 F1200 X110.06 Y92.24 E24.64196
G0 F12000 X110.62 Y92.24
G1 F1200 X114.75 Y96.37 E24.74875
G0 F12000 X114.75 Y95.80
G1 F1200 X111.19 Y92.24 E24.84090
G0 F12000 X111.76 Y92.24
G1 F1200 X114.75 Y95.24 E24.91841
G0 F12000 X114.75 Y94.67
G1 F1200 X112.32 Y92.24 E24.98130
G0 F12000 X112.89 Y92.24
G1 F1200 X114.75 Y94.10 E25.02955
G0 F12000 X114.75 Y93.54
G1 F1200 X113.45 Y92.24 E25.06316
G0 F12000 X114.02 Y92.24
G1 F1200 X114.75 Y92.97 E25.08215
G0 F12000 X114.75 Y92.41
G1 F1200 X114.58 Y92.24 E25.08650
;LAYER:1
G0 F12000 X114.89 Y92.10 Z0.40
;TYPE:WALL-INNER
G1 F1620 X114.89 Y110.90 E25.20114
G1 X105.34 Y110.90 E25.25937
G1 X105.14 Y110.97 E25.26063
G1 X104.70 Y111.32 E25.26408
G1 X103.10 Y112.18 E25.27518
G1 X101.33 Y112.72 E25.28640
G1 X99.50 Y112.90 E25.29765
G1 X97.67 Y112.72 E25.30886
G1 X95.88 Y112.17 E25.32026
G1 X94.28 Y111.32 E25.33132
G1 X92.86 Y110.14 E25.34257
G1 X91.68 Y108.70 E25.35396
G1 X90.82 Y107.10 E25.36504
G1 X90.28 Y105.33 E25.37626
G1 X90.10 Y103.50 E25.38750
G1 X90.28 Y101.67 E25.39874
G1 X90.82 Y99.90 E25.40997
G1 X91.69 Y98.28 E25.42119
G1 X92.86 Y96.86 E25.43244
G1 X94.28 Y95.68 E25.44369
G1 X95.96 Y94.79 E25.45526
G1 X96.13 Y94.51 E25.45728
G1 X96.13 Y92.10 E25.47195
G1 X114.89 Y92.10 E25.58636
G0 F12000 X115.29 Y91.70
;TYPE:WALL-OUTER
G1 F1620 X115.29 Y111.30 E25.70588
G1 X105.40 Y111.30 E25.76614
G1 X105.34 Y111.32 E25.76656
G1 X104.92 Y111.66 E25.76984
G1 X103.25 Y112.56 E25.78138
G1 X101.42 Y113.11 E25.79308
G1 X99.50 Y113.30 E25.80482
G1 X97.59 Y113.11 E25.81653
G1 X95.73 Y112.54 E25.82839
G1 X94.06 Y111.65 E25.83993
G1 X92.57 Y110.43 E25.85166
G1 X91.34 Y108.92 E25.86355
G1 X90.45 Y107.25 E25.87509
G1 X89.89 Y105.42 E25.88679
G1 X89.70 Y103.50 E25.89852
G1 X89.89 Y101.59 E25.91025
G1 X90.45 Y99.75 E25.92196
G1 X91.35 Y98.06 E25.93364
G1 X92.57 Y96.57 E25.94538
G1 X94.06 Y95.35 E25.95712
G1 X95.67 Y94.49 E25.96825
G1 X95.73 Y94.39 E25.96892
G1 X95.73 Y91.70 E25.98535
G1 X115.29 Y91.70 E26.10463
G0 F12000 X114.52 Y92.24
;TYPE:FILL
G1 F1620 X95.14 Y111.62 E26.27173
G0 F12000 X95.51 Y111.81
G1 F1620 X114.75 Y92.58 E26.43762
G0 F12000 X114.75 Y93.14
G1 F1620 X95.88 Y112.01 E26.60032
G0 F12000 X96.30 Y112.15
G1 F1620 X114.75 Y93.71 E26.75937
G0 F12000 X114.75 Y94.28
G1 F1620 X96.74 Y112.29 E26.91468
G0 F12000 X97.17 Y112.42
G1 F1620 X114.75 Y94.84 E27.06626
G0 F12000 X114.75 Y95.41
G1 F1620 X97.60 Y112.55 E27.21410
G0 F12000 X98.10 Y112.62
G1 F1620 X114.75 Y95.97 E27.35765
G0 F12000 X114.75 Y96.54
G1 F1620 X98.61 Y112.67 E27.49676
G0 F12000 X99.13 Y112.72
G1 F1620 X114.75 Y97.10 E27.63143
G0 F12000 X114.75 Y97.67
G1 F1620 X99.68 Y112.74 E27.76139
G0 F12000 X100.30 Y112.68
G1 F1620 X114.75 Y98.23 E27.88594
G0 F12000 X114.75 Y98.80
G1 F1620 X100.93 Y112.62 E28.00508
G0 F12000 X101.63 Y112.48
G1 F1620 X114.75 Y99.37 E28.11817
G0 F12000 X114.75 Y99.93
G1 F1620 X102.44 Y112.23 E28.22426
G0 F12000 X103.36 Y111.88
G1 F1620 X114.75 Y100.50 E28.32243
G0 F12000 X114.75 Y101.06
G1 F1620 X104.58 Y111.23 E28.41010
G0 F12000 X105.61 Y110.76
G1 F1620 X114.75 Y101.63 E28.48886
G0 F12000 X114.75 Y102.19
G1 F1620 X106.18 Y110.76 E28.56273
G0 F12000 X106.74 Y110.76
G1 F1620 X114.75 Y102.76 E28.63172
G0 F12000 X114.75 Y103.33
G1 F1620 X107.31 Y110.76 E28.69584
G0 F12000 X107.88 Y110.76
G1 F1620 X114.75 Y103.89 E28.75507
G0 F12000 X114.75 Y104.46
G1 F1620 X108.44 Y110.76 E28.80943
G0 F12000 X109.01 Y110.76
G1 F1620 X114.74 Y105.02 E28.85890
G0 F12000 X114.74 Y105.59
G1 F1620 X109.57 Y110.76 E28.90350
G0 F12000 X110.14 Y110.76
G1 F1620 X114.74 Y106.15 E28.94322
G0 F12000 X114.74 Y106.72
G1 F1620 X110.70 Y110.76 E28.97806
G0 F12000 X111.27 Y110.76
G1 F1620 X114.74 Y107.29 E29.00801
G0 F12000 X114.74 Y107.85
G1 F1620 X111.84 Y110.76 E29.03310
G0 F12000 X112.40 Y110.76
G1 F1620 X114.74 Y108.42 E29.05330
G0 F12000 X114.74 Y108.98
G1 F1620 X112.97 Y110.76 E29.06863
G0 F12000 X113.53 Y110.76
G1 F1620 X114.74 Y109.55 E29.07907
G0 F12000 X114.74 Y110.11
G1 F1620 X114.10 Y110.76 E29.08464
G0 F12000 X114.66 Y110.76
G1 F1620 X114.74 Y110.68 E29.08533
G0 F12000 X113.95 Y92.24
G1 F1620 X94.77 Y111.42 E29.25073
G0 F12000 X94.40 Y111.22
G1 F1620 X113.39 Y92.24 E29.41444
G0 F12000 X112.82 Y92.24
G1 F1620 X94.09 Y110.97 E29.57600
G0 F12000 X93.78 Y110.72
G1 F1620 X112.25 Y92.24 E29.73536
G0 F12000 X111.69 Y92.24
G1 F1620 X93.46 Y110.46 E29.89252
G0 F12000 X93.15 Y110.21
G1 F1620 X111.12 Y92.24 E30.04747
G0 F12000 X110.56 Y92.24
G1 F1620 X92.86 Y109.93 E30.20005
G0 F12000 X92.61 Y109.62
G1 F1620 X109.99 Y92.24 E30.34994
G0 F12000 X109.43 Y92.24
G1 F1620 X92.36 Y109.31 E30.49714
G0 F12000 X92.10 Y109.00
G1 F1620 X108.86 Y92.24 E30.64166
G0 F12000 X108.29 Y92.24
G1 F1620 X91.85 Y108.69 E30.78349
G0 F12000 X91.64 Y108.33
G1 F1620 X107.73 Y92.24 E30.92225
G0 F12000 X107.16 Y92.24
G1 F1620 X91.44 Y107.96 E31.05785
G0 F12000 X91.24 Y107.59
G1 F1620 X106.60 Y92.24 E31.19027
G0 F12000 X106.03 Y92.24
G1 F1620 X91.05 Y107.23 E31.31951
G0 F12000 X90.88 Y106.82
G1 F1620 X105.47 Y92.24 E31.44528
G0 F12000 X104.90 Y92.24
G1 F1620 X90.75 Y106.39 E31.56731
G0 F12000 X90.62 Y105.96
G1 F1620 X104.33 Y92.24 E31.68560
G0 F12000 X103.77 Y92.24
G1 F1620 X90.49 Y105.52 E31.80014
G0 F12000 X90.39 Y105.05
G1 F1620 X103.20 Y92.24 E31.91060
G0 F12000 X102.64 Y92.24
G1 F1620 X90.34 Y104.53 E32.01662
G0 F12000 X90.29 Y104.02
G1 F1620 X102.07 Y92.24 E32.11819
G0 F12000 X101.51 Y92.24
G1 F1620 X90.24 Y103.50 E32.21533
G0 F12000 X90.30 Y102.88
G1 F1620 X100.94 Y92.24 E32.30706
G0 F12000 X100.38 Y92.24
G1 F1620 X90.37 Y102.25 E32.39338
G0 F12000 X90.45 Y101.60
G1 F1620 X99.81 Y92.24 E32.47411
G0 F12000 X99.24 Y92.24
G1 F1620 X90.69 Y100.79 E32.54785
G0 F12000 X90.94 Y99.98
G1 F1620 X95.99 Y94.93 E32.59139
G0 F12000 X96.10 Y94.82
G1 F1620 X98.68 Y92.24 E32.61361
G0 F12000 X98.11 Y92.24
G1 F1620 X96.27 Y94.09 E32.62954
G0 F12000 X96.26 Y93.52
G1 F1620 X97.55 Y92.24 E32.64060
G0 F12000 X96.98 Y92.24
G1 F1620 X96.26 Y92.96 E32.64678
G0 F12000 X96.26 Y92.39
G1 F1620 X96.42 Y92.24 E32.64809
G0 F12000 X95.95 Y94.79
G0 X94.77 Y95.58
G1 F1620 X91.58 Y98.77 E32.67563
;LAYER:2
M106 S255
G0 F12000 X91.69 Y98.28 Z0.50
;TYPE:WALL-INNER
G1 F2100 X92.86 Y96.86 E32.68687
G1 X94.28 Y95.68 E32.69812
G1 X95.97 Y94.78 E32.70977
G1 X96.14 Y94.50 E32.71179
G1 X96.14 Y92.10 E32.72643
G1 X114.88 Y92.10 E32.84073
G1 X114.88 Y110.90 E32.95538
G1 X105.33 Y110.90 E33.01359
G1 X105.14 Y110.97 E33.01486
G1 X104.72 Y111.31 E33.01815
G1 X103.10 Y112.18 E33.02939
G1 X101.33 Y112.72 E33.04061
G1 X99.50 Y112.90 E33.05186
G1 X97.67 Y112.72 E33.06309
G1 X95.90 Y112.18 E33.07432
G1 X94.28 Y111.32 E33.08554
G1 X92.86 Y110.14 E33.09678
G1 X91.69 Y108.72 E33.10804
G1 X90.82 Y107.10 E33.11926
G1 X90.28 Y105.33 E33.13048
G1 X90.10 Y103.50 E33.14172
G1 X90.28 Y101.67 E33.15296
G1 X90.82 Y99.90 E33.16419
G1 X91.69 Y98.28 E33.17541
G0 F12000 X91.35 Y98.06
;TYPE:WALL-OUTER
G1 F2100 X92.57 Y96.57 E33.18715
G1 X94.06 Y95.35 E33.19888
G1 X95.68 Y94.48 E33.21009
G1 X95.74 Y94.39 E33.21076
G1 X95.74 Y91.70 E33.22716
G1 X115.28 Y91.70 E33.34634
G1 X115.28 Y111.30 E33.46586
G1 X105.40 Y111.30 E33.52609
G1 X105.34 Y111.32 E33.52652
G1 X104.94 Y111.65 E33.52964
G1 X103.25 Y112.56 E33.54134
G1 X101.42 Y113.11 E33.55304
G1 X99.50 Y113.30 E33.56478
G1 X97.59 Y113.11 E33.57650
G1 X95.75 Y112.56 E33.58820
G1 X94.06 Y111.65 E33.59989
G1 X92.57 Y110.43 E33.61163
G1 X91.35 Y108.94 E33.62337
G1 X90.45 Y107.25 E33.63505
G1 X89.89 Y105.42 E33.64675
G1 X89.70 Y103.50 E33.65848
G1 X89.89 Y101.59 E33.67022
G1 X90.45 Y99.75 E33.68192
G1 X91.35 Y98.06 E33.69361
G0 F12000 X91.82 Y98.33
;TYPE:FILL
G1 F2100 X104.67 Y111.17 E33.80436
G0 F12000 X104.98 Y110.92
G1 F2100 X92.08 Y98.02 E33.91559
G0 F12000 X92.33 Y97.71
G1 F2100 X105.39 Y110.76 E34.02813
G0 F12000 X105.95 Y110.76
G1 F2100 X92.59 Y97.40 E34.14334
G0 F12000 X92.85 Y97.09
G1 F2100 X106.52 Y110.76 E34.26125
G0 F12000 X107.08 Y110.76
G1 F2100 X93.13 Y96.81 E34.38154
G0 F12000 X93.44 Y96.55
G1 F2100 X107.65 Y110.76 E34.50404
G0 F12000 X108.21 Y110.76
G1 F2100 X93.75 Y96.30 E34.62874
G0 F12000 X94.07 Y96.04
G1 F2100 X108.78 Y110.76 E34.75563
G0 F12000 X109.35 Y110.76
G1 F2100 X94.38 Y95.79 E34.88471
G0 F12000 X94.75 Y95.59
G1 F2100 X109.91 Y110.76 E35.01549
G0 F12000 X110.48 Y110.76
G1 F2100 X95.11 Y95.40 E35.14797
G0 F12000 X95.48 Y95.20
G1 F2100 X111.04 Y110.76 E35.28216
G0 F12000 X111.61 Y110.76
G1 F2100 X95.85 Y95.00 E35.41804
G0 F12000 X96.15 Y94.74
G1 F2100 X112.17 Y110.76 E35.55619
G0 F12000 X112.74 Y110.76
G1 F2100 X96.28 Y94.30 E35.69817
G0 F12000 X96.28 Y93.73
G1 F2100 X113.31 Y110.76 E35.84503
G0 F12000 X113.87 Y110.76
G1 F2100 X96.28 Y93.16 E35.99677
G0 F12000 X96.28 Y92.60
G1 F2100 X114.44 Y110.76 E36.15339
G0 F12000 X114.74 Y110.50
G1 F2100 X96.48 Y92.24 E36.31084
G0 F12000 X97.05 Y92.24
G1 F2100 X114.74 Y109.93 E36.46341
G0 F12000 X114.74 Y109.37
G1 F2100 X97.61 Y92.24 E36.61110
G0 F12000 X98.18 Y92.24
G1 F2100 X114.74 Y108.80 E36.75392
G0 F12000 X114.74 Y108.23
G1 F2100 X98.75 Y92.24 E36.89185
G0 F12000 X99.31 Y92.24
G1 F2100 X114.74 Y107.67 E37.02491
G0 F12000 X114.74 Y107.10
G1 F2100 X99.88 Y92.24 E37.15309
G0 F12000 X100.44 Y92.24
G1 F2100 X114.74 Y106.54 E37.27639
G0 F12000 X114.74 Y105.97
G1 F2100 X101.01 Y92.24 E37.39481
G0 F12000 X101.57 Y92.24
G1 F2100 X114.74 Y105.41 E37.50836
G0 F12000 X114.74 Y104.84
G1 F2100 X102.14 Y92.24 E37.61703
G0 F12000 X102.71 Y92.24
G1 F2100 X114.74 Y104.28 E37.72082
G0 F12000 X114.74 Y103.71
G1 F2100 X103.27 Y92.24 E37.81973
G0 F12000 X103.84 Y92.24
G1 F2100 X114.74 Y103.14 E37.91376
G0 F12000 X114.74 Y102.58
