;Generated with Cura_SteamEngine 13.07
M109 S210     ;Heatup to 210C
G21           ;metric values
G90           ;absolute positioning
G28           ;Home
G1 Z15.0 F300 ;move the platform down 15mm
G92 E0        ;zero the extruded length
G1 F200 E5    ;extrude 5mm of feed stock
G92 E0        ;zero the extruded length again

;total_layers=200
;LAYER:0
M107
G0 F12000 X89.24 Y89.00 Z0.30
;TYPE:SKIRT
G1 F2700 E0.00000
G1 F1200 X92.88 Y85.32 E0.09473
G1 X101.67 Y85.32 E0.25540
G1 X102.14 Y86.30 E0.27545
G1 X102.92 Y86.32 E0.28972
G1 X105.85 Y85.99 E0.34360
G1 X108.41 Y85.40 E0.39167
G1 X109.11 Y85.32 E0.40456
G1 X118.05 Y85.32 E0.56805
G1 X121.68 Y88.95 E0.66201
G1 X121.69 Y114.08 E1.12187
G1 X118.05 Y117.72 E1.21592
G1 X107.95 Y117.71 E1.40061
G1 X107.23 Y117.72 E1.41380
G1 X106.31 Y118.17 E1.43265
G1 X105.97 Y118.31 E1.43933
G1 X103.16 Y119.30 E1.49380
G1 X102.48 Y119.46 E1.50669
G1 X101.04 Y119.62 E1.53318
G1 X100.83 Y119.64 E1.53705
G1 X100.11 Y119.67 E1.55018
G1 X99.87 Y119.67 E1.55461
G1 X97.66 Y119.59 E1.59494
G1 X97.40 Y119.57 E1.59982
G1 X96.56 Y119.47 E1.61526
G1 X96.17 Y119.39 E1.62247
G1 X95.48 Y119.22 E1.63556
G1 X95.39 Y119.19 E1.63727
G1 X94.80 Y119.03 E1.64846
G1 X94.67 Y118.99 E1.65090
G1 X94.03 Y118.77 E1.66327
G1 X93.82 Y118.70 E1.66736
G1 X93.20 Y118.44 E1.67971
G1 X93.04 Y118.36 E1.68288
G1 X92.48 Y118.09 E1.69430
G1 X92.39 Y118.05 E1.69617
G1 X91.86 Y117.77 E1.70707
G1 X91.77 Y117.72 E1.70901
G1 X91.14 Y117.36 E1.72230
G1 X90.83 Y117.17 E1.72887
G1 X89.43 Y116.14 E1.76061
G1 X89.28 Y116.02 E1.76420
G1 X88.28 Y115.18 E1.78796
G1 X87.95 Y114.86 E1.79650
G1 X86.72 Y113.47 E1.83035
G1 X86.55 Y113.26 E1.83532
G1 X86.06 Y112.60 E1.85038
G1 X85.86 Y112.30 E1.85704
G1 X85.51 Y111.68 E1.86994
G1 X85.47 Y111.61 E1.87157
G1 X85.20 Y111.09 E1.88225
G1 X85.15 Y111.00 E1.88400
G1 X84.85 Y110.38 E1.89668
G1 X84.73 Y110.11 E1.90211
G1 X84.31 Y109.01 E1.92376
G1 X84.26 Y108.87 E1.92633
G1 X83.90 Y107.78 E1.94730
G1 X83.85 Y107.60 E1.95081
G1 X83.64 Y106.83 E1.96538
G1 X83.57 Y106.41 E1.97321
G1 X83.35 Y104.59 E2.00665
G1 X83.33 Y104.32 E2.01173
G1 X83.31 Y103.61 E2.02472
G1 X83.31 Y103.45 E2.02752
G1 X83.32 Y102.87 E2.03828
G1 X83.32 Y102.81 E2.03940
G1 X83.35 Y102.22 E2.05002
G1 X83.35 Y102.11 E2.05209
G1 X83.41 Y101.38 E2.06555
G1 X83.46 Y101.04 E2.07185
G1 X83.60 Y100.26 E2.08622
G1 X83.66 Y100.01 E2.09103
G1 X83.84 Y99.37 E2.10311
G1 X83.87 Y99.28 E2.10482
G1 X84.08 Y98.61 E2.11771
G1 X84.19 Y98.30 E2.12375
G1 X85.30 Y95.75 E2.17454
G1 X85.45 Y95.45 E2.18075
G1 X85.89 Y94.67 E2.19722
G1 X86.13 Y94.32 E2.20490
G1 X86.57 Y93.74 E2.21822
G1 X86.64 Y93.65 E2.22025
G1 X87.04 Y93.18 E2.23162
G1 X87.13 Y93.07 E2.23422
G1 X87.62 Y92.52 E2.24780
G1 X87.88 Y92.26 E2.25434
G1 X89.26 Y91.05 E2.28807
G1 X89.24 Y89.00 E2.32557
G1 F2700 E-2.17443
G0 F12000 X96.08 Y92.12
;TYPE:WALL-INNER
G1 F2700 E2.32557
G1 F1200 X96.80 Y92.12 E2.33878
G1 X97.01 Y92.58 E2.34810
G1 X98.72 Y92.66 E2.37930
G1 X99.15 Y92.99 E2.38935
G1 X99.34 Y93.06 E2.39291
G1 X103.23 Y93.12 E2.46412
G1 X103.27 Y93.12 E2.46482
G1 X107.35 Y92.65 E2.54002
G1 X107.43 Y92.62 E2.54160
G1 X107.52 Y92.58 E2.54340
G1 X109.53 Y92.12 E2.58119
G1 X114.88 Y92.12 E2.67902
G1 X114.89 Y110.92 E3.02292
G1 X107.93 Y110.91 E3.15021
G1 X105.31 Y110.94 E3.19809
G1 X105.12 Y111.02 E3.20186
G1 X104.70 Y111.37 E3.21186
G1 X103.51 Y111.97 E3.23633
G1 X101.30 Y112.75 E3.27911
G1 X100.40 Y112.85 E3.29560
G1 X99.97 Y112.87 E3.30351
G1 X98.06 Y112.80 E3.33846
G1 X97.62 Y112.75 E3.34668
G1 X96.74 Y112.51 E3.36326
G1 X96.31 Y112.37 E3.37161
G1 X95.08 Y111.78 E3.39646
G1 X94.68 Y111.56 E3.40490
G1 X93.55 Y110.72 E3.43063
G1 X92.86 Y110.15 E3.44706
G1 X91.93 Y109.10 E3.47273
G1 X91.66 Y108.73 E3.48101
G1 X91.02 Y107.53 E3.50594
G1 X90.69 Y106.67 E3.52274
G1 X90.39 Y105.76 E3.54029
G1 X90.29 Y105.36 E3.54783
G1 X90.12 Y103.96 E3.57359
G1 X90.11 Y103.50 E3.58199
G1 X90.18 Y102.10 E3.60762
G1 X90.25 Y101.70 E3.61518
G1 X90.51 Y100.83 E3.63176
G1 X91.46 Y98.64 E3.67542
G1 X91.68 Y98.26 E3.68344
G1 X92.24 Y97.56 E3.69986
G1 X92.52 Y97.24 E3.70768
G1 X93.94 Y96.00 E3.74217
G1 X94.31 Y95.74 E3.75045
G1 X95.94 Y94.80 E3.78489
G1 X96.11 Y94.52 E3.79085
G1 X96.08 Y92.12 E3.83476
G0 F12000 X95.67 Y91.72
;TYPE:WALL-OUTER
G1 F1200 X97.37 Y91.72 E3.86584
G1 X97.17 Y91.97 E3.87173
G1 X97.28 Y92.19 E3.87619
G1 X98.86 Y92.26 E3.90528
G1 X99.35 Y92.64 E3.91645
G1 X99.41 Y92.66 E3.91765
G1 X103.22 Y92.72 E3.98743
G1 X107.26 Y92.26 E4.06173
G1 X107.29 Y92.25 E4.06226
G1 X107.39 Y92.20 E4.06435
G1 X109.49 Y91.72 E4.10376
G1 X115.28 Y91.72 E4.20977
G1 X115.29 Y111.32 E4.56832
G1 X107.93 Y111.31 E4.70285
G1 X105.39 Y111.34 E4.74943
G1 X105.32 Y111.37 E4.75068
G1 X104.93 Y111.70 E4.76007
G1 X103.66 Y112.34 E4.78609
G1 X101.39 Y113.14 E4.83012
G1 X100.44 Y113.25 E4.84767
G1 X99.96 Y113.27 E4.85637
G1 X98.04 Y113.20 E4.89167
G1 X97.54 Y113.14 E4.90077
G1 X96.63 Y112.89 E4.91796
G1 X96.17 Y112.74 E4.92685
G1 X95.74 Y112.56 E4.93548
G1 X94.46 Y111.89 E4.96183
G1 X93.30 Y111.04 E4.98819
G1 X92.58 Y110.44 E5.00527
G1 X91.61 Y109.34 E5.03211
G1 X91.33 Y108.95 E5.04091
G1 X91.10 Y108.55 E5.04942
G1 X90.65 Y107.69 E5.06707
G1 X90.31 Y106.80 E5.08457
G1 X89.90 Y105.44 E5.11061
G1 X89.72 Y103.99 E5.13730
G1 X89.71 Y103.51 E5.14600
G1 X89.78 Y102.05 E5.17275
G1 X89.86 Y101.61 E5.18104
G1 X90.13 Y100.69 E5.19851
G1 X91.10 Y98.46 E5.24293
G1 X91.34 Y98.04 E5.25190
G1 X91.62 Y97.68 E5.26016
G1 X92.24 Y96.95 E5.27771
G1 X93.69 Y95.68 E5.31292
G1 X94.10 Y95.40 E5.32207
G1 X95.65 Y94.51 E5.35478
G1 X95.71 Y94.41 E5.35674
G1 X95.67 Y91.72 E5.40608
G0 F12000 X96.50 Y92.26
;TYPE:FILL
G1 F1200 X96.89 Y92.65 E5.41617
G0 F12000 X96.95 Y92.71
G1 F1200 X114.75 Y110.50 E5.87659
G0 F12000 X114.45 Y110.77
G1 F1200 X96.22 Y92.54 E6.34817
G0 F12000 X96.23 Y93.12
G1 F1200 X113.88 Y110.77 E6.80494
G0 F12000 X113.32 Y110.77
G1 F1200 X96.24 Y93.69 E7.24689
G0 F12000 X96.24 Y94.26
G1 F1200 X112.75 Y110.77 E7.67402
G0 F12000 X112.18 Y110.77
G1 F1200 X96.14 Y94.73 E8.08901
G0 F12000 X95.86 Y95.01
G1 F1200 X111.62 Y110.77 E8.49674
G0 F12000 X111.05 Y110.77
G1 F1200 X95.50 Y95.22 E8.89908
G0 F12000 X95.14 Y95.42
G1 F1200 X110.49 Y110.77 E9.29607
G0 F12000 X109.92 Y110.77
G1 F1200 X94.78 Y95.63 E9.68772
G0 F12000 X94.42 Y95.83
G1 F1200 X109.35 Y110.77 E10.07399
G0 F12000 X108.79 Y110.77
G1 F1200 X94.08 Y96.06 E10.45435
G0 F12000 X93.78 Y96.32
G1 F1200 X108.22 Y110.76 E10.82799
G0 F12000 X107.66 Y110.77
G1 F1200 X93.47 Y96.59 E11.19487
G0 F12000 X93.17 Y96.85
G1 F1200 X107.10 Y110.78 E11.55515
G0 F12000 X106.54 Y110.79
G1 F1200 X92.87 Y97.12 E11.90878
G0 F12000 X92.58 Y97.39
G1 F1200 X105.99 Y110.79 E12.25566
G0 F12000 X105.43 Y110.80
G1 F1200 X92.31 Y97.68 E12.59503
G0 F12000 X92.06 Y98.00
G1 F1200 X105.00 Y110.93 E12.92974
G0 F12000 X104.69 Y111.19
G1 F1200 X91.81 Y98.31 E13.26295
G0 F12000 X91.60 Y98.67
G1 F1200 X104.33 Y111.40 E13.59224
G0 F12000 X103.95 Y111.59
G1 F1200 X91.43 Y99.06 E13.91628
G0 F12000 X91.25 Y99.46
G1 F1200 X103.58 Y111.78 E14.23505
G0 F12000 X103.17 Y111.94
G1 F1200 X91.08 Y99.85 E14.54778
G0 F12000 X90.91 Y100.25
G1 F1200 X102.75 Y112.09 E14.85409
G0 F12000 X102.34 Y112.24
G1 F1200 X90.74 Y100.64 E15.15403
G0 F12000 X90.59 Y101.05
G1 F1200 X101.92 Y112.38 E15.44712
G0 F12000 X101.50 Y112.53
G1 F1200 X90.46 Y101.49 E15.73276
G0 F12000 X90.35 Y101.94
G1 F1200 X101.04 Y112.64 E16.00941
G0 F12000 X100.53 Y112.69
G1 F1200 X90.30 Y102.46 E16.27414
G0 F12000 X90.27 Y103.00
G1 F1200 X100.00 Y112.73 E16.52574
G0 F12000 X99.41 Y112.71
G1 F1200 X90.25 Y103.54 E16.76280
G0 F12000 X90.29 Y104.14
G1 F1200 X98.83 Y112.68 E16.98374
G0 F12000 X98.24 Y112.66
G1 F1200 X90.36 Y104.79 E17.18749
G0 F12000 X90.46 Y105.45
G1 F1200 X97.61 Y112.60 E17.37241
G0 F12000 X96.83 Y112.39
G1 F1200 X90.71 Y106.26 E17.53085
G0 F12000 X91.02 Y107.15
G1 F1200 X95.89 Y112.01 E17.65661
G0 F12000 X94.72 Y111.41
G1 F1200 X91.56 Y108.25 E17.73829
G0 F12000 X97.55 Y92.74
G1 F1200 X114.75 Y109.94 E18.18310
G0 F12000 X114.75 Y109.37
G1 F1200 X98.14 Y92.77 E18.61259
G0 F12000 X98.96 Y93.02
G1 F1200 X114.75 Y108.81 E19.02099
G0 F12000 X114.75 Y108.24
G1 F1200 X99.71 Y93.20 E19.41001
G0 F12000 X100.28 Y93.21
G1 F1200 X114.75 Y107.67 E19.78414
G0 F12000 X114.75 Y107.11
G1 F1200 X100.86 Y93.22 E20.14338
G0 F12000 X101.43 Y93.23
G1 F1200 X114.75 Y106.54 E20.48774
G0 F12000 X114.75 Y105.98
G1 F1200 X102.01 Y93.24 E20.81720
G0 F12000 X102.58 Y93.25
G1 F1200 X114.75 Y105.41 E21.13179
G0 F12000 X114.75 Y104.85
G1 F1200 X103.16 Y93.26 E21.43148
G0 F12000 X103.68 Y93.21
G1 F1200 X114.74 Y104.28 E21.71778
G0 F12000 X114.74 Y103.71
G1 F1200 X104.18 Y93.15 E21.99095
G0 F12000 X104.69 Y93.10
G1 F1200 X114.74 Y103.15 E22.25099
G0 F12000 X114.74 Y102.58
G1 F1200 X105.20 Y93.04 E22.49793
G0 F12000 X105.71 Y92.98
G1 F1200 X114.74 Y102.01 E22.73172
G0 F12000 X114.74 Y101.45
G1 F1200 X106.21 Y92.92 E22.95240
G0 F12000 X106.72 Y92.86
G1 F1200 X114.74 Y100.88 E23.15994
G0 F12000 X114.74 Y100.32
G1 F1200 X107.23 Y92.80 E23.35433
G0 F12000 X107.68 Y92.69
G1 F1200 X114.74 Y99.75 E23.53704
G0 F12000 X114.74 Y99.19
G1 F1200 X108.14 Y92.58 E23.70788
G0 F12000 X108.60 Y92.48
G1 F1200 X114.74 Y98.62 E23.86683
G0 F12000 X114.74 Y98.05
G1 F1200 X109.06 Y92.37 E24.01388
G0 F12000 X109.52 Y92.26
G1 F1200 X114.74 Y97.49 E24.14903
G0 F12000 X114.74 Y96.92
G1 F1200 X110.08 Y92.26 E24.26976
G0 F12000 X110.64 Y92.26
G1 F1200 X114.74 Y96.36 E24.37583
G0 F12000 X114.74 Y95.79
G1 F1200 X111.21 Y92.26 E24.46727
G0 F12000 X111.77 Y92.26
G1 F1200 X114.74 Y95.22 E24.54408
G0 F12000 X114.74 Y94.66
G1 F1200 X112.34 Y92.26 E24.60625
G0 F12000 X112.90 Y92.26
G1 F1200 X114.74 Y94.09 E24.65377
G0 F12000 X114.74 Y93.53
G1 F1200 X113.47 Y92.25 E24.68668
G0 F12000 X114.03 Y92.25
G1 F1200 X114.74 Y92.96 E24.70494
G0 F12000 X114.74 Y92.40
G1 F1200 X114.60 Y92.25 E24.70858
;LAYER:1
G0 F12000 X114.87 Y92.12 Z0.40
;TYPE:WALL-INNER
G1 F1620 X114.88 Y110.92 E24.82321
G1 X107.92 Y110.91 E24.86568
G1 X105.31 Y110.94 E24.88155
G1 X105.12 Y111.02 E24.88281
G1 X104.71 Y111.36 E24.88610
G1 X103.49 Y111.98 E24.89442
G1 X101.72 Y112.63 E24.90589
G1 X101.32 Y112.75 E24.90846
G1 X100.40 Y112.85 E24.91411
G1 X99.96 Y112.87 E24.91675
G1 X98.06 Y112.80 E24.92840
G1 X97.61 Y112.75 E24.93113
G1 X96.75 Y112.51 E24.93658
G1 X95.89 Y112.19 E24.94220
G1 X94.68 Y111.55 E24.95051
G1 X93.17 Y110.42 E24.96199
G1 X92.86 Y110.15 E24.96449
G1 X91.92 Y109.09 E24.97317
G1 X91.66 Y108.73 E24.97586
G1 X91.02 Y107.53 E24.98414
G1 X90.39 Y105.75 E24.99565
G1 X90.29 Y105.36 E24.99813
G1 X90.12 Y103.96 E25.00672
G1 X90.11 Y103.50 E25.00956
G1 X90.18 Y102.08 E25.01817
G1 X90.25 Y101.68 E25.02066
G1 X90.38 Y101.24 E25.02350
G1 X90.68 Y100.36 E25.02913
G1 X91.45 Y98.65 E25.04057
G1 X91.68 Y98.26 E25.04332
G1 X92.54 Y97.22 E25.05157
G1 X93.92 Y96.01 E25.06276
G1 X95.95 Y94.79 E25.07721
G1 X96.11 Y94.51 E25.07917
G1 X96.10 Y93.89 E25.08297
G1 X96.10 Y93.64 E25.08445
G1 X96.09 Y92.12 E25.09377
G1 X98.72 Y92.12 E25.10979
G1 X98.80 Y92.29 E25.11097
G1 X101.20 Y92.40 E25.12562
G1 X101.26 Y92.39 E25.12599
G1 X103.02 Y92.12 E25.13686
G1 X114.87 Y92.12 E25.20915
G0 F12000 X115.27 Y91.72
;TYPE:WALL-OUTER
G1 F1620 X115.28 Y111.32 E25.32866
G1 X107.92 Y111.31 E25.37354
G1 X105.39 Y111.34 E25.38899
G1 X105.32 Y111.37 E25.38941
G1 X104.93 Y111.70 E25.39255
G1 X103.66 Y112.34 E25.40124
G1 X101.40 Y113.14 E25.41583
G1 X100.43 Y113.25 E25.42179
G1 X99.95 Y113.27 E25.42469
G1 X98.03 Y113.20 E25.43645
G1 X97.54 Y113.14 E25.43947
G1 X96.62 Y112.89 E25.44527
G1 X95.73 Y112.56 E25.45107
G1 X94.46 Y111.89 E25.45981
G1 X92.93 Y110.74 E25.47150
G1 X92.58 Y110.44 E25.47427
G1 X91.61 Y109.34 E25.48325
G1 X91.32 Y108.95 E25.48617
G1 X90.65 Y107.68 E25.49490
G1 X90.01 Y105.87 E25.50664
G1 X89.90 Y105.44 E25.50938
G1 X89.72 Y103.99 E25.51828
G1 X89.71 Y103.51 E25.52120
G1 X89.78 Y102.03 E25.53020
G1 X89.86 Y101.59 E25.53293
G1 X90.30 Y100.21 E25.54176
G1 X91.10 Y98.46 E25.55347
G1 X91.35 Y98.03 E25.55650
G1 X92.26 Y96.94 E25.56519
G1 X93.68 Y95.69 E25.57676
G1 X95.65 Y94.50 E25.59079
G1 X95.71 Y94.41 E25.59144
G1 X95.70 Y93.89 E25.59464
G1 X95.70 Y93.65 E25.59610
G1 X95.69 Y91.72 E25.60786
G1 X98.97 Y91.72 E25.62789
G1 X99.06 Y91.90 E25.62915
G1 X101.19 Y92.00 E25.64219
G1 X101.22 Y92.00 E25.64232
G1 X102.99 Y91.72 E25.65327
G1 X115.27 Y91.72 E25.72817
G0 F12000 X114.50 Y92.25
;TYPE:FILL
G1 F1620 X95.13 Y111.63 E25.89526
G0 F12000 X95.50 Y111.83
G1 F1620 X114.73 Y92.59 E26.06114
G0 F12000 X114.73 Y93.16
G1 F1620 X95.87 Y112.02 E26.22382
G0 F12000 X96.27 Y112.18
G1 F1620 X114.73 Y93.72 E26.38302
G0 F12000 X114.73 Y94.29
G1 F1620 X96.68 Y112.34 E26.53866
G0 F12000 X97.12 Y112.47
G1 F1620 X114.73 Y94.85 E26.69056
G0 F12000 X114.73 Y95.42
G1 F1620 X97.57 Y112.59 E26.83860
G0 F12000 X98.06 Y112.66
G1 F1620 X114.73 Y95.98 E26.98241
G0 F12000 X114.73 Y96.55
G1 F1620 X98.60 Y112.68 E27.12151
G0 F12000 X99.15 Y112.70
G1 F1620 X114.73 Y97.11 E27.25590
G0 F12000 X114.73 Y97.68
G1 F1620 X99.69 Y112.72 E27.38558
G0 F12000 X100.27 Y112.71
G1 F1620 X114.73 Y98.25 E27.51034
G0 F12000 X114.73 Y98.81
G1 F1620 X100.89 Y112.65 E27.62971
G0 F12000 X101.60 Y112.52
G1 F1620 X114.73 Y99.38 E27.74302
G0 F12000 X114.73 Y99.94
G1 F1620 X102.48 Y112.20 E27.84871
G0 F12000 X103.37 Y111.87
G1 F1620 X114.74 Y100.51 E27.94672
G0 F12000 X114.74 Y101.07
G1 F1620 X104.50 Y111.31 E28.03503
G0 F12000 X105.57 Y110.80
G1 F1620 X114.74 Y101.64 E28.11403
G0 F12000 X114.74 Y102.21
G1 F1620 X106.15 Y110.79 E28.18808
G0 F12000 X106.72 Y110.78
G1 F1620 X114.74 Y102.77 E28.25718
G0 F12000 X114.74 Y103.33
G1 F1620 X107.30 Y110.77 E28.32133
G0 F12000 X107.87 Y110.77
G1 F1620 X114.74 Y103.90 E28.38053
G0 F12000 X114.74 Y104.47
G1 F1620 X108.44 Y110.77 E28.43485
G0 F12000 X109.00 Y110.77
G1 F1620 X114.74 Y105.03 E28.48430
G0 F12000 X114.74 Y105.60
G1 F1620 X109.57 Y110.77 E28.52889
G0 F12000 X110.13 Y110.77
G1 F1620 X114.74 Y106.16 E28.56860
G0 F12000 X114.74 Y106.73
G1 F1620 X110.70 Y110.77 E28.60345
G0 F12000 X111.26 Y110.77
G1 F1620 X114.74 Y107.29 E28.63343
G0 F12000 X114.74 Y107.86
G1 F1620 X111.82 Y110.77 E28.65854
G0 F12000 X112.39 Y110.77
G1 F1620 X114.74 Y108.43 E28.67878
G0 F12000 X114.74 Y108.99
G1 F1620 X112.96 Y110.77 E28.69415
G0 F12000 X113.52 Y110.77
G1 F1620 X114.74 Y109.56 E28.70464
G0 F12000 X114.74 Y110.12
G1 F1620 X114.08 Y110.77 E28.71027
G0 F12000 X114.65 Y110.78
G1 F1620 X114.74 Y110.69 E28.71103
G0 F12000 X113.94 Y92.25
G1 F1620 X94.76 Y111.43 E28.87644
G0 F12000 X94.43 Y111.19
G1 F1620 X113.37 Y92.25 E29.03976
G0 F12000 X112.81 Y92.25
G1 F1620 X94.11 Y110.95 E29.20099
G0 F12000 X93.79 Y110.71
G1 F1620 X112.24 Y92.25 E29.36012
G0 F12000 X111.67 Y92.25
G1 F1620 X93.46 Y110.46 E29.51717
G0 F12000 X93.15 Y110.21
G1 F1620 X111.11 Y92.25 E29.67205
G0 F12000 X110.54 Y92.25
G1 F1620 X92.86 Y109.94 E29.82454
G0 F12000 X92.60 Y109.64
G1 F1620 X109.98 Y92.25 E29.97443
G0 F12000 X109.41 Y92.25
G1 F1620 X92.33 Y109.34 E30.12173
G0 F12000 X92.07 Y109.04
G1 F1620 X108.85 Y92.25 E30.26643
G0 F12000 X108.28 Y92.25
G1 F1620 X91.82 Y108.71 E30.40836
G0 F12000 X91.62 Y108.35
G1 F1620 X107.71 Y92.25 E30.54715
G0 F12000 X107.15 Y92.25
G1 F1620 X91.42 Y107.98 E30.68278
G0 F12000 X91.22 Y107.61
G1 F1620 X106.58 Y92.26 E30.81521
G0 F12000 X106.02 Y92.26
G1 F1620 X91.06 Y107.21 E30.94420
G0 F12000 X90.91 Y106.80
G1 F1620 X105.45 Y92.26 E31.06959
G0 F12000 X104.89 Y92.26
G1 F1620 X90.76 Y106.38 E31.19138
G0 F12000 X90.61 Y105.96
G1 F1620 X104.32 Y92.26 E31.30955
G0 F12000 X103.75 Y92.26
G1 F1620 X90.48 Y105.53 E31.42402
G0 F12000 X90.39 Y105.05
G1 F1620 X103.19 Y92.26 E31.53435
G0 F12000 X102.54 Y92.33
G1 F1620 X90.33 Y104.54 E31.63965
G0 F12000 X90.27 Y104.04
G1 F1620 X101.87 Y92.44 E31.73969
G0 F12000 X101.21 Y92.54
G1 F1620 X90.25 Y103.50 E31.83421
G0 F12000 X90.28 Y102.90
G1 F1620 X100.67 Y92.51 E31.92379
G0 F12000 X100.12 Y92.49
G1 F1620 X90.31 Y102.31 E32.00847
G0 F12000 X90.41 Y101.64
G1 F1620 X99.58 Y92.47 E32.08756
G0 F12000 X99.04 Y92.44
G1 F1620 X90.67 Y100.82 E32.15976
G0 F12000 X91.05 Y99.87
G1 F1620 X95.98 Y94.94 E32.20226
G0 F12000 X96.09 Y94.82
G1 F1620 X98.64 Y92.28 E32.22417
G0 F12000 X98.10 Y92.26
