;FLAVOR:UltiGCode
;TIME:4944
;MATERIAL:7032
;MATERIAL2:0

;Layer count: 138
;LAYER:0
M107
G0 F9000 X86.800 Y84.300 Z0.300
;TYPE:SKIRT
G1 F1200 X143.200 Y84.300 E6.76800
G1 X143.200 Y140.700 E13.53600
G1 X86.800 Y140.700 E20.30400
G1 X86.800 Y84.300 E27.07200
G10
G0 F9000 X106.036 Y125.835
;TYPE:FILL
G11
G1 F1200 X106.256 Y126.055 E27.10934
G0 F9000 X108.704 Y126.055
G1 F1200 X109.228 Y125.531 E27.19826
G10
G0 F9000 X111.075 Y129.340
G11
G1 F1200 X110.643 Y130.107 E27.27141
G1 X111.076 Y130.875 E27.37721
G0 F9000 X111.075 Y134.997
G1 F1200 X110.643 Y135.764 E27.45036
G1 X111.076 Y136.532 E27.55616
G0 F9000 X111.216 Y136.900
;TYPE:WALL-INNER
G1 F1200 X110.503 Y136.900 E27.64172
G1 X110.503 Y128.198 E28.68596
G1 X111.216 Y127.934 E28.77720
G1 X111.216 Y132.350 E29.30712
G1 X111.316 Y132.350 E29.31912
G1 X111.304 Y132.371 E29.32202
G1 X111.207 Y132.728 E29.36641
G1 X111.176 Y133.156 E29.41791
G1 X111.228 Y133.659 E29.47859
G1 X111.216 Y133.659 E29.48003
G1 X111.216 Y136.900 E29.86895
G0 F9000 X112.981 Y136.900
G1 F1200 X112.981 Y136.284 E29.94287
G1 X114.699 Y136.284 E30.14903
G1 X114.699 Y134.378 E30.37775
G1 X114.280 Y134.378 E30.42803
G1 X114.401 Y134.265 E30.44790
G1 X114.595 Y133.946 E30.49270
G1 X114.707 Y133.566 E30.54024
G1 X114.742 Y133.142 E30.59129
G1 X114.669 Y132.515 E30.66704
G1 X114.619 Y132.384 E30.68387
G1 X114.699 Y132.384 E30.69347
G1 X114.699 Y127.646 E31.26203
G1 X112.981 Y127.646 E31.46819
G1 X112.981 Y127.280 E31.51211
G1 X114.075 Y126.874 E31.65214
G1 X114.680 Y126.648 E31.72964
G1 X114.680 Y124.919 E31.93712
G1 X114.700 Y124.919 E31.93952
G1 X114.700 Y118.101 E32.75768
G1 X114.224 Y118.101 E32.81480
G1 X114.420 Y117.910 E32.84764
G1 X114.606 Y117.603 E32.89071
G1 X114.710 Y117.252 E32.93464
G1 X114.741 Y116.870 E32.98063
G1 X114.705 Y116.433 E33.03325
G1 X114.581 Y116.024 E33.08454
G1 X114.337 Y115.661 E33.13702
G1 X113.976 Y115.372 E33.19251
G1 X113.520 Y115.183 E33.25175
G1 X112.984 Y115.121 E33.31650
G1 X112.331 Y115.219 E33.39573
G1 X111.988 Y115.387 E33.44157
G1 X111.731 Y115.588 E33.48072
G1 X111.516 Y115.855 E33.52185
G1 X111.357 Y116.189 E33.56624
G1 X111.257 Y116.826 E33.64362
G1 X111.317 Y117.371 E33.70942
G1 X111.333 Y117.406 E33.71403
G1 X111.300 Y117.406 E33.71799
G1 X111.300 Y120.033 E34.03323
G1 X110.936 Y119.348 E34.12632
G1 X109.158 Y119.596 E34.34174
G1 X107.891 Y119.776 E34.49531
G1 X106.356 Y117.112 E34.86426
G1 X105.528 Y117.258 E34.96515
G1 X104.994 Y120.286 E35.33412
G1 X101.986 Y120.926 E35.70316
G1 X101.870 Y121.758 E35.80397
G1 X103.455 Y122.599 E36.01928
G1 X104.584 Y123.200 E36.17276
G1 X104.262 Y126.257 E36.54163
G1 X105.018 Y126.625 E36.64253
G1 X105.298 Y126.355 E36.68921
G1 X105.298 Y136.900 E37.95461
G1 X97.032 Y136.900 E38.94653
G1 X100.803 Y134.721 E39.46916
G1 X100.803 Y129.976 E40.03856
G1 X96.694 Y127.603 E40.60796
G1 X92.582 Y129.975 E41.17761
G1 X92.582 Y134.721 E41.74713
G1 X96.356 Y136.900 E42.27008
G1 X90.600 Y136.900 E42.96080
G1 X90.600 Y88.100 E48.81680
G1 X139.400 Y88.100 E54.67280
G1 X139.400 Y102.876 E56.44592
G1 X137.789 Y103.965 E56.67926
G1 X136.847 Y104.380 E56.80279
G1 X136.504 Y104.427 E56.84433
G1 X136.149 Y104.375 E56.88738
G1 X135.993 Y104.282 E56.90918
G1 X135.268 Y103.942 E57.00527
G1 X134.144 Y103.136 E57.17124
G1 X133.186 Y102.484 E57.31030
G1 X132.375 Y102.103 E57.41783
G1 X132.156 Y102.015 E57.44615
G1 X131.502 Y101.924 E57.52539
G1 X130.832 Y102.015 E57.60652
G1 X130.138 Y102.302 E57.69664
G1 X129.821 Y102.447 E57.73848
G1 X128.768 Y103.111 E57.88786
G1 X128.319 Y103.411 E57.95266
G1 X127.467 Y103.998 E58.07682
G1 X126.794 Y104.345 E58.16768
G1 X126.711 Y104.386 E58.17879
G1 X126.506 Y104.422 E58.20376
G1 X126.426 Y104.406 E58.21355
G1 X125.947 Y103.981 E58.29040
G1 X125.143 Y102.705 E58.47138
G1 X125.110 Y102.647 E58.47939
G1 X124.710 Y102.214 E58.55013
G1 X124.535 Y102.060 E58.57810
G1 X124.004 Y101.907 E58.64441
G1 X123.436 Y102.063 E58.71509
G1 X122.706 Y102.800 E58.83958
G1 X121.899 Y103.918 E59.00503
G1 X121.702 Y104.199 E59.04622
G1 X121.509 Y104.372 E59.07732
G1 X121.129 Y103.988 E59.14215
G1 X120.664 Y103.315 E59.24031
G1 X120.145 Y102.610 E59.34536
G1 X119.712 Y102.201 E59.41684
G1 X119.530 Y102.054 E59.44491
G1 X119.000 Y101.908 E59.51088
G1 X118.436 Y102.063 E59.58107
G1 X117.703 Y102.803 E59.70606
G1 X117.170 Y103.565 E59.81765
G1 X116.682 Y104.221 E59.91576
G1 X116.509 Y104.373 E59.94340
G1 X116.128 Y103.988 E60.00839
G1 X115.668 Y103.322 E60.10552
G1 X115.141 Y102.606 E60.21221
G1 X114.712 Y102.201 E60.28300
G1 X114.530 Y102.054 E60.31108
G1 X114.000 Y101.908 E60.37705
G1 X113.436 Y102.063 E60.44724
G1 X112.702 Y102.803 E60.57231
G1 X112.182 Y103.550 E60.68153
G1 X111.680 Y104.222 E60.78219
G1 X111.492 Y104.389 E60.81236
G1 X111.019 Y103.988 E60.88678
G1 X110.383 Y103.219 E61.00653
G1 X109.689 Y102.341 E61.14083
G1 X109.172 Y101.692 E61.24040
G1 X108.401 Y102.206 E61.35159
G1 X108.401 Y102.636 E61.40319
G1 X108.643 Y103.415 E61.50108
G1 X108.775 Y103.800 E61.54992
G1 X109.829 Y106.181 E61.86238
G1 X110.406 Y107.205 E62.00343
G1 X110.786 Y107.718 E62.08004
G1 X111.259 Y108.115 E62.15414
G1 X111.902 Y108.169 E62.23157
G1 X112.412 Y107.841 E62.30433
G1 X112.803 Y107.330 E62.38155
G1 X113.300 Y106.529 E62.49467
G1 X113.820 Y105.759 E62.60616
G1 X114.165 Y106.469 E62.70089
G1 X114.569 Y107.573 E62.84196
G1 X114.781 Y108.135 E62.91404
G1 X115.223 Y109.325 E63.06637
G1 X115.643 Y110.067 E63.16869
G1 X115.824 Y110.365 E63.21052
G1 X116.500 Y110.709 E63.30154
G1 X117.181 Y110.359 E63.39343
G1 X117.736 Y109.389 E63.52753
G1 X117.794 Y109.289 E63.54140
G1 X118.021 Y108.675 E63.61996
G1 X118.450 Y107.524 E63.76736
G1 X118.825 Y106.483 E63.90014
G1 X119.195 Y105.719 E64.00200
G1 X119.200 Y105.710 E64.00324
G1 X119.482 Y106.051 E64.05634
G1 X120.274 Y107.283 E64.23209
G1 X120.917 Y107.975 E64.34545
G1 X121.491 Y108.161 E64.41785
G1 X122.065 Y107.993 E64.48962
G1 X122.654 Y107.355 E64.59382
G1 X123.219 Y106.407 E64.72625
G1 X123.551 Y105.944 E64.79462
G1 X123.898 Y105.664 E64.84813
G1 X124.009 Y105.642 E64.86170
G1 X124.228 Y105.679 E64.88836
G1 X125.149 Y106.128 E65.01131
G1 X127.334 Y107.526 E65.32259
G1 X128.163 Y107.929 E65.43320
G1 X128.413 Y108.043 E65.46617
G1 X129.009 Y108.143 E65.53869
G1 X129.613 Y108.024 E65.61256
G1 X130.385 Y107.402 E65.73153
G1 X131.032 Y106.413 E65.87335
G1 X131.331 Y105.910 E65.94357
G1 X131.513 Y105.711 E65.97593
G1 X131.739 Y105.921 E66.01295
G1 X132.386 Y106.874 E66.15118
G1 X132.599 Y107.184 E66.19631
G1 X132.994 Y107.608 E66.26585
G1 X133.601 Y108.012 E66.35335
G1 X134.250 Y108.228 E66.43543
G1 X135.529 Y108.415 E66.59054
G1 X135.993 Y108.411 E66.64622
G1 X136.764 Y108.429 E66.73877
G1 X136.804 Y108.431 E66.74357
G1 X137.681 Y108.371 E66.84906
G1 X138.825 Y108.185 E66.98814
G1 X139.400 Y108.028 E67.05967
G1 X139.400 Y136.900 E70.52431
G1 X112.981 Y136.900 E73.69459
G10
G0 F9000 X110.067 Y125.985
G11
G1 F1200 X110.067 Y126.196 E73.71991
G1 X105.462 Y126.196 E74.27251
G1 X107.229 Y124.490 E74.56725
G1 X110.038 Y125.739 E74.93615
G1 X110.338 Y125.428 E74.98800
G1 X111.101 Y125.666 E75.08391
G1 X110.067 Y125.985 E75.21376
G0 F9000 X107.221 Y124.448
G0 X105.010 Y126.581
G0 X104.302 Y126.236
G0 X101.909 Y121.737
G0 X102.019 Y120.956
G0 X105.560 Y117.290
G0 X106.337 Y117.153
G0 X110.915 Y119.387
G0 X111.286 Y120.084
G0 X109.232 Y122.366
G0 X110.067 Y122.932
G1 F1200 X110.067 Y123.998 E75.34168
G1 X109.273 Y122.373 E75.55871
G1 X111.300 Y120.122 E75.92221
G1 X111.300 Y121.430 E76.07917
G1 X111.364 Y121.976 E76.14514
G1 X111.300 Y121.976 E76.15282
G1 X111.300 Y123.398 E76.32346
G1 X110.067 Y122.932 E76.48163
G10
G0 F9000 X112.516 Y123.857
G11
G1 F1200 X112.959 Y123.857 E76.53479
G1 X112.959 Y124.024 E76.55483
G1 X112.516 Y123.857 E76.61165
G10
G0 F9000 X105.328 Y106.470
G11
G1 F1200 X105.562 Y106.407 E76.64073
G1 X106.707 Y105.263 E76.83495
G1 X107.063 Y103.934 E77.00006
G1 X107.125 Y103.699 E77.02922
G1 X106.707 Y102.140 E77.22291
G1 X105.563 Y100.994 E77.41722
G1 X104.000 Y100.577 E77.61134
G1 X102.437 Y100.994 E77.80546
G1 X101.466 Y101.968 E77.97050
G1 X101.295 Y102.139 E77.99952
G1 X100.876 Y103.700 E78.19347
G1 X101.232 Y105.027 E78.35834
G1 X101.295 Y105.262 E78.38754
G1 X102.437 Y106.407 E78.58160
G1 X104.000 Y106.825 E78.77575
G1 X105.328 Y106.470 E78.94071
G0 F9000 X104.000 Y106.818
G0 X102.441 Y106.401
G0 X100.274 Y105.012
G1 F1200 X100.567 Y103.918 E79.07661
G1 X100.625 Y103.701 E79.10357
G1 X100.274 Y102.390 E79.26643
G1 X99.314 Y101.428 E79.42951
G1 X98.000 Y101.076 E79.59275
G1 X96.687 Y101.428 E79.75588
G1 X95.727 Y102.390 E79.91897
G1 X95.434 Y103.482 E80.05464
G1 X95.376 Y103.699 E80.08159
G1 X95.669 Y104.795 E80.21773
G1 X95.727 Y105.013 E80.24480
G1 X96.687 Y105.974 E80.40781
G1 X97.782 Y106.267 E80.54383
G1 X97.999 Y106.325 E80.57078
G1 X99.314 Y105.974 E80.73411
G1 X100.274 Y105.012 E80.89719
G0 F9000 X99.309 Y105.968
G0 X98.000 Y106.318
G0 X96.691 Y105.968
G0 X95.733 Y105.008
G0 X95.071 Y103.902
G1 F1200 X95.126 Y103.702 E80.92208
G1 X94.841 Y102.640 E81.05403
G1 X94.213 Y102.009 E81.16086
G1 X94.063 Y101.860 E81.18624
G1 X93.000 Y101.576 E81.31827
G1 X91.937 Y101.860 E81.45030
G1 X91.309 Y102.491 E81.55713
G1 X91.160 Y102.639 E81.58233
G1 X90.876 Y103.700 E81.71414
G1 X91.160 Y104.762 E81.84606
G1 X91.937 Y105.540 E81.97800
G1 X93.000 Y105.825 E82.11007
G1 X93.861 Y105.594 E82.21704
G1 X94.064 Y105.539 E82.24228
G1 X94.841 Y104.762 E82.37414
G1 X95.071 Y103.902 E82.48097
G0 F9000 X94.684 Y103.800
;TYPE:WALL-OUTER
G1 F1200 X94.711 Y103.701 E82.49328
G1 X94.482 Y102.847 E82.59938
G1 X93.857 Y102.219 E82.70570
G1 X93.000 Y101.990 E82.81215
G1 X92.144 Y102.219 E82.91848
G1 X91.519 Y102.847 E83.02480
G1 X91.290 Y103.700 E83.13079
G1 X91.519 Y104.555 E83.23700
G1 X92.144 Y105.181 E83.34316
G1 X93.000 Y105.411 E83.44952
G1 X93.857 Y105.181 E83.55600
G1 X94.482 Y104.555 E83.66215
G1 X94.684 Y103.800 E83.75594
G0 F9000 X95.790 Y103.700
G1 F1200 X96.086 Y104.805 E83.89321
G1 X96.894 Y105.615 E84.03050
G1 X98.000 Y105.911 E84.16789
G1 X99.107 Y105.615 E84.30540
G1 X99.915 Y104.805 E84.44269
G1 X100.211 Y103.700 E84.57997
G1 X99.915 Y102.597 E84.71701
G1 X99.107 Y101.787 E84.85430
G1 X98.000 Y101.490 E84.99184
G1 X96.894 Y101.787 E85.12926
G1 X96.086 Y102.597 E85.26655
G1 X95.790 Y103.700 E85.40360
G0 F9000 X95.501 Y103.623
G0 X95.733 Y102.394
G0 X96.691 Y101.434
G0 X98.000 Y101.083
G0 X99.310 Y101.434
G0 X100.268 Y102.394
G0 X101.001 Y103.623
G0 X101.290 Y103.700
G1 F1200 X101.654 Y105.055 E85.57196
G1 X102.644 Y106.048 E85.74023
G1 X104.000 Y106.411 E85.90867
G1 X105.356 Y106.048 E86.07712
G1 X106.348 Y105.056 E86.24547
G1 X106.711 Y103.700 E86.41392
G1 X106.348 Y102.347 E86.58202
G1 X105.356 Y101.353 E86.75054
G1 X104.000 Y100.991 E86.91896
G1 X102.644 Y101.353 E87.08738
G1 X101.654 Y102.347 E87.25573
G1 X101.290 Y103.700 E87.42386
G0 F9000 X101.001 Y103.623
G0 X101.301 Y102.144
G0 X102.441 Y101.000
G0 X104.000 Y100.584
G0 X105.558 Y101.000
G0 X108.635 Y102.171
G0 X108.801 Y102.420
G1 F1200 X108.801 Y102.575 E87.44246
G1 X109.023 Y103.291 E87.53242
G1 X109.148 Y103.654 E87.57849
G1 X110.187 Y106.002 E87.88660
G1 X110.742 Y106.987 E88.02227
G1 X111.079 Y107.442 E88.09022
G1 X111.419 Y107.727 E88.14345
G1 X111.800 Y107.759 E88.18933
G1 X112.137 Y107.542 E88.23743
G1 X112.474 Y107.103 E88.30385
G1 X112.957 Y106.322 E88.41404
G1 X113.074 Y106.125 E88.44154
G1 X113.641 Y105.318 E88.55989
G1 X113.800 Y105.216 E88.58256
G1 X113.912 Y105.225 E88.59604
G1 X114.085 Y105.392 E88.62489
G1 X114.533 Y106.311 E88.74758
G1 X114.944 Y107.434 E88.89108
G1 X115.587 Y109.156 E89.11166
G1 X115.988 Y109.864 E89.20930
G1 X116.107 Y110.060 E89.23681
G1 X116.499 Y110.260 E89.28962
G1 X116.892 Y110.058 E89.34265
G1 X117.390 Y109.188 E89.46294
G1 X117.431 Y109.118 E89.47268
G1 X118.075 Y107.387 E89.69431
G1 X118.455 Y106.329 E89.82921
G1 X118.839 Y105.536 E89.93494
G1 X118.912 Y105.394 E89.95410
G1 X119.092 Y105.221 E89.98406
G1 X119.212 Y105.205 E89.99858
G1 X119.370 Y105.290 E90.02011
G1 X119.808 Y105.817 E90.10234
G1 X120.591 Y107.037 E90.27630
G1 X121.139 Y107.626 E90.37284
G1 X121.497 Y107.742 E90.41800
G1 X121.846 Y107.640 E90.46163
G1 X122.332 Y107.114 E90.54757
G1 X122.886 Y106.184 E90.67747
G1 X122.982 Y106.061 E90.69619
G1 X123.254 Y105.669 E90.75345
G1 X123.663 Y105.340 E90.81644
G1 X123.733 Y105.288 E90.82690
G1 X124.003 Y105.235 E90.85992
G1 X124.347 Y105.293 E90.90178
G1 X125.354 Y105.783 E91.03617
G1 X127.530 Y107.177 E91.34628
G1 X128.334 Y107.567 E91.45351
G1 X128.531 Y107.657 E91.47950
G1 X129.004 Y107.736 E91.53704
G1 X129.439 Y107.651 E91.59023
G1 X130.085 Y107.130 E91.68982
G1 X130.693 Y106.201 E91.82305
G1 X131.008 Y105.672 E91.89694
G1 X131.369 Y105.279 E91.96097
G1 X131.507 Y105.239 E91.97821
G1 X131.652 Y105.273 E91.99609
G1 X131.717 Y105.354 E92.00855
G1 X132.044 Y105.658 E92.06213
G1 X132.911 Y106.933 E92.24715
G1 X133.255 Y107.301 E92.30760
G1 X133.778 Y107.649 E92.38298
G1 X134.343 Y107.837 E92.45444
G1 X135.556 Y108.015 E92.60156
G1 X135.999 Y108.011 E92.65472
G1 X136.774 Y108.029 E92.74774
G1 X136.803 Y108.030 E92.75123
G1 X137.635 Y107.973 E92.85130
G1 X138.740 Y107.794 E92.98563
G1 X139.800 Y107.504 E93.11750
G1 X139.800 Y137.300 E96.69302
G1 X110.103 Y137.300 E100.25666
G1 X110.103 Y126.596 E101.54114
G1 X109.198 Y126.596 E101.64974
G1 X109.198 Y137.300 E102.93422
G1 X109.004 Y137.300 E102.95750
G1 X109.004 Y126.596 E104.24198
G1 X108.198 Y126.596 E104.33870
G1 X108.198 Y137.300 E105.62318
G1 X107.904 Y137.300 E105.65846
G1 X107.904 Y126.596 E106.94294
G1 X107.198 Y126.596 E107.02766
G1 X107.198 Y137.300 E108.31214
G1 X107.004 Y137.300 E108.33542
G1 X107.004 Y126.596 E109.61990
G1 X106.398 Y126.596 E109.69262
G1 X106.398 Y137.300 E110.97710
G1 X106.204 Y137.300 E111.00038
G1 X106.204 Y126.596 E112.28486
G1 X105.698 Y126.596 E112.34558
G1 X105.698 Y137.300 E113.63006
G1 X90.200 Y137.300 E115.48982
G1 X90.200 Y87.700 E121.44182
G1 X139.800 Y87.700 E127.39382
G1 X139.800 Y103.088 E129.24038
G1 X137.982 Y104.316 E129.50365
G1 X136.957 Y104.768 E129.63808
G1 X136.504 Y104.830 E129.69294
G1 X136.055 Y104.767 E129.74735
G1 X135.970 Y104.735 E129.75825
G1 X135.805 Y104.635 E129.78140
G1 X135.065 Y104.288 E129.87948
G1 X133.911 Y103.461 E130.04985
G1 X132.990 Y102.834 E130.18355
G1 X132.216 Y102.470 E130.28619
G1 X132.053 Y102.404 E130.30729
G1 X131.501 Y102.328 E130.37415
G1 X130.937 Y102.404 E130.44245
G1 X130.298 Y102.669 E130.52546
G1 X130.012 Y102.800 E130.56321
G1 X128.986 Y103.446 E130.70870
G1 X128.544 Y103.742 E130.77253
G1 X127.675 Y104.340 E130.89912
G1 X126.970 Y104.704 E130.99433
G1 X126.835 Y104.770 E131.01236
G1 X126.502 Y104.829 E131.05295
G1 X126.242 Y104.777 E131.08476
G1 X125.637 Y104.240 E131.18184
G1 X124.804 Y102.918 E131.36934
G1 X124.785 Y102.885 E131.37391
G1 X124.430 Y102.501 E131.43667
G1 X124.338 Y102.419 E131.45146
G1 X124.001 Y102.322 E131.49354
G1 X123.645 Y102.420 E131.53785
G1 X123.012 Y103.059 E131.64578
G1 X122.225 Y104.150 E131.80721
G1 X122.004 Y104.464 E131.85329
G1 X121.657 Y104.777 E131.90936
G1 X121.499 Y104.824 E131.92914
G1 X121.354 Y104.783 E131.94723
G1 X120.821 Y104.245 E132.03810
G1 X120.338 Y103.547 E132.13996
G1 X119.844 Y102.876 E132.23995
G1 X119.449 Y102.502 E132.30523
G1 X119.343 Y102.417 E132.32153
G1 X119.000 Y102.323 E132.36421
G1 X118.645 Y102.420 E132.40837
G1 X118.011 Y103.060 E132.51647
G1 X117.498 Y103.794 E132.62393
G1 X116.978 Y104.494 E132.72858
G1 X116.652 Y104.781 E132.78070
G1 X116.499 Y104.824 E132.79977
G1 X116.353 Y104.783 E132.81796
G1 X115.820 Y104.245 E132.90884
G1 X115.162 Y103.292 E133.04781
G1 X114.843 Y102.875 E133.11082
G1 X114.449 Y102.502 E133.17592
G1 X114.343 Y102.417 E133.19223
G1 X114.000 Y102.323 E133.23491
G1 X113.645 Y102.420 E133.27907
G1 X113.011 Y103.060 E133.38717
G1 X112.503 Y103.789 E133.49380
G1 X111.976 Y104.496 E133.59961
G1 X111.652 Y104.781 E133.65139
G1 X111.501 Y104.823 E133.67020
G1 X111.323 Y104.770 E133.69249
G1 X110.732 Y104.269 E133.78546
G1 X110.069 Y103.467 E133.91033
G1 X109.089 Y102.228 E134.09990
G1 X108.801 Y102.420 E134.14143
G0 F9000 X108.635 Y102.171
