;FLAVOR:UltiGCode
;TIME:2605
;MATERIAL:3011
;MATERIAL2:0

;Layer count: 336
;LAYER:0
M107
G0 F9000 X104.296 Y103.521 Z0.300
;TYPE:SKIRT
G1 F1200 X105.116 Y102.868 E0.12579
G1 X106.023 Y102.407 E0.24788
G1 X106.966 Y102.139 E0.36552
G1 X107.708 Y102.072 E0.45492
G1 X108.257 Y102.063 E0.52081
G1 X108.561 Y102.064 E0.55729
G1 X108.610 Y102.062 E0.56318
G1 X109.389 Y102.069 E0.65666
G1 X109.761 Y102.068 E0.70130
G1 X110.102 Y102.069 E0.74222
G1 X110.494 Y102.068 E0.78926
G1 X110.836 Y102.069 E0.83030
G1 X111.228 Y102.068 E0.87734
G1 X111.569 Y102.069 E0.91826
G1 X111.961 Y102.068 E0.96530
G1 X112.302 Y102.069 E1.00622
G1 X112.694 Y102.068 E1.05326
G1 X113.019 Y102.069 E1.09226
G1 X113.688 Y102.064 E1.17255
G1 X113.741 Y102.063 E1.17891
G1 X114.020 Y102.064 E1.21239
G1 X114.091 Y102.059 E1.22093
G1 X115.079 Y102.093 E1.33956
G1 X115.080 Y102.093 E1.33968
G1 X115.268 Y102.071 E1.36239
G1 X115.943 Y102.064 E1.44340
G1 X116.226 Y102.065 E1.47736
G1 X116.418 Y102.064 E1.50040
G1 X116.990 Y102.069 E1.56904
G1 X117.437 Y102.068 E1.62268
G1 X117.705 Y102.069 E1.65484
G1 X118.171 Y102.068 E1.71076
G1 X118.439 Y102.069 E1.74292
G1 X118.904 Y102.068 E1.79872
G1 X119.172 Y102.069 E1.83088
G1 X119.637 Y102.068 E1.88668
G1 X119.905 Y102.069 E1.91884
G1 X120.371 Y102.068 E1.97476
G1 X120.620 Y102.069 E2.00464
G1 X121.166 Y102.065 E2.07016
G1 X121.456 Y102.064 E2.10496
G1 X121.704 Y102.065 E2.13472
G1 X121.896 Y102.063 E2.15777
G1 X123.022 Y102.127 E2.29310
G1 X124.062 Y102.440 E2.42343
G1 X124.972 Y102.927 E2.54729
G1 X125.779 Y103.596 E2.67308
G1 X126.432 Y104.416 E2.79887
G1 X126.893 Y105.323 E2.92096
G1 X127.161 Y106.266 E3.03860
G1 X127.229 Y107.018 E3.12921
G1 X127.236 Y107.696 E3.21057
G1 X127.235 Y108.028 E3.25041
G1 X127.236 Y108.221 E3.27357
G1 X127.231 Y108.860 E3.35025
G1 X127.232 Y109.355 E3.40965
G1 X127.231 Y109.659 E3.44613
G1 X127.232 Y110.171 E3.50757
G1 X127.231 Y110.474 E3.54393
G1 X127.232 Y110.986 E3.60537
G1 X127.231 Y111.289 E3.64173
G1 X127.232 Y111.801 E3.70317
G1 X127.231 Y112.105 E3.73965
G1 X127.232 Y112.616 E3.80097
G1 X127.231 Y112.919 E3.83734
G1 X127.232 Y113.431 E3.89878
G1 X127.231 Y113.735 E3.93526
G1 X127.232 Y114.247 E3.99670
G1 X127.231 Y114.550 E4.03306
G1 X127.232 Y115.062 E4.09450
G1 X127.231 Y115.365 E4.13086
G1 X127.232 Y115.877 E4.19230
G1 X127.231 Y116.181 E4.22878
G1 X127.235 Y116.766 E4.29898
G1 X127.236 Y117.084 E4.33714
G1 X127.235 Y117.404 E4.37554
G1 X127.237 Y117.561 E4.39438
G1 X127.174 Y118.717 E4.53331
G1 X126.860 Y119.762 E4.66424
G1 X126.373 Y120.672 E4.78810
G1 X125.704 Y121.479 E4.91389
G1 X124.884 Y122.132 E5.03968
G1 X123.977 Y122.593 E5.16177
G1 X123.034 Y122.861 E5.27941
G1 X122.282 Y122.929 E5.37002
G1 X121.656 Y122.936 E5.44514
G1 X121.373 Y122.935 E5.47910
G1 X121.181 Y122.936 E5.50214
G1 X120.609 Y122.931 E5.57079
G1 X120.161 Y122.932 E5.62455
G1 X119.893 Y122.931 E5.65671
G1 X119.428 Y122.932 E5.71251
G1 X119.160 Y122.931 E5.74467
G1 X118.695 Y122.932 E5.80047
G1 X118.427 Y122.931 E5.83263
G1 X117.961 Y122.932 E5.88855
G1 X117.693 Y122.931 E5.92071
G1 X117.228 Y122.932 E5.97651
G1 X116.979 Y122.931 E6.00639
G1 X116.433 Y122.935 E6.07191
G1 X116.143 Y122.936 E6.10671
G1 X115.897 Y122.935 E6.13623
G1 X115.739 Y122.937 E6.15519
G1 X114.924 Y122.906 E6.25306
G1 X114.739 Y122.928 E6.27542
G1 X114.144 Y122.937 E6.34683
G1 X113.840 Y122.936 E6.38331
G1 X113.791 Y122.938 E6.38919
G1 X113.012 Y122.931 E6.48268
G1 X112.640 Y122.932 E6.52732
G1 X112.298 Y122.931 E6.56836
G1 X111.906 Y122.932 E6.61540
G1 X111.565 Y122.931 E6.65632
G1 X111.173 Y122.932 E6.70336
G1 X110.832 Y122.931 E6.74428
G1 X110.440 Y122.932 E6.79132
G1 X110.098 Y122.931 E6.83236
G1 X109.706 Y122.932 E6.87940
G1 X109.382 Y122.931 E6.91828
G1 X108.713 Y122.936 E6.99856
G1 X108.660 Y122.937 E7.00492
G1 X108.384 Y122.936 E7.03804
G1 X108.301 Y122.942 E7.04803
G1 X107.493 Y122.910 E7.14506
G1 X106.901 Y122.850 E7.21647
G1 X105.938 Y122.560 E7.33715
G1 X105.028 Y122.073 E7.46101
G1 X104.221 Y121.404 E7.58680
G1 X103.568 Y120.584 E7.71258
G1 X103.107 Y119.677 E7.83468
G1 X102.839 Y118.734 E7.95232
G1 X102.771 Y117.989 E8.04209
G1 X102.763 Y117.398 E8.11302
G1 X102.764 Y117.030 E8.15718
G1 X102.763 Y117.000 E8.16078
G1 X102.769 Y116.141 E8.26386
G1 X102.768 Y115.731 E8.31306
G1 X102.769 Y115.344 E8.35950
G1 X102.768 Y114.915 E8.41098
G1 X102.769 Y114.528 E8.45742
G1 X102.768 Y114.100 E8.50878
G1 X102.769 Y113.713 E8.55522
G1 X102.768 Y113.285 E8.60658
G1 X102.769 Y112.898 E8.65302
G1 X102.768 Y112.470 E8.70438
G1 X102.769 Y112.083 E8.75082
G1 X102.768 Y111.655 E8.80218
G1 X102.769 Y111.268 E8.84862
G1 X102.768 Y110.839 E8.90010
G1 X102.769 Y110.452 E8.94654
G1 X102.768 Y110.024 E8.99790
G1 X102.769 Y109.637 E9.04434
G1 X102.768 Y109.209 E9.09570
G1 X102.769 Y108.822 E9.14214
G1 X102.764 Y108.070 E9.23239
G1 X102.763 Y108.036 E9.23647
G1 X102.764 Y107.712 E9.27535
G1 X102.759 Y107.631 E9.28509
G1 X102.790 Y106.798 E9.38512
G1 X102.850 Y106.201 E9.45712
G1 X103.140 Y105.238 E9.57780
G1 X103.627 Y104.328 E9.70166
G1 X104.296 Y103.521 E9.82745
G0 F9000 X104.578 Y103.808
G1 F1200 X105.334 Y103.207 E9.94334
G1 X106.170 Y102.781 E10.05593
G1 X107.039 Y102.534 E10.16434
G1 X107.729 Y102.471 E10.24749
G1 X108.259 Y102.463 E10.31110
G1 X108.570 Y102.464 E10.34842
G1 X108.615 Y102.462 E10.35382
G1 X109.386 Y102.469 E10.44634
G1 X109.761 Y102.468 E10.49134
G1 X110.101 Y102.469 E10.53215
G1 X110.494 Y102.468 E10.57931
G1 X110.835 Y102.469 E10.62023
G1 X111.228 Y102.468 E10.66739
G1 X111.568 Y102.469 E10.70819
G1 X111.961 Y102.468 E10.75535
G1 X112.301 Y102.469 E10.79615
G1 X112.694 Y102.468 E10.84331
G1 X113.020 Y102.469 E10.88243
G1 X113.698 Y102.464 E10.96379
G1 X113.746 Y102.463 E10.96955
G1 X114.028 Y102.464 E11.00339
G1 X114.097 Y102.459 E11.01169
G1 X115.037 Y102.492 E11.12456
G1 X115.068 Y102.498 E11.12835
G1 X115.294 Y102.471 E11.15566
G1 X115.944 Y102.464 E11.23367
G1 X116.227 Y102.465 E11.26763
G1 X116.418 Y102.464 E11.29055
G1 X116.988 Y102.469 E11.35895
G1 X117.437 Y102.468 E11.41283
G1 X117.704 Y102.469 E11.44487
G1 X118.171 Y102.468 E11.50091
G1 X118.438 Y102.469 E11.53295
G1 X118.904 Y102.468 E11.58887
G1 X119.171 Y102.469 E11.62091
G1 X119.637 Y102.468 E11.67683
G1 X119.904 Y102.469 E11.70887
G1 X120.371 Y102.468 E11.76491
G1 X120.622 Y102.469 E11.79503
G1 X121.169 Y102.465 E11.86067
G1 X121.456 Y102.464 E11.89511
G1 X121.707 Y102.465 E11.92523
G1 X121.887 Y102.463 E11.94684
G1 X122.952 Y102.524 E12.07485
G1 X123.909 Y102.812 E12.19477
G1 X124.748 Y103.261 E12.30896
G1 X125.492 Y103.878 E12.42495
G1 X126.093 Y104.634 E12.54084
G1 X126.519 Y105.470 E12.65344
G1 X126.766 Y106.339 E12.76185
G1 X126.830 Y107.039 E12.84620
G1 X126.836 Y107.697 E12.92516
G1 X126.835 Y108.026 E12.96464
G1 X126.836 Y108.220 E12.98792
G1 X126.831 Y108.857 E13.06437
G1 X126.832 Y109.354 E13.12401
G1 X126.831 Y109.658 E13.16049
G1 X126.832 Y110.170 E13.22193
G1 X126.831 Y110.473 E13.25829
G1 X126.832 Y110.985 E13.31973
G1 X126.831 Y111.288 E13.35609
G1 X126.832 Y111.800 E13.41753
G1 X126.831 Y112.104 E13.45401
G1 X126.832 Y112.615 E13.51533
G1 X126.831 Y112.918 E13.55169
G1 X126.832 Y113.430 E13.61313
G1 X126.831 Y113.734 E13.64961
G1 X126.832 Y114.246 E13.71105
G1 X126.831 Y114.549 E13.74741
G1 X126.832 Y115.061 E13.80885
G1 X126.831 Y115.364 E13.84521
G1 X126.832 Y115.876 E13.90665
G1 X126.831 Y116.180 E13.94313
G1 X126.835 Y116.768 E14.01369
G1 X126.836 Y117.084 E14.05161
G1 X126.835 Y117.402 E14.08977
G1 X126.837 Y117.552 E14.10777
G1 X126.778 Y118.648 E14.23948
G1 X126.488 Y119.609 E14.35994
G1 X126.039 Y120.448 E14.47413
G1 X125.422 Y121.192 E14.59012
G1 X124.666 Y121.793 E14.70601
G1 X123.830 Y122.219 E14.81860
G1 X122.961 Y122.466 E14.92701
G1 X122.262 Y122.529 E15.01123
G1 X121.655 Y122.536 E15.08408
G1 X121.372 Y122.535 E15.11804
G1 X121.181 Y122.536 E15.14096
G1 X120.611 Y122.531 E15.20936
G1 X120.161 Y122.532 E15.26336
G1 X119.894 Y122.531 E15.29540
G1 X119.428 Y122.532 E15.35132
G1 X119.161 Y122.531 E15.38336
G1 X118.695 Y122.532 E15.43928
G1 X118.428 Y122.531 E15.47132
G1 X117.961 Y122.532 E15.52736
G1 X117.694 Y122.531 E15.55940
G1 X117.228 Y122.532 E15.61532
G1 X116.977 Y122.531 E15.64544
G1 X116.430 Y122.535 E15.71109
G1 X116.143 Y122.536 E15.74553
G1 X115.894 Y122.535 E15.77541
G1 X115.744 Y122.537 E15.79341
G1 X114.960 Y122.508 E15.88755
G1 X114.929 Y122.503 E15.89132
G1 X114.713 Y122.528 E15.91741
G1 X114.142 Y122.537 E15.98594
G1 X113.831 Y122.536 E16.02326
G1 X113.786 Y122.538 E16.02867
G1 X113.015 Y122.531 E16.12119
G1 X112.640 Y122.532 E16.16619
G1 X112.299 Y122.531 E16.20711
G1 X111.906 Y122.532 E16.25427
G1 X111.566 Y122.531 E16.29507
G1 X111.173 Y122.532 E16.34223
G1 X110.833 Y122.531 E16.38303
G1 X110.440 Y122.532 E16.43019
G1 X110.099 Y122.531 E16.47111
G1 X109.706 Y122.532 E16.51827
G1 X109.381 Y122.531 E16.55727
G1 X108.703 Y122.536 E16.63863
G1 X108.655 Y122.537 E16.64440
G1 X108.368 Y122.536 E16.67884
G1 X108.295 Y122.541 E16.68762
G1 X107.521 Y122.511 E16.78057
G1 X106.980 Y122.456 E16.84582
G1 X106.091 Y122.188 E16.95724
G1 X105.252 Y121.739 E17.07143
G1 X104.508 Y121.122 E17.18742
G1 X103.907 Y120.366 E17.30331
G1 X103.481 Y119.530 E17.41591
G1 X103.234 Y118.661 E17.52432
G1 X103.171 Y117.968 E17.60782
G1 X103.163 Y117.396 E17.67647
G1 X103.164 Y117.023 E17.72123
G1 X103.163 Y116.995 E17.72459
G1 X103.169 Y116.145 E17.82659
G1 X103.168 Y115.731 E17.87627
G1 X103.169 Y115.345 E17.92259
G1 X103.168 Y114.915 E17.97419
G1 X103.169 Y114.530 E18.02039
G1 X103.168 Y114.100 E18.07199
G1 X103.169 Y113.715 E18.11819
G1 X103.168 Y113.285 E18.16979
G1 X103.169 Y112.899 E18.21611
G1 X103.168 Y112.470 E18.26759
G1 X103.169 Y112.085 E18.31379
G1 X103.168 Y111.655 E18.36539
G1 X103.169 Y111.269 E18.41171
G1 X103.168 Y110.839 E18.46331
G1 X103.169 Y110.454 E18.50951
G1 X103.168 Y110.024 E18.56112
G1 X103.169 Y109.639 E18.60732
G1 X103.168 Y109.209 E18.65892
G1 X103.169 Y108.823 E18.70524
G1 X103.164 Y108.067 E18.79596
G1 X103.163 Y108.032 E18.80016
G1 X103.164 Y107.690 E18.84120
G1 X103.160 Y107.626 E18.84889
G1 X103.189 Y106.826 E18.94496
G1 X103.244 Y106.280 E19.01081
G1 X103.512 Y105.391 E19.12223
G1 X103.961 Y104.552 E19.23642
G1 X104.578 Y103.808 E19.35241
G10
G0 F9000 X107.251 Y106.537
;TYPE:WALL-INNER
G11
G1 F1200 X107.399 Y106.420 E19.37505
G1 X107.566 Y106.335 E19.39753
G1 X107.733 Y106.287 E19.41839
G1 X108.287 Y106.263 E19.48493
G1 X108.644 Y106.264 E19.52777
G1 X108.676 Y106.263 E19.53161
G1 X109.365 Y106.269 E19.61429
G1 X109.760 Y106.268 E19.66169
G1 X110.100 Y106.269 E19.70249
G1 X110.493 Y106.268 E19.74965
G1 X110.834 Y106.269 E19.79057
G1 X111.227 Y106.268 E19.83773
G1 X111.567 Y106.269 E19.87853
G1 X111.960 Y106.268 E19.92569
G1 X112.300 Y106.269 E19.96649
G1 X112.693 Y106.268 E20.01365
G1 X113.035 Y106.269 E20.05469
G1 X113.748 Y106.264 E20.14026
G1 X113.793 Y106.263 E20.14566
G1 X114.639 Y106.281 E20.24720
G1 X114.897 Y106.343 E20.27904
G1 X115.107 Y106.338 E20.30425
G1 X115.224 Y106.306 E20.31881
G1 X115.538 Y106.269 E20.35675
G1 X115.961 Y106.264 E20.40751
G1 X116.234 Y106.265 E20.44027
G1 X116.410 Y106.264 E20.46139
G1 X116.964 Y106.269 E20.52787
G1 X117.433 Y106.268 E20.58415
G1 X117.699 Y106.269 E20.61607
G1 X118.167 Y106.268 E20.67223
G1 X118.433 Y106.269 E20.70415
G1 X118.900 Y106.268 E20.76019
G1 X119.166 Y106.269 E20.79211
G1 X119.633 Y106.268 E20.84815
G1 X119.899 Y106.269 E20.88007
G1 X120.367 Y106.268 E20.93623
G1 X120.634 Y106.269 E20.96827
G1 X121.190 Y106.265 E21.03500
G1 X121.456 Y106.264 E21.06692
G1 X121.736 Y106.265 E21.10052
G1 X121.802 Y106.264 E21.10844
G1 X122.285 Y106.292 E21.16649
G1 X122.453 Y106.342 E21.18753
G1 X122.617 Y106.430 E21.20986
G1 X122.763 Y106.551 E21.23262
G1 X122.880 Y106.699 E21.25526
G1 X122.965 Y106.866 E21.27774
G1 X123.013 Y107.033 E21.29859
G1 X123.036 Y107.706 E21.37940
G1 X123.035 Y108.017 E21.41672
G1 X123.036 Y108.210 E21.43988
G1 X123.031 Y108.829 E21.51416
G1 X123.032 Y109.350 E21.57669
G1 X123.031 Y109.647 E21.61233
G1 X123.032 Y110.166 E21.67461
G1 X123.031 Y110.462 E21.71013
G1 X123.032 Y110.981 E21.77241
G1 X123.031 Y111.277 E21.80793
G1 X123.032 Y111.796 E21.87021
G1 X123.031 Y112.093 E21.90585
G1 X123.032 Y112.611 E21.96801
G1 X123.031 Y112.907 E22.00353
G1 X123.032 Y113.426 E22.06581
G1 X123.031 Y113.723 E22.10145
G1 X123.032 Y114.242 E22.16373
G1 X123.031 Y114.538 E22.19925
G1 X123.032 Y115.057 E22.26153
G1 X123.031 Y115.353 E22.29705
G1 X123.032 Y115.872 E22.35933
G1 X123.031 Y116.170 E22.39509
G1 X123.035 Y116.786 E22.46901
G1 X123.036 Y117.082 E22.50453
G1 X123.035 Y117.394 E22.54197
G1 X123.036 Y117.473 E22.55145
G1 X123.008 Y117.985 E22.61298
G1 X122.958 Y118.153 E22.63402
G1 X122.870 Y118.317 E22.65635
G1 X122.749 Y118.463 E22.67911
G1 X122.601 Y118.580 E22.70174
G1 X122.434 Y118.665 E22.72423
G1 X122.267 Y118.713 E22.74508
G1 X121.638 Y118.736 E22.82061
G1 X121.365 Y118.735 E22.85337
G1 X121.189 Y118.736 E22.87449
G1 X120.635 Y118.731 E22.94098
G1 X120.165 Y118.732 E22.99738
G1 X119.899 Y118.731 E23.02930
G1 X119.432 Y118.732 E23.08534
G1 X119.166 Y118.731 E23.11726
G1 X118.699 Y118.732 E23.17330
G1 X118.433 Y118.731 E23.20522
G1 X117.965 Y118.732 E23.26138
G1 X117.699 Y118.731 E23.29330
G1 X117.232 Y118.732 E23.34934
G1 X116.965 Y118.731 E23.38138
G1 X116.409 Y118.735 E23.44810
G1 X116.143 Y118.736 E23.48002
G1 X115.863 Y118.735 E23.51362
G1 X115.799 Y118.736 E23.52130
G1 X115.360 Y118.719 E23.57402
G1 X115.102 Y118.656 E23.60589
G1 X114.878 Y118.661 E23.63278
G1 X114.770 Y118.695 E23.64636
G1 X114.460 Y118.731 E23.68381
G1 X114.114 Y118.737 E23.72534
G1 X113.757 Y118.736 E23.76818
G1 X113.725 Y118.737 E23.77202
G1 X113.036 Y118.731 E23.85471
G1 X112.641 Y118.732 E23.90211
G1 X112.300 Y118.731 E23.94303
G1 X111.907 Y118.732 E23.99019
G1 X111.567 Y118.731 E24.03099
G1 X111.174 Y118.732 E24.07815
G1 X110.834 Y118.731 E24.11895
G1 X110.441 Y118.732 E24.16611
G1 X110.100 Y118.731 E24.20703
G1 X109.707 Y118.732 E24.25419
G1 X109.366 Y118.731 E24.29511
G1 X108.653 Y118.736 E24.38067
G1 X108.608 Y118.737 E24.38607
G1 X107.782 Y118.717 E24.48522
G1 X107.728 Y118.712 E24.49173
G1 X107.547 Y118.658 E24.51439
G1 X107.383 Y118.570 E24.53673
G1 X107.237 Y118.449 E24.55948
G1 X107.120 Y118.301 E24.58212
G1 X107.035 Y118.134 E24.60461
G1 X106.987 Y117.967 E24.62546
G1 X106.963 Y117.379 E24.69608
G1 X106.964 Y116.975 E24.74456
G1 X106.963 Y116.934 E24.74948
G1 X106.969 Y116.171 E24.84104
G1 X106.968 Y115.734 E24.89348
G1 X106.969 Y115.353 E24.93920
G1 X106.968 Y114.918 E24.99140
G1 X106.969 Y114.538 E25.03700
G1 X106.968 Y114.103 E25.08920
G1 X106.969 Y113.723 E25.13480
G1 X106.968 Y113.288 E25.18700
G1 X106.969 Y112.907 E25.23272
G1 X106.968 Y112.473 E25.28480
G1 X106.969 Y112.093 E25.33040
G1 X106.968 Y111.658 E25.38260
G1 X106.969 Y111.277 E25.42832
G1 X106.968 Y110.842 E25.48052
G1 X106.969 Y110.462 E25.52612
G1 X106.968 Y110.027 E25.57832
G1 X106.969 Y109.647 E25.62392
G1 X106.968 Y109.212 E25.67613
G1 X106.969 Y108.830 E25.72197
G1 X106.964 Y108.039 E25.81689
G1 X106.963 Y108.003 E25.82121
G1 X106.983 Y107.081 E25.93187
G1 X106.988 Y107.028 E25.93826
G1 X107.042 Y106.847 E25.96093
G1 X107.130 Y106.683 E25.98326
G1 X107.251 Y106.537 E26.00602
G0 F9000 X106.583 Y107.053
;TYPE:WALL-OUTER
G1 F1200 X106.594 Y106.950 E26.01845
G1 X106.672 Y106.691 E26.05091
G1 X106.795 Y106.461 E26.08221
G1 X106.970 Y106.249 E26.11519
G1 X107.182 Y106.081 E26.14765
G1 X107.418 Y105.961 E26.17942
G1 X107.662 Y105.891 E26.20989
G1 X108.282 Y105.863 E26.28436
G1 X108.637 Y105.864 E26.32696
G1 X108.666 Y105.863 E26.33044
G1 X109.366 Y105.869 E26.41445
G1 X109.760 Y105.868 E26.46173
G1 X110.100 Y105.869 E26.50253
G1 X110.493 Y105.868 E26.54969
G1 X110.834 Y105.869 E26.59061
G1 X111.227 Y105.868 E26.63777
G1 X111.567 Y105.869 E26.67857
G1 X111.960 Y105.868 E26.72573
G1 X112.300 Y105.869 E26.76653
G1 X112.693 Y105.868 E26.81369
G1 X113.034 Y105.869 E26.85461
G1 X113.742 Y105.864 E26.93957
G1 X113.784 Y105.863 E26.94461
G1 X114.140 Y105.864 E26.98733
G1 X114.153 Y105.863 E26.98890
G1 X114.680 Y105.882 E27.05218
G1 X114.950 Y105.942 E27.08537
