;FLAVOR:UltiGCode
;TIME:5858
;MATERIAL:7466
;MATERIAL2:0

;Generated with Cura_SteamEngine DEV
;LAYER_COUNT:138
;LAYER:0
M107
G0 F9000.000000 X87.331 Y85.104 Z0.300
G0 X89.708 Y83.924
;TYPE:SKIRT
G1 F900.000 X90.962 Y83.900 E0.15051
G1 X139.293 Y83.900 E5.95023
G1 X139.999 Y83.910 E6.03496
G1 X140.177 Y83.918 E6.05634
G1 X140.478 Y83.944 E6.09259
G1 X140.951 Y84.043 E6.15058
G1 X141.006 Y84.056 E6.15736
G1 X141.442 Y84.218 E6.21318
G1 X141.493 Y84.239 E6.21980
G1 X141.959 Y84.496 E6.28366
G1 X141.983 Y84.510 E6.28699
G1 X142.308 Y84.758 E6.33605
G1 X142.392 Y84.827 E6.34909
G1 X142.745 Y85.192 E6.41003
G1 X142.755 Y85.203 E6.41181
G1 X143.057 Y85.626 E6.47418
G1 X143.077 Y85.655 E6.47841
G1 X143.281 Y86.057 E6.53250
G1 X143.312 Y86.123 E6.54125
G1 X143.468 Y86.593 E6.60068
G1 X143.485 Y86.649 E6.60770
G1 X143.558 Y87.069 E6.65886
G1 X143.575 Y87.185 E6.67293
G1 X143.576 Y87.208 E6.67569
G1 X143.600 Y88.462 E6.82620
G1 X143.600 Y102.454 E8.50524
G1 X143.584 Y103.567 E8.63881
G1 X143.581 Y106.177 E8.95201
G1 X143.600 Y107.797 E9.14642
G1 X143.600 Y136.793 E12.62594
G1 X143.590 Y137.496 E12.71031
G1 X143.582 Y137.677 E12.73205
G1 X143.556 Y137.978 E12.76831
G1 X143.457 Y138.451 E12.82630
G1 X143.444 Y138.506 E12.83308
G1 X143.281 Y138.944 E12.88916
G1 X143.261 Y138.993 E12.89551
G1 X143.010 Y139.449 E12.95797
G1 X142.990 Y139.483 E12.96271
G1 X142.742 Y139.808 E13.01177
G1 X142.673 Y139.892 E13.02481
G1 X142.305 Y140.248 E13.08625
G1 X142.297 Y140.255 E13.08753
G1 X141.871 Y140.559 E13.15033
G1 X141.845 Y140.577 E13.15412
G1 X141.443 Y140.781 E13.20822
G1 X141.377 Y140.812 E13.21697
G1 X140.907 Y140.968 E13.27640
G1 X140.851 Y140.985 E13.28342
G1 X140.431 Y141.058 E13.33457
G1 X140.315 Y141.075 E13.34864
G1 X140.292 Y141.076 E13.35141
G1 X139.038 Y141.100 E13.50191
G1 X109.903 Y141.100 E16.99811
G1 X109.903 Y141.105 E16.99871
G1 X109.865 Y141.105 E17.00327
G1 X109.398 Y141.106 E17.05931
G1 X109.398 Y141.100 E17.06003
G1 X108.804 Y141.100 E17.13131
G1 X108.804 Y141.107 E17.13215
G1 X108.398 Y141.108 E17.18087
G1 X108.398 Y141.100 E17.18183
G1 X107.704 Y141.100 E17.26511
G1 X107.704 Y141.110 E17.26631
G1 X107.398 Y141.111 E17.30303
G1 X107.398 Y141.100 E17.30435
G1 X106.804 Y141.100 E17.37563
G1 X106.804 Y141.113 E17.37719
G1 X106.674 Y141.115 E17.39280
G1 X106.674 Y141.117 E17.39304
G1 X106.598 Y141.118 E17.40216
G1 X106.598 Y141.100 E17.40432
G1 X106.004 Y141.100 E17.47560
G1 X106.004 Y141.119 E17.47788
G1 X105.898 Y141.119 E17.49060
G1 X105.898 Y141.100 E17.49288
G1 X90.707 Y141.100 E19.31580
G1 X90.001 Y141.090 E19.40052
G1 X89.823 Y141.082 E19.42191
G1 X89.522 Y141.056 E19.45816
G1 X89.049 Y140.957 E19.51615
G1 X88.994 Y140.944 E19.52293
G1 X88.556 Y140.781 E19.57901
G1 X88.507 Y140.761 E19.58537
G1 X88.041 Y140.504 E19.64923
G1 X88.017 Y140.490 E19.65256
G1 X87.692 Y140.242 E19.70162
G1 X87.608 Y140.173 E19.71466
G1 X87.252 Y139.805 E19.77610
G1 X87.245 Y139.797 E19.77738
G1 X86.934 Y139.361 E19.84165
G1 X86.923 Y139.345 E19.84398
G1 X86.719 Y138.943 E19.89807
G1 X86.688 Y138.877 E19.90682
G1 X86.524 Y138.383 E19.96928
G1 X86.515 Y138.351 E19.97327
G1 X86.442 Y137.931 E20.02443
G1 X86.425 Y137.815 E20.03850
G1 X86.424 Y137.787 E20.04186
G1 X86.400 Y136.538 E20.19177
G1 X86.400 Y88.207 E25.99149
G1 X86.410 Y87.491 E26.07741
G1 X86.418 Y87.323 E26.09760
G1 X86.444 Y87.022 E26.13385
G1 X86.543 Y86.549 E26.19184
G1 X86.556 Y86.494 E26.19862
G1 X86.719 Y86.056 E26.25471
G1 X86.739 Y86.007 E26.26106
G1 X86.996 Y85.541 E26.32492
G1 X87.010 Y85.517 E26.32825
G1 X87.269 Y85.179 E26.37935
G1 X87.331 Y85.104 E26.39103
G1 X87.695 Y84.752 E26.45179
G1 X87.703 Y84.745 E26.45307
G1 X88.133 Y84.438 E26.51647
G1 X88.155 Y84.423 E26.51966
G1 X88.559 Y84.218 E26.57403
G1 X88.623 Y84.188 E26.58251
G1 X89.093 Y84.032 E26.64193
G1 X89.149 Y84.015 E26.64896
G1 X89.569 Y83.942 E26.70011
G1 X89.685 Y83.925 E26.71418
G1 X89.708 Y83.924 E26.71694
G0 F9000.00000 X90.457 Y84.300
G1 F900.000 X139.293 Y84.300 E32.57726
G1 X139.999 Y84.310 E32.66199
G1 X140.156 Y84.317 E32.68085
G1 X140.473 Y84.346 E32.71905
G1 X140.495 Y84.349 E32.72171
G1 X140.506 Y84.351 E32.72306
G1 X140.656 Y84.382 E32.74144
G1 X140.955 Y84.459 E32.77849
G1 X141.008 Y84.474 E32.78510
G1 X141.139 Y84.524 E32.80192
G1 X141.450 Y84.659 E32.84261
G1 X141.454 Y84.660 E32.84310
G1 X141.482 Y84.675 E32.84691
G1 X141.584 Y84.734 E32.86105
G1 X141.873 Y84.918 E32.90217
G1 X141.874 Y84.919 E32.90234
G1 X141.881 Y84.924 E32.90337
G1 X142.030 Y85.045 E32.92640
G1 X142.254 Y85.243 E32.96228
G1 X142.280 Y85.269 E32.96669
G1 X142.360 Y85.358 E32.98105
G1 X142.579 Y85.625 E33.02249
G1 X142.588 Y85.636 E33.02419
G1 X142.599 Y85.651 E33.02643
G1 X142.676 Y85.771 E33.04354
G1 X142.850 Y86.069 E33.08495
G1 X142.855 Y86.077 E33.08608
G1 X142.916 Y86.217 E33.10440
G1 X143.041 Y86.537 E33.14563
G1 X143.048 Y86.558 E33.14829
G1 X143.079 Y86.678 E33.16316
G1 X143.141 Y86.965 E33.19839
G1 X143.189 Y87.481 E33.26058
G1 X143.190 Y87.500 E33.26286
G1 X143.198 Y87.747 E33.29252
G1 X143.200 Y87.906 E33.31160
G1 X143.200 Y102.507 E35.06372
G1 X143.184 Y103.649 E35.20077
G1 X143.184 Y106.477 E35.54013
G1 X143.190 Y106.730 E35.57050
G1 X143.200 Y107.730 E35.69051
G1 X143.200 Y136.793 E39.17807
G1 X143.190 Y137.499 E39.26280
G1 X143.183 Y137.656 E39.28166
G1 X143.154 Y137.970 E39.31950
G1 X143.151 Y137.995 E39.32252
G1 X143.150 Y138.004 E39.32360
G1 X143.121 Y138.143 E39.34064
G1 X143.039 Y138.461 E39.38005
G1 X143.030 Y138.495 E39.38427
G1 X143.027 Y138.505 E39.38552
G1 X142.976 Y138.639 E39.40273
G1 X142.850 Y138.931 E39.44089
G1 X142.840 Y138.954 E39.44390
G1 X142.825 Y138.982 E39.44771
G1 X142.766 Y139.084 E39.46185
G1 X142.582 Y139.373 E39.50297
G1 X142.576 Y139.382 E39.50426
G1 X142.455 Y139.530 E39.52721
G1 X142.260 Y139.751 E39.56257
G1 X142.231 Y139.780 E39.56749
G1 X142.147 Y139.856 E39.58109
G1 X141.860 Y140.091 E39.62560
G1 X141.858 Y140.093 E39.62594
G1 X141.848 Y140.099 E39.62734
G1 X141.729 Y140.176 E39.64435
G1 X141.426 Y140.353 E39.68646
G1 X141.416 Y140.358 E39.68780
G1 X141.283 Y140.416 E39.70521
G1 X140.963 Y140.541 E39.74644
G1 X140.961 Y140.542 E39.74670
G1 X140.942 Y140.548 E39.74910
G1 X140.822 Y140.579 E39.76397
G1 X140.535 Y140.641 E39.79920
G1 X140.019 Y140.689 E39.86139
G1 X139.999 Y140.690 E39.86379
G1 X139.753 Y140.698 E39.89333
G1 X139.543 Y140.700 E39.91853
G1 X109.903 Y140.700 E43.47533
G1 X109.903 Y140.705 E43.47593
G1 X109.398 Y140.703 E43.53653
G1 X109.398 Y140.700 E43.53689
G1 X108.804 Y140.700 E43.60817
G1 X108.804 Y140.701 E43.60829
G1 X108.784 Y140.701 E43.61069
G1 X108.556 Y140.703 E43.63805
G1 X108.398 Y140.703 E43.65701
G1 X108.398 Y140.700 E43.65737
G1 X107.704 Y140.700 E43.74065
G1 X107.704 Y140.703 E43.74101
G1 X107.554 Y140.704 E43.75901
G1 X107.554 Y140.705 E43.75913
G1 X107.398 Y140.705 E43.77785
G1 X107.398 Y140.700 E43.77845
G1 X106.804 Y140.700 E43.84973
G1 X106.804 Y140.704 E43.85021
G1 X106.598 Y140.703 E43.87493
G1 X106.598 Y140.700 E43.87529
G1 X106.004 Y140.700 E43.94657
G1 X106.004 Y140.702 E43.94681
G1 X105.898 Y140.702 E43.95953
G1 X105.898 Y140.700 E43.95977
G1 X90.707 Y140.700 E45.78269
G1 X90.001 Y140.690 E45.86742
G1 X89.844 Y140.683 E45.88628
G1 X89.527 Y140.654 E45.92448
G1 X89.505 Y140.651 E45.92714
G1 X89.494 Y140.649 E45.92848
G1 X89.344 Y140.618 E45.94686
G1 X89.039 Y140.539 E45.98467
G1 X88.992 Y140.526 E45.99052
G1 X88.859 Y140.475 E46.00762
G1 X88.550 Y140.341 E46.04803
G1 X88.546 Y140.340 E46.04853
G1 X88.518 Y140.325 E46.05234
G1 X88.416 Y140.266 E46.06648
G1 X88.126 Y140.081 E46.10776
G1 X88.115 Y140.073 E46.10939
G1 X88.111 Y140.070 E46.10999
G1 X87.970 Y139.955 E46.13182
G1 X87.743 Y139.754 E46.16821
G1 X87.720 Y139.731 E46.17211
G1 X87.639 Y139.641 E46.18664
G1 X87.409 Y139.360 E46.23022
G1 X87.401 Y139.349 E46.23185
G1 X87.401 Y139.348 E46.23197
G1 X87.324 Y139.229 E46.24898
G1 X87.147 Y138.926 E46.29109
G1 X87.141 Y138.914 E46.29270
G1 X87.084 Y138.783 E46.30984
G1 X86.958 Y138.460 E46.35145
G1 X86.952 Y138.442 E46.35372
G1 X86.921 Y138.322 E46.36859
G1 X86.859 Y138.035 E46.40383
G1 X86.811 Y137.519 E46.46602
G1 X86.810 Y137.499 E46.46842
G1 X86.802 Y137.253 E46.49795
G1 X86.800 Y137.043 E46.52316
G1 X86.800 Y88.207 E52.38348
G1 X86.810 Y87.500 E52.46832
G1 X86.817 Y87.336 E52.48802
G1 X86.846 Y87.027 E52.52527
G1 X86.850 Y86.996 E52.52902
G1 X86.851 Y86.994 E52.52928
G1 X86.882 Y86.844 E52.54767
G1 X86.961 Y86.537 E52.58571
G1 X86.974 Y86.492 E52.59133
G1 X87.024 Y86.361 E52.60815
G1 X87.160 Y86.047 E52.64921
G1 X87.175 Y86.018 E52.65313
G1 X87.234 Y85.916 E52.66727
G1 X87.425 Y85.617 E52.70985
G1 X87.426 Y85.616 E52.71002
G1 X87.545 Y85.470 E52.73262
G1 X87.743 Y85.246 E52.76850
G1 X87.770 Y85.219 E52.77308
G1 X87.860 Y85.138 E52.78761
G1 X88.140 Y84.909 E52.83101
G1 X88.142 Y84.907 E52.83135
G1 X88.152 Y84.901 E52.83275
G1 X88.271 Y84.824 E52.84976
G1 X88.574 Y84.647 E52.89187
G1 X88.589 Y84.640 E52.89386
G1 X88.717 Y84.584 E52.91062
G1 X89.040 Y84.458 E52.95223
G1 X89.058 Y84.452 E52.95451
G1 X89.178 Y84.421 E52.96938
G1 X89.465 Y84.359 E53.00461
G1 X89.981 Y84.311 E53.06680
G1 X90.001 Y84.310 E53.06920
G1 X90.247 Y84.302 E53.09874
G1 X90.457 Y84.300 E53.12394
G10
G0 F9000.00000 X90.518 Y85.958
G0 X90.628 Y88.128
G0 X90.670 Y88.170
G0 X90.600 Y88.100
;TYPE:WALL-INNER
G11
G1 F900.000 X139.400 Y88.100 E58.97994
G1 X139.400 Y102.875 E60.75294
G1 X137.786 Y103.965 E60.98665
G1 X136.847 Y104.379 E61.10980
G1 X136.502 Y104.426 E61.15158
G1 X136.152 Y104.377 E61.19399
G1 X135.994 Y104.282 E61.21611
G1 X135.249 Y103.934 E61.31478
G1 X133.839 Y102.914 E61.52361
G1 X133.593 Y102.762 E61.55832
G1 X133.192 Y102.487 E61.61666
G1 X132.339 Y102.087 E61.72972
G1 X132.152 Y102.014 E61.75381
G1 X131.500 Y101.924 E61.83279
G1 X130.813 Y102.021 E61.91605
G1 X129.829 Y102.442 E62.04448
G1 X128.770 Y103.109 E62.19467
G1 X127.432 Y104.018 E62.38878
G1 X126.708 Y104.387 E62.48629
G1 X126.508 Y104.422 E62.51065
G1 X126.411 Y104.403 E62.52251
G1 X125.933 Y103.967 E62.60015
G1 X125.725 Y103.647 E62.64595
G1 X125.106 Y102.642 E62.78759
G1 X124.695 Y102.201 E62.85993
G1 X124.536 Y102.060 E62.88543
G1 X124.004 Y101.906 E62.95189
G1 X123.446 Y102.060 E63.02136
G1 X123.208 Y102.286 E63.06074
G1 X122.674 Y102.841 E63.15316
G1 X121.706 Y104.194 E63.35280
G1 X121.507 Y104.376 E63.38516
G1 X121.111 Y103.965 E63.45365
G1 X120.481 Y103.050 E63.58696
G1 X120.346 Y102.884 E63.61263
G1 X120.145 Y102.610 E63.65341
G1 X119.695 Y102.185 E63.72769
G1 X119.525 Y102.052 E63.75359
G1 X119.000 Y101.909 E63.81888
G1 X118.446 Y102.060 E63.88779
G1 X118.215 Y102.278 E63.92590
G1 X117.690 Y102.818 E64.01628
G1 X117.165 Y103.573 E64.12663
G1 X116.681 Y104.223 E64.22388
G1 X116.508 Y104.378 E64.25175
G1 X116.110 Y103.965 E64.32058
G1 X115.481 Y103.050 E64.45382
G1 X115.346 Y102.884 E64.47950
G1 X115.145 Y102.610 E64.52028
G1 X114.695 Y102.185 E64.59455
G1 X114.525 Y102.052 E64.62045
G1 X114.000 Y101.909 E64.68575
G1 X113.447 Y102.060 E64.75454
G1 X113.210 Y102.284 E64.79367
G1 X112.688 Y102.821 E64.88354
G1 X112.020 Y103.773 E65.02310
G1 X111.683 Y104.220 E65.09027
G1 X111.492 Y104.389 E65.12088
G1 X111.017 Y103.987 E65.19555
G1 X110.359 Y103.188 E65.31976
G1 X109.173 Y101.691 E65.54894
G1 X108.296 Y102.276 E65.67545
G1 X108.665 Y103.480 E65.82656
G1 X108.773 Y103.793 E65.86629
G1 X109.853 Y106.233 E66.18649
G1 X110.414 Y107.220 E66.32273
G1 X110.787 Y107.718 E66.39739
G1 X111.260 Y108.116 E66.47157
G1 X111.906 Y108.170 E66.54936
G1 X112.421 Y107.830 E66.62342
G1 X112.908 Y107.184 E66.72050
G1 X113.407 Y106.345 E66.83764
G1 X113.820 Y105.760 E66.92357
G1 X114.205 Y106.556 E67.02968
G1 X114.568 Y107.573 E67.15926
G1 X115.240 Y109.362 E67.38858
G1 X115.817 Y110.360 E67.52692
G1 X116.500 Y110.710 E67.61901
G1 X117.181 Y110.359 E67.71095
G1 X117.792 Y109.292 E67.85850
G1 X118.457 Y107.502 E68.08764
G1 X118.842 Y106.440 E68.22320
G1 X119.202 Y105.711 E68.32076
G1 X119.514 Y106.089 E68.37958
G1 X120.273 Y107.282 E68.54926
G1 X120.918 Y107.975 E68.66286
G1 X121.491 Y108.161 E68.73515
G1 X122.065 Y107.993 E68.80692
G1 X122.653 Y107.357 E68.91086
G1 X123.226 Y106.396 E69.04513
G1 X123.306 Y106.297 E69.06040
G1 X123.547 Y105.947 E69.11139
G1 X123.909 Y105.662 E69.16668
G1 X124.009 Y105.642 E69.17892
G1 X124.247 Y105.682 E69.20788
G1 X124.426 Y105.784 E69.23260
G1 X125.171 Y106.138 E69.33158
G1 X127.390 Y107.559 E69.64778
G1 X128.409 Y108.042 E69.78310
G1 X129.010 Y108.142 E69.85621
G1 X129.613 Y108.024 E69.92995
G1 X130.384 Y107.402 E70.04882
G1 X131.040 Y106.400 E70.19254
G1 X131.343 Y105.895 E70.26321
G1 X131.515 Y105.713 E70.29326
G1 X131.730 Y105.913 E70.32849
G1 X132.599 Y107.186 E70.51345
G1 X132.989 Y107.603 E70.58197
G1 X133.452 Y107.920 E70.64930
G1 X133.632 Y108.027 E70.67443
G1 X133.776 Y108.065 E70.69230
G1 X134.256 Y108.231 E70.75325
G1 X135.529 Y108.415 E70.90760
G1 X135.991 Y108.411 E70.96304
G1 X136.812 Y108.430 E71.06159
G1 X137.701 Y108.367 E71.16853
G1 X138.843 Y108.182 E71.30736
G1 X139.400 Y108.029 E71.37668
G1 X139.400 Y136.900 E74.84120
G1 X112.981 Y136.900 E78.01148
G1 X112.981 Y136.284 E78.08540
G1 X114.699 Y136.284 E78.29156
G1 X114.699 Y134.378 E78.52028
G1 X114.547 Y134.378 E78.53852
G1 X114.443 Y134.194 E78.56388
G1 X114.599 Y133.939 E78.59975
G1 X114.708 Y133.545 E78.64881
G1 X114.742 Y133.146 E78.69686
G1 X114.654 Y132.383 E78.78903
G1 X114.699 Y132.383 E78.79443
G1 X114.699 Y127.646 E79.36287
G1 X112.981 Y127.646 E79.56903
G1 X112.981 Y127.280 E79.61295
G1 X114.680 Y126.648 E79.83048
G1 X114.680 Y124.919 E80.03796
G1 X114.700 Y124.919 E80.04036
G1 X114.700 Y118.101 E80.85852
G1 X114.520 Y118.101 E80.88012
G1 X114.416 Y117.920 E80.90517
G1 X114.614 Y117.579 E80.95248
G1 X114.712 Y117.232 E80.99575
G1 X114.742 Y116.870 E81.03934
G1 X114.704 Y116.432 E81.09210
G1 X114.568 Y116.000 E81.14645
G1 X114.318 Y115.646 E81.19845
G1 X113.975 Y115.371 E81.25121
G1 X113.522 Y115.183 E81.31006
G1 X112.983 Y115.121 E81.37517
G1 X112.315 Y115.226 E81.45631
G1 X111.985 Y115.389 E81.50048
G1 X111.733 Y115.587 E81.53894
G1 X111.516 Y115.856 E81.58041
G1 X111.357 Y116.187 E81.62448
G1 X111.257 Y116.826 E81.70209
G1 X111.300 Y117.216 E81.74917
G1 X111.300 Y119.449 E82.01713
G1 X111.027 Y119.517 E82.05090
G1 X110.937 Y119.347 E82.07398
G1 X107.892 Y119.776 E82.44299
G1 X106.356 Y117.113 E82.81189
G1 X105.528 Y117.256 E82.91272
G1 X104.993 Y120.286 E83.28195
G1 X101.985 Y120.925 E83.65096
G1 X101.869 Y121.758 E83.75189
G1 X104.584 Y123.200 E84.12079
G1 X104.262 Y126.256 E84.48954
G1 X105.018 Y126.625 E84.59049
G1 X105.078 Y126.566 E84.60059
G1 X105.298 Y126.659 E84.62925
G1 X105.298 Y136.900 E85.85817
G1 X97.565 Y136.900 E86.78613
G1 X97.493 Y136.633 E86.81931
G1 X100.803 Y134.721 E87.27802
G1 X100.803 Y129.976 E87.84742
G1 X96.694 Y127.603 E88.41682
G1 X92.582 Y129.975 E88.98647
G1 X92.582 Y134.721 E89.55599
G1 X95.894 Y136.633 E90.01490
G1 X95.822 Y136.900 E90.04809
G1 X90.600 Y136.900 E90.67473
G1 X90.600 Y103.878 E94.63737
G1 X90.913 Y103.837 E94.67525
G1 X91.161 Y104.763 E94.79029
G1 X91.935 Y105.539 E94.92181
G1 X93.000 Y105.825 E95.05414
G1 X94.066 Y105.539 E95.18658
G1 X94.840 Y104.763 E95.31810
G1 X95.113 Y103.746 E95.44446
G1 X95.389 Y103.746 E95.47758
G1 X95.728 Y105.013 E95.63497
G1 X96.686 Y105.973 E95.79772
G1 X98.000 Y106.325 E95.96096
G1 X99.315 Y105.973 E96.12431
G1 X100.273 Y105.013 E96.28706
G1 X100.612 Y103.747 E96.44433
G1 X100.888 Y103.747 E96.47745
G1 X101.296 Y105.263 E96.66585
G1 X102.436 Y106.406 E96.85957
G1 X103.999 Y106.825 E97.05375
G1 X105.564 Y106.406 E97.24816
G1 X106.706 Y105.264 E97.44197
G1 X107.124 Y103.700 E97.63623
G1 X106.706 Y102.139 E97.83015
G1 X105.564 Y100.995 E98.02413
G1 X104.000 Y100.577 E98.21839
G1 X102.437 Y100.994 E98.41251
G1 X101.296 Y102.140 E98.60657
G1 X100.888 Y103.653 E98.79462
G1 X100.612 Y103.653 E98.82774
G1 X100.273 Y102.389 E98.98478
G1 X99.316 Y101.429 E99.14744
G1 X98.000 Y101.076 E99.31094
G1 X96.685 Y101.429 E99.47433
G1 X95.728 Y102.389 E99.63699
G1 X95.389 Y103.654 E99.79415
G1 X95.113 Y103.654 E99.82727
G1 X94.840 Y102.640 E99.95328
G1 X94.064 Y101.860 E100.08531
