;FLAVOR:UltiGCode
;TIME:2124
;MATERIAL:3040
;MATERIAL2:0

;Generated with Cura_SteamEngine DEV
;LAYER_COUNT:336
;LAYER:0
M107
G0 F9000.000000 X103.842 Y102.890 Z0.300
G0 X107.690 Y101.296
;TYPE:SKIRT
G1 F900.000 X108.771 Y101.265 E0.12977
G1 X109.053 Y101.264 E0.16361
G1 X113.187 Y101.269 E0.65969
G1 X114.328 Y101.266 E0.79661
G1 X114.328 Y101.258 E0.79757
G1 X115.321 Y101.253 E0.91674
G1 X115.321 Y101.269 E0.91866
G1 X116.601 Y101.264 E1.07226
G1 X120.772 Y101.268 E1.57278
G1 X121.388 Y101.266 E1.64670
G1 X121.617 Y101.268 E1.67418
G1 X122.302 Y101.293 E1.75643
G1 X122.721 Y101.324 E1.80685
G1 X123.484 Y101.458 E1.89981
G1 X123.876 Y101.567 E1.94864
G1 X124.594 Y101.845 E2.04103
G1 X124.760 Y101.917 E2.06274
G1 X124.832 Y101.953 E2.07240
G1 X125.014 Y102.053 E2.09732
G1 X125.271 Y102.215 E2.13378
G1 X125.755 Y102.551 E2.20448
G1 X125.760 Y102.554 E2.20518
G1 X125.815 Y102.597 E2.21356
G1 X126.380 Y103.113 E2.30538
G1 X126.410 Y103.142 E2.31039
G1 X126.430 Y103.163 E2.31387
G1 X126.809 Y103.623 E2.38539
G1 X126.819 Y103.635 E2.38726
G1 X126.833 Y103.654 E2.39009
G1 X126.982 Y103.871 E2.42168
G1 X127.297 Y104.376 E2.49311
G1 X127.306 Y104.391 E2.49520
G1 X127.339 Y104.450 E2.50332
G1 X127.365 Y104.504 E2.51051
G1 X127.684 Y105.271 E2.61019
G1 X127.689 Y105.284 E2.61186
G1 X127.821 Y105.715 E2.66595
G1 X127.930 Y106.249 E2.73136
G1 X127.959 Y106.420 E2.75217
G1 X128.007 Y106.851 E2.80421
G1 X128.012 Y106.921 E2.81263
G1 X128.033 Y107.541 E2.88707
G1 X128.036 Y108.281 E2.97587
G1 X128.031 Y116.172 E3.92279
G1 X128.034 Y117.067 E4.03019
G1 X128.033 Y117.262 E4.05359
G1 X128.008 Y117.966 E4.13813
G1 X127.973 Y118.435 E4.19456
G1 X127.841 Y119.190 E4.28654
G1 X127.734 Y119.574 E4.33437
G1 X127.455 Y120.293 E4.42692
G1 X127.385 Y120.456 E4.44821
G1 X127.347 Y120.532 E4.45841
G1 X127.247 Y120.714 E4.48333
G1 X127.085 Y120.971 E4.51978
G1 X126.749 Y121.455 E4.59048
G1 X126.746 Y121.460 E4.59118
G1 X126.703 Y121.515 E4.59956
G1 X126.187 Y122.080 E4.69138
G1 X126.158 Y122.110 E4.69639
G1 X126.137 Y122.130 E4.69987
G1 X125.677 Y122.509 E4.77139
G1 X125.649 Y122.531 E4.77566
G1 X125.646 Y122.533 E4.77610
G1 X125.423 Y122.686 E4.80855
G1 X124.924 Y122.997 E4.87911
G1 X124.904 Y123.009 E4.88191
G1 X124.850 Y123.039 E4.88932
G1 X124.796 Y123.065 E4.89651
G1 X124.029 Y123.384 E4.99619
G1 X124.016 Y123.389 E4.99787
G1 X123.594 Y123.518 E5.05082
G1 X123.031 Y123.633 E5.11977
G1 X122.868 Y123.661 E5.13962
G1 X122.436 Y123.708 E5.19177
G1 X122.385 Y123.712 E5.19791
G1 X121.772 Y123.733 E5.27151
G1 X121.006 Y123.736 E5.36343
G1 X116.841 Y123.731 E5.86323
G1 X115.607 Y123.733 E6.01131
G1 X115.607 Y123.747 E6.01299
G1 X114.751 Y123.750 E6.11571
G1 X114.751 Y123.729 E6.11823
G1 X113.332 Y123.737 E6.28851
G1 X109.029 Y123.732 E6.80487
G1 X108.712 Y123.733 E6.84291
G1 X108.367 Y123.731 E6.88431
G1 X107.701 Y123.707 E6.96429
G1 X107.277 Y123.675 E7.01531
G1 X106.510 Y123.541 E7.10875
G1 X106.126 Y123.434 E7.15658
G1 X105.406 Y123.155 E7.24924
G1 X105.240 Y123.083 E7.27095
G1 X105.168 Y123.047 E7.28061
G1 X104.986 Y122.947 E7.30553
G1 X104.729 Y122.785 E7.34199
G1 X104.245 Y122.449 E7.41269
G1 X104.240 Y122.446 E7.41339
G1 X104.185 Y122.403 E7.42177
G1 X103.620 Y121.887 E7.51359
G1 X103.582 Y121.850 E7.51995
G1 X103.570 Y121.837 E7.52208
G1 X103.181 Y121.365 E7.59547
G1 X103.169 Y121.349 E7.59787
G1 X103.164 Y121.342 E7.59891
G1 X103.014 Y121.123 E7.63076
G1 X102.703 Y120.624 E7.70132
G1 X102.688 Y120.600 E7.70471
G1 X102.661 Y120.550 E7.71153
G1 X102.635 Y120.496 E7.71872
G1 X102.316 Y119.729 E7.81841
G1 X102.311 Y119.716 E7.82008
G1 X102.179 Y119.285 E7.87417
G1 X102.070 Y118.751 E7.93957
G1 X102.041 Y118.580 E7.96038
G1 X102.029 Y118.474 E7.97319
G1 X101.995 Y117.996 E8.03069
G1 X101.964 Y116.877 E8.16502
G1 X101.963 Y116.619 E8.19598
G1 X101.968 Y108.394 E9.18298
G1 X101.966 Y107.890 E9.24346
G1 X101.967 Y107.767 E9.25822
G1 X101.993 Y107.012 E9.34888
G1 X102.027 Y106.563 E9.40291
G1 X102.159 Y105.810 E9.49465
G1 X102.266 Y105.426 E9.54249
G1 X102.545 Y104.706 E9.63515
G1 X102.617 Y104.540 E9.65686
G1 X102.653 Y104.468 E9.66652
G1 X102.753 Y104.286 E9.69144
G1 X102.916 Y104.028 E9.72806
G1 X103.256 Y103.538 E9.79963
G1 X103.271 Y103.518 E9.80263
G1 X103.297 Y103.485 E9.80767
G1 X103.813 Y102.920 E9.89949
G1 X103.842 Y102.890 E9.90450
G1 X103.865 Y102.868 E9.90832
G1 X104.323 Y102.491 E9.97950
G1 X104.351 Y102.469 E9.98377
G1 X104.354 Y102.467 E9.98421
G1 X104.577 Y102.314 E10.01666
G1 X105.076 Y102.003 E10.08722
G1 X105.100 Y101.988 E10.09061
G1 X105.150 Y101.961 E10.09743
G1 X105.204 Y101.935 E10.10462
G1 X105.971 Y101.616 E10.20431
G1 X105.984 Y101.611 E10.20598
G1 X106.415 Y101.479 E10.26007
G1 X106.949 Y101.370 E10.32547
G1 X107.120 Y101.341 E10.34628
G1 X107.243 Y101.327 E10.36114
G1 X107.690 Y101.296 E10.41491
G0 F9000.00000 X109.065 Y101.663
G1 F900.000 X113.196 Y101.668 E10.91063
G1 X114.325 Y101.664 E11.04611
G1 X114.325 Y101.663 E11.04623
G1 X115.322 Y101.664 E11.16587
G1 X115.322 Y101.669 E11.16647
G1 X116.604 Y101.664 E11.32031
G1 X120.982 Y101.668 E11.84567
G1 X121.322 Y101.667 E11.88647
G1 X121.700 Y101.669 E11.93183
G1 X122.226 Y101.689 E11.99500
G1 X122.819 Y101.733 E12.06635
G1 X123.037 Y101.770 E12.09289
G1 X123.357 Y101.837 E12.13212
G1 X123.886 Y101.985 E12.19804
G1 X124.086 Y102.061 E12.22371
G1 X124.558 Y102.264 E12.28537
G1 X124.654 Y102.312 E12.29825
G1 X124.825 Y102.406 E12.32166
G1 X125.068 Y102.559 E12.35612
G1 X125.489 Y102.851 E12.41760
G1 X125.529 Y102.880 E12.42353
G1 X125.572 Y102.913 E12.43004
G1 X125.732 Y103.050 E12.45531
G1 X125.741 Y103.058 E12.45676
G1 X125.895 Y103.206 E12.48239
G1 X125.940 Y103.250 E12.48994
G1 X126.324 Y103.654 E12.55683
G1 X126.362 Y103.699 E12.56390
G1 X126.506 Y103.884 E12.59203
G1 X126.520 Y103.903 E12.59486
G1 X126.657 Y104.102 E12.62385
G1 X126.937 Y104.552 E12.68745
G1 X126.940 Y104.558 E12.68826
G1 X126.991 Y104.650 E12.70088
G1 X127.011 Y104.691 E12.70635
G1 X127.303 Y105.394 E12.79770
G1 X127.305 Y105.398 E12.79824
G1 X127.433 Y105.817 E12.85081
G1 X127.543 Y106.356 E12.91683
G1 X127.562 Y106.466 E12.93022
G1 X127.575 Y106.583 E12.94435
G1 X127.625 Y107.306 E13.03131
G1 X127.631 Y107.474 E13.05149
G1 X127.633 Y107.584 E13.06469
G1 X127.636 Y108.281 E13.14833
G1 X127.632 Y116.476 E14.13173
G1 X127.634 Y117.058 E14.20157
G1 X127.633 Y117.242 E14.22365
G1 X127.605 Y118.023 E14.31743
G1 X127.568 Y118.512 E14.37628
G1 X127.530 Y118.741 E14.40413
G1 X127.460 Y119.070 E14.44450
G1 X127.318 Y119.578 E14.50780
G1 X127.239 Y119.786 E14.53450
G1 X127.036 Y120.258 E14.59615
G1 X126.988 Y120.354 E14.60903
G1 X126.894 Y120.525 E14.63245
G1 X126.743 Y120.765 E14.66647
G1 X126.446 Y121.193 E14.72899
G1 X126.420 Y121.229 E14.73432
G1 X126.390 Y121.268 E14.74022
G1 X126.258 Y121.423 E14.76465
G1 X126.242 Y121.441 E14.76754
G1 X126.094 Y121.595 E14.79317
G1 X126.054 Y121.636 E14.80005
G1 X125.649 Y122.022 E14.86718
G1 X125.601 Y122.062 E14.87468
G1 X125.400 Y122.218 E14.90521
G1 X125.397 Y122.220 E14.90565
G1 X125.198 Y122.357 E14.93464
G1 X124.748 Y122.637 E14.99824
G1 X124.740 Y122.641 E14.99931
G1 X124.650 Y122.691 E15.01167
G1 X124.609 Y122.711 E15.01714
G1 X123.909 Y123.002 E15.10811
G1 X123.902 Y123.005 E15.10902
G1 X123.475 Y123.136 E15.16262
G1 X122.959 Y123.241 E15.22581
G1 X122.837 Y123.262 E15.24067
G1 X122.495 Y123.300 E15.28196
G1 X121.141 Y123.335 E15.44449
G1 X121.006 Y123.336 E15.46069
G1 X116.840 Y123.331 E15.96061
G1 X115.622 Y123.333 E16.10677
G1 X115.622 Y123.345 E16.10821
G1 X114.752 Y123.347 E16.21261
G1 X114.752 Y123.329 E16.21477
G1 X113.333 Y123.337 E16.38506
G1 X109.026 Y123.332 E16.90190
G1 X108.717 Y123.333 E16.93898
G1 X108.332 Y123.331 E16.98518
G1 X107.792 Y123.312 E17.05002
G1 X107.168 Y123.265 E17.12511
G1 X106.959 Y123.230 E17.15054
G1 X106.630 Y123.160 E17.19090
G1 X106.122 Y123.018 E17.25420
G1 X105.914 Y122.939 E17.28090
G1 X105.442 Y122.736 E17.34256
G1 X105.346 Y122.688 E17.35543
G1 X105.175 Y122.594 E17.37885
G1 X104.932 Y122.441 E17.41331
G1 X104.507 Y122.146 E17.47539
G1 X104.471 Y122.120 E17.48072
G1 X104.428 Y122.087 E17.48722
G1 X104.261 Y121.944 E17.51361
G1 X104.259 Y121.942 E17.51395
G1 X104.099 Y121.789 E17.54051
G1 X104.059 Y121.749 E17.54730
G1 X103.676 Y121.346 E17.61402
G1 X103.636 Y121.299 E17.62142
G1 X103.482 Y121.100 E17.65162
G1 X103.470 Y121.083 E17.65412
G1 X103.338 Y120.890 E17.68217
G1 X103.060 Y120.442 E17.74544
G1 X103.059 Y120.440 E17.74571
G1 X103.009 Y120.350 E17.75807
G1 X102.989 Y120.309 E17.76354
G1 X102.697 Y119.606 E17.85489
G1 X102.695 Y119.602 E17.85543
G1 X102.567 Y119.183 E17.90800
G1 X102.457 Y118.644 E17.97401
G1 X102.438 Y118.534 E17.98741
G1 X102.423 Y118.391 E18.00466
G1 X102.375 Y117.718 E18.08563
G1 X102.368 Y117.521 E18.10928
G1 X102.363 Y116.615 E18.21800
G1 X102.368 Y108.548 E19.18604
G1 X102.365 Y107.917 E19.26176
G1 X102.366 Y107.792 E19.27677
G1 X102.396 Y106.961 E19.37655
G1 X102.432 Y106.488 E19.43347
G1 X102.470 Y106.259 E19.46133
G1 X102.540 Y105.930 E19.50169
G1 X102.682 Y105.422 E19.56499
G1 X102.761 Y105.214 E19.59169
G1 X102.968 Y104.733 E19.65453
G1 X103.012 Y104.646 E19.66623
G1 X103.109 Y104.470 E19.69034
G1 X103.259 Y104.232 E19.72410
G1 X103.554 Y103.807 E19.78618
G1 X103.580 Y103.771 E19.79151
G1 X103.615 Y103.726 E19.79835
G1 X103.759 Y103.558 E19.82491
G1 X103.906 Y103.405 E19.85037
G1 X103.950 Y103.360 E19.85792
G1 X104.355 Y102.975 E19.92497
G1 X104.399 Y102.938 E19.93187
G1 X104.600 Y102.782 E19.96241
G1 X104.603 Y102.780 E19.96284
G1 X104.806 Y102.641 E19.99236
G1 X105.252 Y102.363 E20.05543
G1 X105.270 Y102.353 E20.05790
G1 X105.350 Y102.309 E20.06885
G1 X105.391 Y102.289 E20.07433
G1 X106.094 Y101.997 E20.16568
G1 X106.098 Y101.995 E20.16621
G1 X106.517 Y101.867 E20.21879
G1 X107.056 Y101.757 E20.28480
G1 X107.166 Y101.738 E20.29820
G1 X107.313 Y101.722 E20.31594
G1 X107.960 Y101.676 E20.39378
G1 X108.168 Y101.668 E20.41875
G1 X109.065 Y101.663 E20.52640
G0 F9000.00000 X109.069 Y102.063
G1 F900.000 X113.393 Y102.068 E21.04528
G1 X114.288 Y102.065 E21.15268
G1 X115.322 Y102.066 E21.27676
G1 X115.322 Y102.069 E21.27712
G1 X116.603 Y102.064 E21.43084
G1 X120.981 Y102.068 E21.95620
G1 X121.316 Y102.067 E21.99640
G1 X121.708 Y102.070 E22.04344
G1 X122.168 Y102.086 E22.09867
G1 X122.787 Y102.132 E22.17316
G1 X122.973 Y102.163 E22.19579
G1 X123.243 Y102.221 E22.22892
G1 X123.650 Y102.334 E22.27961
G1 X124.308 Y102.589 E22.36429
G1 X124.371 Y102.616 E22.37252
G1 X124.459 Y102.660 E22.38433
G1 X124.637 Y102.758 E22.40871
G1 X124.852 Y102.893 E22.43917
G1 X125.242 Y103.164 E22.49616
G1 X125.329 Y103.232 E22.50941
G1 X125.477 Y103.358 E22.53274
G1 X125.486 Y103.366 E22.53418
G1 X125.643 Y103.516 E22.56024
G1 X125.999 Y103.889 E22.62211
G1 X126.060 Y103.962 E22.63353
G1 X126.193 Y104.133 E22.65953
G1 X126.207 Y104.152 E22.66236
G1 X126.335 Y104.339 E22.68955
G1 X126.580 Y104.731 E22.74502
G1 X126.593 Y104.754 E22.74819
G1 X126.628 Y104.817 E22.75684
G1 X126.654 Y104.871 E22.76403
G1 X126.927 Y105.528 E22.84941
G1 X127.048 Y105.922 E22.89887
G1 X127.152 Y106.430 E22.96109
G1 X127.162 Y106.493 E22.96875
G1 X127.210 Y106.928 E23.02126
G1 X127.214 Y106.979 E23.02740
G1 X127.233 Y107.516 E23.09188
G1 X127.236 Y108.279 E23.18344
G1 X127.232 Y116.475 E24.16696
G1 X127.234 Y117.058 E24.23692
G1 X127.233 Y117.233 E24.25793
G1 X127.206 Y118.000 E24.35002
G1 X127.170 Y118.476 E24.40731
G1 X127.136 Y118.680 E24.43212
G1 X127.078 Y118.954 E24.46573
G1 X126.970 Y119.339 E24.51371
G1 X126.714 Y120.001 E24.59889
G1 X126.684 Y120.071 E24.60803
G1 X126.640 Y120.159 E24.61983
G1 X126.542 Y120.337 E24.64422
G1 X126.407 Y120.551 E24.67458
G1 X126.136 Y120.941 E24.73157
G1 X126.136 Y120.942 E24.73169
G1 X126.062 Y121.037 E24.74614
G1 X125.936 Y121.184 E24.76937
G1 X125.934 Y121.186 E24.76971
G1 X125.779 Y121.348 E24.79662
G1 X125.411 Y121.699 E24.85764
G1 X125.341 Y121.758 E24.86863
G1 X125.151 Y121.905 E24.89746
G1 X125.148 Y121.907 E24.89789
G1 X124.961 Y122.035 E24.92508
G1 X124.572 Y122.278 E24.98012
G1 X124.557 Y122.287 E24.98222
G1 X124.483 Y122.328 E24.99237
G1 X124.429 Y122.354 E24.99956
G1 X123.772 Y122.627 E25.08494
G1 X123.372 Y122.750 E25.13516
G1 X122.898 Y122.846 E25.19319
G1 X122.795 Y122.864 E25.20574
G1 X122.690 Y122.876 E25.21842
G1 X121.965 Y122.926 E25.30563
G1 X121.796 Y122.932 E25.32592
G1 X121.729 Y122.933 E25.33396
G1 X121.007 Y122.936 E25.42060
G1 X116.833 Y122.931 E25.92148
G1 X115.628 Y122.934 E26.06608
G1 X115.628 Y122.939 E26.06668
G1 X114.752 Y122.938 E26.17180
G1 X114.752 Y122.929 E26.17288
G1 X113.333 Y122.937 E26.34317
G1 X109.025 Y122.932 E26.86013
G1 X108.723 Y122.933 E26.89637
G1 X108.315 Y122.931 E26.94533
G1 X107.531 Y122.903 E27.03947
G1 X107.471 Y122.899 E27.04668
G1 X107.272 Y122.877 E27.07071
G1 X107.255 Y122.875 E27.07276
G1 X107.020 Y122.836 E27.10135
G1 X106.746 Y122.778 E27.13496
G1 X106.359 Y122.669 E27.18320
G1 X105.685 Y122.408 E27.26994
G1 X105.629 Y122.384 E27.27725
G1 X105.541 Y122.340 E27.28905
G1 X105.360 Y122.240 E27.31387
G1 X105.148 Y122.107 E27.34390
G1 X104.759 Y121.836 E27.40079
G1 X104.758 Y121.836 E27.40091
G1 X104.659 Y121.758 E27.41604
G1 X104.516 Y121.636 E27.43859
G1 X104.514 Y121.634 E27.43893
G1 X104.352 Y121.479 E27.46584
G1 X104.001 Y121.111 E27.52686
G1 X103.940 Y121.038 E27.53828
G1 X103.795 Y120.851 E27.56667
G1 X103.793 Y120.848 E27.56711
G1 X103.665 Y120.661 E27.59430
G1 X103.420 Y120.269 E27.64977
G1 X103.407 Y120.246 E27.65294
G1 X103.367 Y120.173 E27.66293
G1 X103.342 Y120.121 E27.66986
G1 X103.073 Y119.472 E27.75416
G1 X102.952 Y119.078 E27.80362
G1 X102.848 Y118.570 E27.86584
G1 X102.838 Y118.507 E27.87350
G1 X102.823 Y118.374 E27.88956
G1 X102.773 Y117.666 E27.97473
G1 X102.767 Y117.510 E27.99347
G1 X102.763 Y116.609 E28.10159
G1 X102.768 Y108.548 E29.06891
G1 X102.765 Y107.933 E29.14271
G1 X102.766 Y107.805 E29.15807
G1 X102.794 Y107.008 E29.25377
G1 X102.831 Y106.516 E29.31297
G1 X102.866 Y106.312 E29.33781
G1 X102.922 Y106.046 E29.37043
G1 X103.031 Y105.659 E29.41868
G1 X103.290 Y104.989 E29.50488
G1 X103.316 Y104.929 E29.51272
G1 X103.360 Y104.841 E29.52453
G1 X103.458 Y104.663 E29.54891
G1 X103.593 Y104.448 E29.57938
G1 X103.864 Y104.059 E29.63627
G1 X103.872 Y104.048 E29.63790
G1 X103.945 Y103.955 E29.65209
G1 X104.065 Y103.815 E29.67421
G1 X104.223 Y103.650 E29.70163
G1 X104.589 Y103.301 E29.76232
G1 X104.662 Y103.240 E29.77373
G1 X104.849 Y103.095 E29.80213
G1 X104.852 Y103.093 E29.80256
G1 X105.039 Y102.965 E29.82975
G1 X105.443 Y102.713 E29.88689
G1 X105.459 Y102.704 E29.88909
G1 X105.517 Y102.672 E29.89704
G1 X105.571 Y102.646 E29.90423
G1 X106.228 Y102.373 E29.98961
G1 X106.622 Y102.252 E30.03907
G1 X107.130 Y102.148 E30.10129
G1 X107.193 Y102.138 E30.10895
G1 X107.340 Y102.121 E30.12671
G1 X108.003 Y102.075 E30.20646
G1 X108.182 Y102.068 E30.22795
G1 X109.069 Y102.063 E30.33440
G0 F9000.00000 X109.068 Y102.463
G1 F900.000 X113.395 Y102.468 E30.85364
G1 X114.276 Y102.465 E30.95936
G1 X114.276 Y102.463 E30.95960
G1 X115.324 Y102.464 E31.08536
G1 X115.324 Y102.469 E31.08596
G1 X116.603 Y102.464 E31.23944
G1 X120.788 Y102.468 E31.74164
G1 X122.399 Y102.495 E31.93499
G1 X122.534 Y102.506 E31.95124
G1 X123.278 Y102.635 E32.04185
G1 X123.338 Y102.650 E32.04927
G1 X123.393 Y102.664 E32.05608
G1 X123.427 Y102.675 E32.06037
G1 X124.146 Y102.954 E32.15292
G1 X124.198 Y102.977 E32.15974
G1 X124.261 Y103.008 E32.16817
G1 X124.448 Y103.111 E32.19379
G1 X124.646 Y103.236 E32.22189
G1 X124.991 Y103.475 E32.27225
G1 X125.072 Y103.538 E32.28456
G1 X125.222 Y103.666 E32.30823
G1 X125.231 Y103.674 E32.30967
G1 X125.372 Y103.808 E32.33301
G1 X125.692 Y104.144 E32.38869
G1 X125.743 Y104.205 E32.39823
G1 X125.880 Y104.381 E32.42500
G1 X125.894 Y104.400 E32.42783
G1 X125.996 Y104.549 E32.44950
G1 X126.234 Y104.930 E32.50341
G1 X126.275 Y105.005 E32.51366
G1 X126.300 Y105.057 E32.52059
G1 X126.545 Y105.646 E32.59714
G1 X126.664 Y106.034 E32.64584
G1 X126.755 Y106.478 E32.70023
G1 X126.767 Y106.543 E32.70816
G1 X126.799 Y106.842 E32.74424
G1 X126.835 Y108.216 E32.90918
G1 X126.836 Y108.280 E32.91686
